(Project Case-layer3)
(Created by Estlcam version 11 build 11.109)
(Machining time about 00:23:44 hours)

(Required tools:)
(End 1.500mm)
G21
G90
G94
M03 S24000.0
G00 Z20.000


(No. 1 Helical drill: Helical drill 4)
G00 X4.630 Y4.000
G00 Z0.500
G02 X3.685 Y3.454 Z0.333 I-0.6300 J0.0000 F200 S24000.0
G02 Y4.546 Z0.167 I0.3150 J0.5456
G02 X4.630 Y4.000 Z0.000 I0.3150 J-0.5456
G02 X3.685 Y3.454 I-0.6300 J0.0000
G02 Y4.546 I0.3150 J0.5456
G02 X4.630 Y4.000 I0.3150 J-0.5456
G02 X3.685 Y3.454 Z-0.167 I-0.6300 J0.0000
G02 Y4.546 Z-0.333 I0.3150 J0.5456
G02 X4.630 Y4.000 Z-0.500 I0.3150 J-0.5456
G02 X3.685 Y3.454 I-0.6300 J0.0000
G02 Y4.546 I0.3150 J0.5456
G02 X4.630 Y4.000 I0.3150 J-0.5456
G02 X4.614 Y3.746 I-0.6355 J-0.0887 F500
G02 X4.495 Y3.505 I-0.6540 J0.1748
G02 X4.281 Y3.321 I-0.5625 J0.4369
G02 X4.000 Y3.230 I-0.3661 J0.6517
G02 X3.692 Y3.256 I-0.0888 J0.7776
G02 X3.406 Y3.406 I0.2291 J0.7851
G02 X3.192 Y3.665 I0.5371 J0.6627
G02 X3.090 Y4.000 I0.7825 J0.4203
G02 X3.127 Y4.362 I0.9191 J0.0888
G02 X3.307 Y4.693 I0.9157 J-0.2831
G02 X3.612 Y4.938 I0.7626 J-0.6370
G02 X4.000 Y5.050 I0.4743 J-0.9129
G02 X4.402 Y4.970 I0.0000 J-1.0500
G02 X4.742 Y4.742 I-0.4018 J-0.9701
G02 X4.970 Y4.402 I-0.7425 J-0.7425
G02 X5.050 Y4.000 I-0.9701 J-0.4018
G02 X3.475 Y3.091 I-1.0500 J0.0000
G02 Y4.909 I0.5250 J0.9093
G02 X5.050 Y4.000 I0.5250 J-0.9093
G02 X3.370 I-0.8400 J0.0000
G02 X4.630 I0.6300 J0.0000
G02 X3.685 Y3.454 Z-0.667 I-0.6300 J0.0000 F200
G02 Y4.546 Z-0.833 I0.3150 J0.5456
G02 X4.630 Y4.000 Z-1.000 I0.3150 J-0.5456
G02 X3.685 Y3.454 I-0.6300 J0.0000
G02 Y4.546 I0.3150 J0.5456
G02 X4.630 Y4.000 I0.3150 J-0.5456
G02 X4.614 Y3.746 I-0.6355 J-0.0887 F500
G02 X4.495 Y3.505 I-0.6540 J0.1748
G02 X4.281 Y3.321 I-0.5625 J0.4369
G02 X4.000 Y3.230 I-0.3661 J0.6517
G02 X3.692 Y3.256 I-0.0888 J0.7776
G02 X3.406 Y3.406 I0.2291 J0.7851
G02 X3.192 Y3.665 I0.5371 J0.6627
G02 X3.090 Y4.000 I0.7825 J0.4203
G02 X3.127 Y4.362 I0.9191 J0.0888
G02 X3.307 Y4.693 I0.9157 J-0.2831
G02 X3.612 Y4.938 I0.7626 J-0.6370
G02 X4.000 Y5.050 I0.4743 J-0.9129
G02 X4.402 Y4.970 I0.0000 J-1.0500
G02 X4.742 Y4.742 I-0.4018 J-0.9701
G02 X4.970 Y4.402 I-0.7425 J-0.7425
G02 X5.050 Y4.000 I-0.9701 J-0.4018
G02 X3.475 Y3.091 I-1.0500 J0.0000
G02 Y4.909 I0.5250 J0.9093
G02 X5.050 Y4.000 I0.5250 J-0.9093
G02 X3.370 I-0.8400 J0.0000
G02 X4.630 I0.6300 J0.0000
G02 X3.685 Y3.454 Z-1.167 I-0.6300 J0.0000 F200
G02 Y4.546 Z-1.333 I0.3150 J0.5456
G02 X4.630 Y4.000 Z-1.500 I0.3150 J-0.5456
G02 X3.685 Y3.454 I-0.6300 J0.0000
G02 Y4.546 I0.3150 J0.5456
G02 X4.630 Y4.000 I0.3150 J-0.5456
G02 X4.614 Y3.746 I-0.6355 J-0.0887 F500
G02 X4.495 Y3.505 I-0.6540 J0.1748
G02 X4.281 Y3.321 I-0.5625 J0.4369
G02 X4.000 Y3.230 I-0.3661 J0.6517
G02 X3.692 Y3.256 I-0.0888 J0.7776
G02 X3.406 Y3.406 I0.2291 J0.7851
G02 X3.192 Y3.665 I0.5371 J0.6627
G02 X3.090 Y4.000 I0.7825 J0.4203
G02 X3.127 Y4.362 I0.9191 J0.0888
G02 X3.307 Y4.693 I0.9157 J-0.2831
G02 X3.612 Y4.938 I0.7626 J-0.6370
G02 X4.000 Y5.050 I0.4743 J-0.9129
G02 X4.402 Y4.970 I0.0000 J-1.0500
G02 X4.742 Y4.742 I-0.4018 J-0.9701
G02 X4.970 Y4.402 I-0.7425 J-0.7425
G02 X5.050 Y4.000 I-0.9701 J-0.4018
G02 X3.475 Y3.091 I-1.0500 J0.0000
G02 Y4.909 I0.5250 J0.9093
G02 X5.050 Y4.000 I0.5250 J-0.9093
G02 X3.370 I-0.8400 J0.0000
G02 X4.630 I0.6300 J0.0000
G02 X3.685 Y3.454 Z-1.667 I-0.6300 J0.0000 F200
G02 Y4.546 Z-1.833 I0.3150 J0.5456
G02 X4.630 Y4.000 Z-2.000 I0.3150 J-0.5456
G02 X3.685 Y3.454 I-0.6300 J0.0000
G02 Y4.546 I0.3150 J0.5456
G02 X4.630 Y4.000 I0.3150 J-0.5456
G02 X4.614 Y3.746 I-0.6355 J-0.0887 F500
G02 X4.495 Y3.505 I-0.6540 J0.1748
G02 X4.281 Y3.321 I-0.5625 J0.4369
G02 X4.000 Y3.230 I-0.3661 J0.6517
G02 X3.692 Y3.256 I-0.0888 J0.7776
G02 X3.406 Y3.406 I0.2291 J0.7851
G02 X3.192 Y3.665 I0.5371 J0.6627
G02 X3.090 Y4.000 I0.7825 J0.4203
G02 X3.127 Y4.362 I0.9191 J0.0888
G02 X3.307 Y4.693 I0.9157 J-0.2831
G02 X3.612 Y4.938 I0.7626 J-0.6370
G02 X4.000 Y5.050 I0.4743 J-0.9129
G02 X4.402 Y4.970 I0.0000 J-1.0500
G02 X4.742 Y4.742 I-0.4018 J-0.9701
G02 X4.970 Y4.402 I-0.7425 J-0.7425
G02 X5.050 Y4.000 I-0.9701 J-0.4018
G02 X3.475 Y3.091 I-1.0500 J0.0000
G02 Y4.909 I0.5250 J0.9093
G02 X5.050 Y4.000 I0.5250 J-0.9093
G02 X3.370 I-0.8400 J0.0000
G02 X4.630 I0.6300 J0.0000
G02 X3.685 Y3.454 Z-2.167 I-0.6300 J0.0000 F200
G02 Y4.546 Z-2.333 I0.3150 J0.5456
G02 X4.630 Y4.000 Z-2.500 I0.3150 J-0.5456
G02 X3.685 Y3.454 I-0.6300 J0.0000
G02 Y4.546 I0.3150 J0.5456
G02 X4.630 Y4.000 I0.3150 J-0.5456
G02 X4.614 Y3.746 I-0.6355 J-0.0887 F500
G02 X4.495 Y3.505 I-0.6540 J0.1748
G02 X4.281 Y3.321 I-0.5625 J0.4369
G02 X4.000 Y3.230 I-0.3661 J0.6517
G02 X3.692 Y3.256 I-0.0888 J0.7776
G02 X3.406 Y3.406 I0.2291 J0.7851
G02 X3.192 Y3.665 I0.5371 J0.6627
G02 X3.090 Y4.000 I0.7825 J0.4203
G02 X3.127 Y4.362 I0.9191 J0.0888
G02 X3.307 Y4.693 I0.9157 J-0.2831
G02 X3.612 Y4.938 I0.7626 J-0.6370
G02 X4.000 Y5.050 I0.4743 J-0.9129
G02 X4.402 Y4.970 I0.0000 J-1.0500
G02 X4.742 Y4.742 I-0.4018 J-0.9701
G02 X4.970 Y4.402 I-0.7425 J-0.7425
G02 X5.050 Y4.000 I-0.9701 J-0.4018
G02 X3.475 Y3.091 I-1.0500 J0.0000
G02 Y4.909 I0.5250 J0.9093
G02 X5.050 Y4.000 I0.5250 J-0.9093
G02 X3.370 I-0.8400 J0.0000
G02 X4.630 I0.6300 J0.0000
G02 X3.685 Y3.454 Z-2.667 I-0.6300 J0.0000 F200
G02 Y4.546 Z-2.833 I0.3150 J0.5456
G02 X4.630 Y4.000 Z-3.000 I0.3150 J-0.5456
G02 X3.685 Y3.454 I-0.6300 J0.0000
G02 Y4.546 I0.3150 J0.5456
G02 X4.630 Y4.000 I0.3150 J-0.5456
G02 X4.614 Y3.746 I-0.6355 J-0.0887 F500
G02 X4.495 Y3.505 I-0.6540 J0.1748
G02 X4.281 Y3.321 I-0.5625 J0.4369
G02 X4.000 Y3.230 I-0.3661 J0.6517
G02 X3.692 Y3.256 I-0.0888 J0.7776
G02 X3.406 Y3.406 I0.2291 J0.7851
G02 X3.192 Y3.665 I0.5371 J0.6627
G02 X3.090 Y4.000 I0.7825 J0.4203
G02 X3.127 Y4.362 I0.9191 J0.0888
G02 X3.307 Y4.693 I0.9157 J-0.2831
G02 X3.612 Y4.938 I0.7626 J-0.6370
G02 X4.000 Y5.050 I0.4743 J-0.9129
G02 X4.402 Y4.970 I0.0000 J-1.0500
G02 X4.742 Y4.742 I-0.4018 J-0.9701
G02 X4.970 Y4.402 I-0.7425 J-0.7425
G02 X5.050 Y4.000 I-0.9701 J-0.4018
G02 X3.475 Y3.091 I-1.0500 J0.0000
G02 Y4.909 I0.5250 J0.9093
G02 X5.050 Y4.000 I0.5250 J-0.9093
G02 X3.370 I-0.8400 J0.0000
G02 X4.630 I0.6300 J0.0000
G02 X3.685 Y3.454 Z-3.167 I-0.6300 J0.0000 F200
G02 Y4.546 Z-3.333 I0.3150 J0.5456
G02 X4.630 Y4.000 Z-3.500 I0.3150 J-0.5456
G02 X3.685 Y3.454 I-0.6300 J0.0000
G02 Y4.546 I0.3150 J0.5456
G02 X4.630 Y4.000 I0.3150 J-0.5456
G02 X4.614 Y3.746 I-0.6355 J-0.0887 F500
G02 X4.495 Y3.505 I-0.6540 J0.1748
G02 X4.281 Y3.321 I-0.5625 J0.4369
G02 X4.000 Y3.230 I-0.3661 J0.6517
G02 X3.692 Y3.256 I-0.0888 J0.7776
G02 X3.406 Y3.406 I0.2291 J0.7851
G02 X3.192 Y3.665 I0.5371 J0.6627
G02 X3.090 Y4.000 I0.7825 J0.4203
G02 X3.127 Y4.362 I0.9191 J0.0888
G02 X3.307 Y4.693 I0.9157 J-0.2831
G02 X3.612 Y4.938 I0.7626 J-0.6370
G02 X4.000 Y5.050 I0.4743 J-0.9129
G02 X4.402 Y4.970 I0.0000 J-1.0500
G02 X4.742 Y4.742 I-0.4018 J-0.9701
G02 X4.970 Y4.402 I-0.7425 J-0.7425
G02 X5.050 Y4.000 I-0.9701 J-0.4018
G02 X3.475 Y3.091 I-1.0500 J0.0000
G02 Y4.909 I0.5250 J0.9093
G02 X5.050 Y4.000 I0.5250 J-0.9093
G02 X3.370 I-0.8400 J0.0000
G02 X4.630 I0.6300 J0.0000
G02 X3.685 Y3.454 Z-3.583 I-0.6300 J0.0000 F200
G02 Y4.546 Z-3.667 I0.3150 J0.5456
G02 X4.630 Y4.000 Z-3.750 I0.3150 J-0.5456
G02 X3.685 Y3.454 I-0.6300 J0.0000
G02 Y4.546 I0.3150 J0.5456
G02 X4.630 Y4.000 I0.3150 J-0.5456
G02 X4.614 Y3.746 I-0.6355 J-0.0887 F500
G02 X4.495 Y3.505 I-0.6540 J0.1748
G02 X4.281 Y3.321 I-0.5625 J0.4369
G02 X4.000 Y3.230 I-0.3661 J0.6517
G02 X3.692 Y3.256 I-0.0888 J0.7776
G02 X3.406 Y3.406 I0.2291 J0.7851
G02 X3.192 Y3.665 I0.5371 J0.6627
G02 X3.090 Y4.000 I0.7825 J0.4203
G02 X3.127 Y4.362 I0.9191 J0.0888
G02 X3.307 Y4.693 I0.9157 J-0.2831
G02 X3.612 Y4.938 I0.7626 J-0.6370
G02 X4.000 Y5.050 I0.4743 J-0.9129
G02 X4.402 Y4.970 I0.0000 J-1.0500
G02 X4.742 Y4.742 I-0.4018 J-0.9701
G02 X4.970 Y4.402 I-0.7425 J-0.7425
G02 X5.050 Y4.000 I-0.9701 J-0.4018
G02 X3.475 Y3.091 I-1.0500 J0.0000
G02 Y4.909 I0.5250 J0.9093
G02 X5.050 Y4.000 I0.5250 J-0.9093
G02 X4.350 Y3.300 Z-3.250 I-0.7000 J0.0000 F200
G00 Z20.000


(No. 2 Helical drill: Helical drill 1)
G00 X4.630 Y62.000 Z20.000
G00 Z0.500
G02 X3.685 Y61.454 Z0.333 I-0.6300 J0.0000 F200
G02 Y62.546 Z0.167 I0.3150 J0.5456
G02 X4.630 Y62.000 Z0.000 I0.3150 J-0.5456
G02 X3.685 Y61.454 I-0.6300 J0.0000
G02 Y62.546 I0.3150 J0.5456
G02 X4.630 Y62.000 I0.3150 J-0.5456
G02 X3.685 Y61.454 Z-0.167 I-0.6300 J0.0000
G02 Y62.546 Z-0.333 I0.3150 J0.5456
G02 X4.630 Y62.000 Z-0.500 I0.3150 J-0.5456
G02 X3.685 Y61.454 I-0.6300 J0.0000
G02 Y62.546 I0.3150 J0.5456
G02 X4.630 Y62.000 I0.3150 J-0.5456
G02 X4.614 Y61.746 I-0.6355 J-0.0887 F500
G02 X4.495 Y61.505 I-0.6540 J0.1748
G02 X4.281 Y61.321 I-0.5625 J0.4369
G02 X4.000 Y61.230 I-0.3661 J0.6517
G02 X3.692 Y61.256 I-0.0888 J0.7776
G02 X3.406 Y61.406 I0.2291 J0.7851
G02 X3.192 Y61.665 I0.5371 J0.6627
G02 X3.090 Y62.000 I0.7825 J0.4203
G02 X3.127 Y62.362 I0.9191 J0.0888
G02 X3.307 Y62.693 I0.9157 J-0.2831
G02 X3.612 Y62.938 I0.7626 J-0.6370
G02 X4.000 Y63.050 I0.4743 J-0.9129
G02 X4.402 Y62.970 I0.0000 J-1.0500
G02 X4.742 Y62.742 I-0.4018 J-0.9701
G02 X4.970 Y62.402 I-0.7425 J-0.7425
G02 X5.050 Y62.000 I-0.9701 J-0.4018
G02 X3.475 Y61.091 I-1.0500 J0.0000
G02 Y62.909 I0.5250 J0.9093
G02 X5.050 Y62.000 I0.5250 J-0.9093
G02 X3.370 I-0.8400 J0.0000
G02 X4.630 I0.6300 J0.0000
G02 X3.685 Y61.454 Z-0.667 I-0.6300 J0.0000 F200
G02 Y62.546 Z-0.833 I0.3150 J0.5456
G02 X4.630 Y62.000 Z-1.000 I0.3150 J-0.5456
G02 X3.685 Y61.454 I-0.6300 J0.0000
G02 Y62.546 I0.3150 J0.5456
G02 X4.630 Y62.000 I0.3150 J-0.5456
G02 X4.614 Y61.746 I-0.6355 J-0.0887 F500
G02 X4.495 Y61.505 I-0.6540 J0.1748
G02 X4.281 Y61.321 I-0.5625 J0.4369
G02 X4.000 Y61.230 I-0.3661 J0.6517
G02 X3.692 Y61.256 I-0.0888 J0.7776
G02 X3.406 Y61.406 I0.2291 J0.7851
G02 X3.192 Y61.665 I0.5371 J0.6627
G02 X3.090 Y62.000 I0.7825 J0.4203
G02 X3.127 Y62.362 I0.9191 J0.0888
G02 X3.307 Y62.693 I0.9157 J-0.2831
G02 X3.612 Y62.938 I0.7626 J-0.6370
G02 X4.000 Y63.050 I0.4743 J-0.9129
G02 X4.402 Y62.970 I0.0000 J-1.0500
G02 X4.742 Y62.742 I-0.4018 J-0.9701
G02 X4.970 Y62.402 I-0.7425 J-0.7425
G02 X5.050 Y62.000 I-0.9701 J-0.4018
G02 X3.475 Y61.091 I-1.0500 J0.0000
G02 Y62.909 I0.5250 J0.9093
G02 X5.050 Y62.000 I0.5250 J-0.9093
G02 X3.370 I-0.8400 J0.0000
G02 X4.630 I0.6300 J0.0000
G02 X3.685 Y61.454 Z-1.167 I-0.6300 J0.0000 F200
G02 Y62.546 Z-1.333 I0.3150 J0.5456
G02 X4.630 Y62.000 Z-1.500 I0.3150 J-0.5456
G02 X3.685 Y61.454 I-0.6300 J0.0000
G02 Y62.546 I0.3150 J0.5456
G02 X4.630 Y62.000 I0.3150 J-0.5456
G02 X4.614 Y61.746 I-0.6355 J-0.0887 F500
G02 X4.495 Y61.505 I-0.6540 J0.1748
G02 X4.281 Y61.321 I-0.5625 J0.4369
G02 X4.000 Y61.230 I-0.3661 J0.6517
G02 X3.692 Y61.256 I-0.0888 J0.7776
G02 X3.406 Y61.406 I0.2291 J0.7851
G02 X3.192 Y61.665 I0.5371 J0.6627
G02 X3.090 Y62.000 I0.7825 J0.4203
G02 X3.127 Y62.362 I0.9191 J0.0888
G02 X3.307 Y62.693 I0.9157 J-0.2831
G02 X3.612 Y62.938 I0.7626 J-0.6370
G02 X4.000 Y63.050 I0.4743 J-0.9129
G02 X4.402 Y62.970 I0.0000 J-1.0500
G02 X4.742 Y62.742 I-0.4018 J-0.9701
G02 X4.970 Y62.402 I-0.7425 J-0.7425
G02 X5.050 Y62.000 I-0.9701 J-0.4018
G02 X3.475 Y61.091 I-1.0500 J0.0000
G02 Y62.909 I0.5250 J0.9093
G02 X5.050 Y62.000 I0.5250 J-0.9093
G02 X3.370 I-0.8400 J0.0000
G02 X4.630 I0.6300 J0.0000
G02 X3.685 Y61.454 Z-1.667 I-0.6300 J0.0000 F200
G02 Y62.546 Z-1.833 I0.3150 J0.5456
G02 X4.630 Y62.000 Z-2.000 I0.3150 J-0.5456
G02 X3.685 Y61.454 I-0.6300 J0.0000
G02 Y62.546 I0.3150 J0.5456
G02 X4.630 Y62.000 I0.3150 J-0.5456
G02 X4.614 Y61.746 I-0.6355 J-0.0887 F500
G02 X4.495 Y61.505 I-0.6540 J0.1748
G02 X4.281 Y61.321 I-0.5625 J0.4369
G02 X4.000 Y61.230 I-0.3661 J0.6517
G02 X3.692 Y61.256 I-0.0888 J0.7776
G02 X3.406 Y61.406 I0.2291 J0.7851
G02 X3.192 Y61.665 I0.5371 J0.6627
G02 X3.090 Y62.000 I0.7825 J0.4203
G02 X3.127 Y62.362 I0.9191 J0.0888
G02 X3.307 Y62.693 I0.9157 J-0.2831
G02 X3.612 Y62.938 I0.7626 J-0.6370
G02 X4.000 Y63.050 I0.4743 J-0.9129
G02 X4.402 Y62.970 I0.0000 J-1.0500
G02 X4.742 Y62.742 I-0.4018 J-0.9701
G02 X4.970 Y62.402 I-0.7425 J-0.7425
G02 X5.050 Y62.000 I-0.9701 J-0.4018
G02 X3.475 Y61.091 I-1.0500 J0.0000
G02 Y62.909 I0.5250 J0.9093
G02 X5.050 Y62.000 I0.5250 J-0.9093
G02 X3.370 I-0.8400 J0.0000
G02 X4.630 I0.6300 J0.0000
G02 X3.685 Y61.454 Z-2.167 I-0.6300 J0.0000 F200
G02 Y62.546 Z-2.333 I0.3150 J0.5456
G02 X4.630 Y62.000 Z-2.500 I0.3150 J-0.5456
G02 X3.685 Y61.454 I-0.6300 J0.0000
G02 Y62.546 I0.3150 J0.5456
G02 X4.630 Y62.000 I0.3150 J-0.5456
G02 X4.614 Y61.746 I-0.6355 J-0.0887 F500
G02 X4.495 Y61.505 I-0.6540 J0.1748
G02 X4.281 Y61.321 I-0.5625 J0.4369
G02 X4.000 Y61.230 I-0.3661 J0.6517
G02 X3.692 Y61.256 I-0.0888 J0.7776
G02 X3.406 Y61.406 I0.2291 J0.7851
G02 X3.192 Y61.665 I0.5371 J0.6627
G02 X3.090 Y62.000 I0.7825 J0.4203
G02 X3.127 Y62.362 I0.9191 J0.0888
G02 X3.307 Y62.693 I0.9157 J-0.2831
G02 X3.612 Y62.938 I0.7626 J-0.6370
G02 X4.000 Y63.050 I0.4743 J-0.9129
G02 X4.402 Y62.970 I0.0000 J-1.0500
G02 X4.742 Y62.742 I-0.4018 J-0.9701
G02 X4.970 Y62.402 I-0.7425 J-0.7425
G02 X5.050 Y62.000 I-0.9701 J-0.4018
G02 X3.475 Y61.091 I-1.0500 J0.0000
G02 Y62.909 I0.5250 J0.9093
G02 X5.050 Y62.000 I0.5250 J-0.9093
G02 X3.370 I-0.8400 J0.0000
G02 X4.630 I0.6300 J0.0000
G02 X3.685 Y61.454 Z-2.667 I-0.6300 J0.0000 F200
G02 Y62.546 Z-2.833 I0.3150 J0.5456
G02 X4.630 Y62.000 Z-3.000 I0.3150 J-0.5456
G02 X3.685 Y61.454 I-0.6300 J0.0000
G02 Y62.546 I0.3150 J0.5456
G02 X4.630 Y62.000 I0.3150 J-0.5456
G02 X4.614 Y61.746 I-0.6355 J-0.0887 F500
G02 X4.495 Y61.505 I-0.6540 J0.1748
G02 X4.281 Y61.321 I-0.5625 J0.4369
G02 X4.000 Y61.230 I-0.3661 J0.6517
G02 X3.692 Y61.256 I-0.0888 J0.7776
G02 X3.406 Y61.406 I0.2291 J0.7851
G02 X3.192 Y61.665 I0.5371 J0.6627
G02 X3.090 Y62.000 I0.7825 J0.4203
G02 X3.127 Y62.362 I0.9191 J0.0888
G02 X3.307 Y62.693 I0.9157 J-0.2831
G02 X3.612 Y62.938 I0.7626 J-0.6370
G02 X4.000 Y63.050 I0.4743 J-0.9129
G02 X4.402 Y62.970 I0.0000 J-1.0500
G02 X4.742 Y62.742 I-0.4018 J-0.9701
G02 X4.970 Y62.402 I-0.7425 J-0.7425
G02 X5.050 Y62.000 I-0.9701 J-0.4018
G02 X3.475 Y61.091 I-1.0500 J0.0000
G02 Y62.909 I0.5250 J0.9093
G02 X5.050 Y62.000 I0.5250 J-0.9093
G02 X3.370 I-0.8400 J0.0000
G02 X4.630 I0.6300 J0.0000
G02 X3.685 Y61.454 Z-3.167 I-0.6300 J0.0000 F200
G02 Y62.546 Z-3.333 I0.3150 J0.5456
G02 X4.630 Y62.000 Z-3.500 I0.3150 J-0.5456
G02 X3.685 Y61.454 I-0.6300 J0.0000
G02 Y62.546 I0.3150 J0.5456
G02 X4.630 Y62.000 I0.3150 J-0.5456
G02 X4.614 Y61.746 I-0.6355 J-0.0887 F500
G02 X4.495 Y61.505 I-0.6540 J0.1748
G02 X4.281 Y61.321 I-0.5625 J0.4369
G02 X4.000 Y61.230 I-0.3661 J0.6517
G02 X3.692 Y61.256 I-0.0888 J0.7776
G02 X3.406 Y61.406 I0.2291 J0.7851
G02 X3.192 Y61.665 I0.5371 J0.6627
G02 X3.090 Y62.000 I0.7825 J0.4203
G02 X3.127 Y62.362 I0.9191 J0.0888
G02 X3.307 Y62.693 I0.9157 J-0.2831
G02 X3.612 Y62.938 I0.7626 J-0.6370
G02 X4.000 Y63.050 I0.4743 J-0.9129
G02 X4.402 Y62.970 I0.0000 J-1.0500
G02 X4.742 Y62.742 I-0.4018 J-0.9701
G02 X4.970 Y62.402 I-0.7425 J-0.7425
G02 X5.050 Y62.000 I-0.9701 J-0.4018
G02 X3.475 Y61.091 I-1.0500 J0.0000
G02 Y62.909 I0.5250 J0.9093
G02 X5.050 Y62.000 I0.5250 J-0.9093
G02 X3.370 I-0.8400 J0.0000
G02 X4.630 I0.6300 J0.0000
G02 X3.685 Y61.454 Z-3.583 I-0.6300 J0.0000 F200
G02 Y62.546 Z-3.667 I0.3150 J0.5456
G02 X4.630 Y62.000 Z-3.750 I0.3150 J-0.5456
G02 X3.685 Y61.454 I-0.6300 J0.0000
G02 Y62.546 I0.3150 J0.5456
G02 X4.630 Y62.000 I0.3150 J-0.5456
G02 X4.614 Y61.746 I-0.6355 J-0.0887 F500
G02 X4.495 Y61.505 I-0.6540 J0.1748
G02 X4.281 Y61.321 I-0.5625 J0.4369
G02 X4.000 Y61.230 I-0.3661 J0.6517
G02 X3.692 Y61.256 I-0.0888 J0.7776
G02 X3.406 Y61.406 I0.2291 J0.7851
G02 X3.192 Y61.665 I0.5371 J0.6627
G02 X3.090 Y62.000 I0.7825 J0.4203
G02 X3.127 Y62.362 I0.9191 J0.0888
G02 X3.307 Y62.693 I0.9157 J-0.2831
G02 X3.612 Y62.938 I0.7626 J-0.6370
G02 X4.000 Y63.050 I0.4743 J-0.9129
G02 X4.402 Y62.970 I0.0000 J-1.0500
G02 X4.742 Y62.742 I-0.4018 J-0.9701
G02 X4.970 Y62.402 I-0.7425 J-0.7425
G02 X5.050 Y62.000 I-0.9701 J-0.4018
G02 X3.475 Y61.091 I-1.0500 J0.0000
G02 Y62.909 I0.5250 J0.9093
G02 X5.050 Y62.000 I0.5250 J-0.9093
G02 X4.350 Y61.300 Z-3.250 I-0.7000 J0.0000 F200
G00 Z20.000


(No. 3 Helical drill: Helical drill 2)
G00 X107.630 Y62.000 Z20.000
G00 Z0.500
G02 X106.685 Y61.454 Z0.333 I-0.6300 J0.0000 F200
G02 Y62.546 Z0.167 I0.3150 J0.5456
G02 X107.630 Y62.000 Z0.000 I0.3150 J-0.5456
G02 X106.685 Y61.454 I-0.6300 J0.0000
G02 Y62.546 I0.3150 J0.5456
G02 X107.630 Y62.000 I0.3150 J-0.5456
G02 X106.685 Y61.454 Z-0.167 I-0.6300 J0.0000
G02 Y62.546 Z-0.333 I0.3150 J0.5456
G02 X107.630 Y62.000 Z-0.500 I0.3150 J-0.5456
G02 X106.685 Y61.454 I-0.6300 J0.0000
G02 Y62.546 I0.3150 J0.5456
G02 X107.630 Y62.000 I0.3150 J-0.5456
G02 X107.614 Y61.746 I-0.6355 J-0.0887 F500
G02 X107.495 Y61.505 I-0.6540 J0.1748
G02 X107.281 Y61.321 I-0.5625 J0.4369
G02 X107.000 Y61.230 I-0.3661 J0.6517
G02 X106.692 Y61.256 I-0.0888 J0.7776
G02 X106.406 Y61.406 I0.2291 J0.7851
G02 X106.192 Y61.665 I0.5371 J0.6627
G02 X106.090 Y62.000 I0.7825 J0.4203
G02 X106.127 Y62.362 I0.9191 J0.0888
G02 X106.307 Y62.693 I0.9157 J-0.2831
G02 X106.612 Y62.938 I0.7626 J-0.6370
G02 X107.000 Y63.050 I0.4743 J-0.9129
G02 X107.402 Y62.970 I0.0000 J-1.0500
G02 X107.742 Y62.742 I-0.4018 J-0.9701
G02 X107.970 Y62.402 I-0.7425 J-0.7425
G02 X108.050 Y62.000 I-0.9701 J-0.4018
G02 X106.475 Y61.091 I-1.0500 J0.0000
G02 Y62.909 I0.5250 J0.9093
G02 X108.050 Y62.000 I0.5250 J-0.9093
G02 X106.370 I-0.8400 J0.0000
G02 X107.630 I0.6300 J0.0000
G02 X106.685 Y61.454 Z-0.667 I-0.6300 J0.0000 F200
G02 Y62.546 Z-0.833 I0.3150 J0.5456
G02 X107.630 Y62.000 Z-1.000 I0.3150 J-0.5456
G02 X106.685 Y61.454 I-0.6300 J0.0000
G02 Y62.546 I0.3150 J0.5456
G02 X107.630 Y62.000 I0.3150 J-0.5456
G02 X107.614 Y61.746 I-0.6355 J-0.0887 F500
G02 X107.495 Y61.505 I-0.6540 J0.1748
G02 X107.281 Y61.321 I-0.5625 J0.4369
G02 X107.000 Y61.230 I-0.3661 J0.6517
G02 X106.692 Y61.256 I-0.0888 J0.7776
G02 X106.406 Y61.406 I0.2291 J0.7851
G02 X106.192 Y61.665 I0.5371 J0.6627
G02 X106.090 Y62.000 I0.7825 J0.4203
G02 X106.127 Y62.362 I0.9191 J0.0888
G02 X106.307 Y62.693 I0.9157 J-0.2831
G02 X106.612 Y62.938 I0.7626 J-0.6370
G02 X107.000 Y63.050 I0.4743 J-0.9129
G02 X107.402 Y62.970 I0.0000 J-1.0500
G02 X107.742 Y62.742 I-0.4018 J-0.9701
G02 X107.970 Y62.402 I-0.7425 J-0.7425
G02 X108.050 Y62.000 I-0.9701 J-0.4018
G02 X106.475 Y61.091 I-1.0500 J0.0000
G02 Y62.909 I0.5250 J0.9093
G02 X108.050 Y62.000 I0.5250 J-0.9093
G02 X106.370 I-0.8400 J0.0000
G02 X107.630 I0.6300 J0.0000
G02 X106.685 Y61.454 Z-1.167 I-0.6300 J0.0000 F200
G02 Y62.546 Z-1.333 I0.3150 J0.5456
G02 X107.630 Y62.000 Z-1.500 I0.3150 J-0.5456
G02 X106.685 Y61.454 I-0.6300 J0.0000
G02 Y62.546 I0.3150 J0.5456
G02 X107.630 Y62.000 I0.3150 J-0.5456
G02 X107.614 Y61.746 I-0.6355 J-0.0887 F500
G02 X107.495 Y61.505 I-0.6540 J0.1748
G02 X107.281 Y61.321 I-0.5625 J0.4369
G02 X107.000 Y61.230 I-0.3661 J0.6517
G02 X106.692 Y61.256 I-0.0888 J0.7776
G02 X106.406 Y61.406 I0.2291 J0.7851
G02 X106.192 Y61.665 I0.5371 J0.6627
G02 X106.090 Y62.000 I0.7825 J0.4203
G02 X106.127 Y62.362 I0.9191 J0.0888
G02 X106.307 Y62.693 I0.9157 J-0.2831
G02 X106.612 Y62.938 I0.7626 J-0.6370
G02 X107.000 Y63.050 I0.4743 J-0.9129
G02 X107.402 Y62.970 I0.0000 J-1.0500
G02 X107.742 Y62.742 I-0.4018 J-0.9701
G02 X107.970 Y62.402 I-0.7425 J-0.7425
G02 X108.050 Y62.000 I-0.9701 J-0.4018
G02 X106.475 Y61.091 I-1.0500 J0.0000
G02 Y62.909 I0.5250 J0.9093
G02 X108.050 Y62.000 I0.5250 J-0.9093
G02 X106.370 I-0.8400 J0.0000
G02 X107.630 I0.6300 J0.0000
G02 X106.685 Y61.454 Z-1.667 I-0.6300 J0.0000 F200
G02 Y62.546 Z-1.833 I0.3150 J0.5456
G02 X107.630 Y62.000 Z-2.000 I0.3150 J-0.5456
G02 X106.685 Y61.454 I-0.6300 J0.0000
G02 Y62.546 I0.3150 J0.5456
G02 X107.630 Y62.000 I0.3150 J-0.5456
G02 X107.614 Y61.746 I-0.6355 J-0.0887 F500
G02 X107.495 Y61.505 I-0.6540 J0.1748
G02 X107.281 Y61.321 I-0.5625 J0.4369
G02 X107.000 Y61.230 I-0.3661 J0.6517
G02 X106.692 Y61.256 I-0.0888 J0.7776
G02 X106.406 Y61.406 I0.2291 J0.7851
G02 X106.192 Y61.665 I0.5371 J0.6627
G02 X106.090 Y62.000 I0.7825 J0.4203
G02 X106.127 Y62.362 I0.9191 J0.0888
G02 X106.307 Y62.693 I0.9157 J-0.2831
G02 X106.612 Y62.938 I0.7626 J-0.6370
G02 X107.000 Y63.050 I0.4743 J-0.9129
G02 X107.402 Y62.970 I0.0000 J-1.0500
G02 X107.742 Y62.742 I-0.4018 J-0.9701
G02 X107.970 Y62.402 I-0.7425 J-0.7425
G02 X108.050 Y62.000 I-0.9701 J-0.4018
G02 X106.475 Y61.091 I-1.0500 J0.0000
G02 Y62.909 I0.5250 J0.9093
G02 X108.050 Y62.000 I0.5250 J-0.9093
G02 X106.370 I-0.8400 J0.0000
G02 X107.630 I0.6300 J0.0000
G02 X106.685 Y61.454 Z-2.167 I-0.6300 J0.0000 F200
G02 Y62.546 Z-2.333 I0.3150 J0.5456
G02 X107.630 Y62.000 Z-2.500 I0.3150 J-0.5456
G02 X106.685 Y61.454 I-0.6300 J0.0000
G02 Y62.546 I0.3150 J0.5456
G02 X107.630 Y62.000 I0.3150 J-0.5456
G02 X107.614 Y61.746 I-0.6355 J-0.0887 F500
G02 X107.495 Y61.505 I-0.6540 J0.1748
G02 X107.281 Y61.321 I-0.5625 J0.4369
G02 X107.000 Y61.230 I-0.3661 J0.6517
G02 X106.692 Y61.256 I-0.0888 J0.7776
G02 X106.406 Y61.406 I0.2291 J0.7851
G02 X106.192 Y61.665 I0.5371 J0.6627
G02 X106.090 Y62.000 I0.7825 J0.4203
G02 X106.127 Y62.362 I0.9191 J0.0888
G02 X106.307 Y62.693 I0.9157 J-0.2831
G02 X106.612 Y62.938 I0.7626 J-0.6370
G02 X107.000 Y63.050 I0.4743 J-0.9129
G02 X107.402 Y62.970 I0.0000 J-1.0500
G02 X107.742 Y62.742 I-0.4018 J-0.9701
G02 X107.970 Y62.402 I-0.7425 J-0.7425
G02 X108.050 Y62.000 I-0.9701 J-0.4018
G02 X106.475 Y61.091 I-1.0500 J0.0000
G02 Y62.909 I0.5250 J0.9093
G02 X108.050 Y62.000 I0.5250 J-0.9093
G02 X106.370 I-0.8400 J0.0000
G02 X107.630 I0.6300 J0.0000
G02 X106.685 Y61.454 Z-2.667 I-0.6300 J0.0000 F200
G02 Y62.546 Z-2.833 I0.3150 J0.5456
G02 X107.630 Y62.000 Z-3.000 I0.3150 J-0.5456
G02 X106.685 Y61.454 I-0.6300 J0.0000
G02 Y62.546 I0.3150 J0.5456
G02 X107.630 Y62.000 I0.3150 J-0.5456
G02 X107.614 Y61.746 I-0.6355 J-0.0887 F500
G02 X107.495 Y61.505 I-0.6540 J0.1748
G02 X107.281 Y61.321 I-0.5625 J0.4369
G02 X107.000 Y61.230 I-0.3661 J0.6517
G02 X106.692 Y61.256 I-0.0888 J0.7776
G02 X106.406 Y61.406 I0.2291 J0.7851
G02 X106.192 Y61.665 I0.5371 J0.6627
G02 X106.090 Y62.000 I0.7825 J0.4203
G02 X106.127 Y62.362 I0.9191 J0.0888
G02 X106.307 Y62.693 I0.9157 J-0.2831
G02 X106.612 Y62.938 I0.7626 J-0.6370
G02 X107.000 Y63.050 I0.4743 J-0.9129
G02 X107.402 Y62.970 I0.0000 J-1.0500
G02 X107.742 Y62.742 I-0.4018 J-0.9701
G02 X107.970 Y62.402 I-0.7425 J-0.7425
G02 X108.050 Y62.000 I-0.9701 J-0.4018
G02 X106.475 Y61.091 I-1.0500 J0.0000
G02 Y62.909 I0.5250 J0.9093
G02 X108.050 Y62.000 I0.5250 J-0.9093
G02 X106.370 I-0.8400 J0.0000
G02 X107.630 I0.6300 J0.0000
G02 X106.685 Y61.454 Z-3.167 I-0.6300 J0.0000 F200
G02 Y62.546 Z-3.333 I0.3150 J0.5456
G02 X107.630 Y62.000 Z-3.500 I0.3150 J-0.5456
G02 X106.685 Y61.454 I-0.6300 J0.0000
G02 Y62.546 I0.3150 J0.5456
G02 X107.630 Y62.000 I0.3150 J-0.5456
G02 X107.614 Y61.746 I-0.6355 J-0.0887 F500
G02 X107.495 Y61.505 I-0.6540 J0.1748
G02 X107.281 Y61.321 I-0.5625 J0.4369
G02 X107.000 Y61.230 I-0.3661 J0.6517
G02 X106.692 Y61.256 I-0.0888 J0.7776
G02 X106.406 Y61.406 I0.2291 J0.7851
G02 X106.192 Y61.665 I0.5371 J0.6627
G02 X106.090 Y62.000 I0.7825 J0.4203
G02 X106.127 Y62.362 I0.9191 J0.0888
G02 X106.307 Y62.693 I0.9157 J-0.2831
G02 X106.612 Y62.938 I0.7626 J-0.6370
G02 X107.000 Y63.050 I0.4743 J-0.9129
G02 X107.402 Y62.970 I0.0000 J-1.0500
G02 X107.742 Y62.742 I-0.4018 J-0.9701
G02 X107.970 Y62.402 I-0.7425 J-0.7425
G02 X108.050 Y62.000 I-0.9701 J-0.4018
G02 X106.475 Y61.091 I-1.0500 J0.0000
G02 Y62.909 I0.5250 J0.9093
G02 X108.050 Y62.000 I0.5250 J-0.9093
G02 X106.370 I-0.8400 J0.0000
G02 X107.630 I0.6300 J0.0000
G02 X106.685 Y61.454 Z-3.583 I-0.6300 J0.0000 F200
G02 Y62.546 Z-3.667 I0.3150 J0.5456
G02 X107.630 Y62.000 Z-3.750 I0.3150 J-0.5456
G02 X106.685 Y61.454 I-0.6300 J0.0000
G02 Y62.546 I0.3150 J0.5456
G02 X107.630 Y62.000 I0.3150 J-0.5456
G02 X107.614 Y61.746 I-0.6355 J-0.0887 F500
G02 X107.495 Y61.505 I-0.6540 J0.1748
G02 X107.281 Y61.321 I-0.5625 J0.4369
G02 X107.000 Y61.230 I-0.3661 J0.6517
G02 X106.692 Y61.256 I-0.0888 J0.7776
G02 X106.406 Y61.406 I0.2291 J0.7851
G02 X106.192 Y61.665 I0.5371 J0.6627
G02 X106.090 Y62.000 I0.7825 J0.4203
G02 X106.127 Y62.362 I0.9191 J0.0888
G02 X106.307 Y62.693 I0.9157 J-0.2831
G02 X106.612 Y62.938 I0.7626 J-0.6370
G02 X107.000 Y63.050 I0.4743 J-0.9129
G02 X107.402 Y62.970 I0.0000 J-1.0500
G02 X107.742 Y62.742 I-0.4018 J-0.9701
G02 X107.970 Y62.402 I-0.7425 J-0.7425
G02 X108.050 Y62.000 I-0.9701 J-0.4018
G02 X106.475 Y61.091 I-1.0500 J0.0000
G02 Y62.909 I0.5250 J0.9093
G02 X108.050 Y62.000 I0.5250 J-0.9093
G02 X107.350 Y61.300 Z-3.250 I-0.7000 J0.0000 F200
G00 Z20.000


(No. 4 Helical drill: Helical drill 3)
G00 X107.630 Y4.000 Z20.000
G00 Z0.500
G02 X106.685 Y3.454 Z0.333 I-0.6300 J0.0000 F200
G02 Y4.546 Z0.167 I0.3150 J0.5456
G02 X107.630 Y4.000 Z0.000 I0.3150 J-0.5456
G02 X106.685 Y3.454 I-0.6300 J0.0000
G02 Y4.546 I0.3150 J0.5456
G02 X107.630 Y4.000 I0.3150 J-0.5456
G02 X106.685 Y3.454 Z-0.167 I-0.6300 J0.0000
G02 Y4.546 Z-0.333 I0.3150 J0.5456
G02 X107.630 Y4.000 Z-0.500 I0.3150 J-0.5456
G02 X106.685 Y3.454 I-0.6300 J0.0000
G02 Y4.546 I0.3150 J0.5456
G02 X107.630 Y4.000 I0.3150 J-0.5456
G02 X107.614 Y3.746 I-0.6355 J-0.0887 F500
G02 X107.495 Y3.505 I-0.6540 J0.1748
G02 X107.281 Y3.321 I-0.5625 J0.4369
G02 X107.000 Y3.230 I-0.3661 J0.6517
G02 X106.692 Y3.256 I-0.0888 J0.7776
G02 X106.406 Y3.406 I0.2291 J0.7851
G02 X106.192 Y3.665 I0.5371 J0.6627
G02 X106.090 Y4.000 I0.7825 J0.4203
G02 X106.127 Y4.362 I0.9191 J0.0888
G02 X106.307 Y4.693 I0.9157 J-0.2831
G02 X106.612 Y4.938 I0.7626 J-0.6370
G02 X107.000 Y5.050 I0.4743 J-0.9129
G02 X107.402 Y4.970 I0.0000 J-1.0500
G02 X107.742 Y4.742 I-0.4018 J-0.9701
G02 X107.970 Y4.402 I-0.7425 J-0.7425
G02 X108.050 Y4.000 I-0.9701 J-0.4018
G02 X106.475 Y3.091 I-1.0500 J0.0000
G02 Y4.909 I0.5250 J0.9093
G02 X108.050 Y4.000 I0.5250 J-0.9093
G02 X106.370 I-0.8400 J0.0000
G02 X107.630 I0.6300 J0.0000
G02 X106.685 Y3.454 Z-0.667 I-0.6300 J0.0000 F200
G02 Y4.546 Z-0.833 I0.3150 J0.5456
G02 X107.630 Y4.000 Z-1.000 I0.3150 J-0.5456
G02 X106.685 Y3.454 I-0.6300 J0.0000
G02 Y4.546 I0.3150 J0.5456
G02 X107.630 Y4.000 I0.3150 J-0.5456
G02 X107.614 Y3.746 I-0.6355 J-0.0887 F500
G02 X107.495 Y3.505 I-0.6540 J0.1748
G02 X107.281 Y3.321 I-0.5625 J0.4369
G02 X107.000 Y3.230 I-0.3661 J0.6517
G02 X106.692 Y3.256 I-0.0888 J0.7776
G02 X106.406 Y3.406 I0.2291 J0.7851
G02 X106.192 Y3.665 I0.5371 J0.6627
G02 X106.090 Y4.000 I0.7825 J0.4203
G02 X106.127 Y4.362 I0.9191 J0.0888
G02 X106.307 Y4.693 I0.9157 J-0.2831
G02 X106.612 Y4.938 I0.7626 J-0.6370
G02 X107.000 Y5.050 I0.4743 J-0.9129
G02 X107.402 Y4.970 I0.0000 J-1.0500
G02 X107.742 Y4.742 I-0.4018 J-0.9701
G02 X107.970 Y4.402 I-0.7425 J-0.7425
G02 X108.050 Y4.000 I-0.9701 J-0.4018
G02 X106.475 Y3.091 I-1.0500 J0.0000
G02 Y4.909 I0.5250 J0.9093
G02 X108.050 Y4.000 I0.5250 J-0.9093
G02 X106.370 I-0.8400 J0.0000
G02 X107.630 I0.6300 J0.0000
G02 X106.685 Y3.454 Z-1.167 I-0.6300 J0.0000 F200
G02 Y4.546 Z-1.333 I0.3150 J0.5456
G02 X107.630 Y4.000 Z-1.500 I0.3150 J-0.5456
G02 X106.685 Y3.454 I-0.6300 J0.0000
G02 Y4.546 I0.3150 J0.5456
G02 X107.630 Y4.000 I0.3150 J-0.5456
G02 X107.614 Y3.746 I-0.6355 J-0.0887 F500
G02 X107.495 Y3.505 I-0.6540 J0.1748
G02 X107.281 Y3.321 I-0.5625 J0.4369
G02 X107.000 Y3.230 I-0.3661 J0.6517
G02 X106.692 Y3.256 I-0.0888 J0.7776
G02 X106.406 Y3.406 I0.2291 J0.7851
G02 X106.192 Y3.665 I0.5371 J0.6627
G02 X106.090 Y4.000 I0.7825 J0.4203
G02 X106.127 Y4.362 I0.9191 J0.0888
G02 X106.307 Y4.693 I0.9157 J-0.2831
G02 X106.612 Y4.938 I0.7626 J-0.6370
G02 X107.000 Y5.050 I0.4743 J-0.9129
G02 X107.402 Y4.970 I0.0000 J-1.0500
G02 X107.742 Y4.742 I-0.4018 J-0.9701
G02 X107.970 Y4.402 I-0.7425 J-0.7425
G02 X108.050 Y4.000 I-0.9701 J-0.4018
G02 X106.475 Y3.091 I-1.0500 J0.0000
G02 Y4.909 I0.5250 J0.9093
G02 X108.050 Y4.000 I0.5250 J-0.9093
G02 X106.370 I-0.8400 J0.0000
G02 X107.630 I0.6300 J0.0000
G02 X106.685 Y3.454 Z-1.667 I-0.6300 J0.0000 F200
G02 Y4.546 Z-1.833 I0.3150 J0.5456
G02 X107.630 Y4.000 Z-2.000 I0.3150 J-0.5456
G02 X106.685 Y3.454 I-0.6300 J0.0000
G02 Y4.546 I0.3150 J0.5456
G02 X107.630 Y4.000 I0.3150 J-0.5456
G02 X107.614 Y3.746 I-0.6355 J-0.0887 F500
G02 X107.495 Y3.505 I-0.6540 J0.1748
G02 X107.281 Y3.321 I-0.5625 J0.4369
G02 X107.000 Y3.230 I-0.3661 J0.6517
G02 X106.692 Y3.256 I-0.0888 J0.7776
G02 X106.406 Y3.406 I0.2291 J0.7851
G02 X106.192 Y3.665 I0.5371 J0.6627
G02 X106.090 Y4.000 I0.7825 J0.4203
G02 X106.127 Y4.362 I0.9191 J0.0888
G02 X106.307 Y4.693 I0.9157 J-0.2831
G02 X106.612 Y4.938 I0.7626 J-0.6370
G02 X107.000 Y5.050 I0.4743 J-0.9129
G02 X107.402 Y4.970 I0.0000 J-1.0500
G02 X107.742 Y4.742 I-0.4018 J-0.9701
G02 X107.970 Y4.402 I-0.7425 J-0.7425
G02 X108.050 Y4.000 I-0.9701 J-0.4018
G02 X106.475 Y3.091 I-1.0500 J0.0000
G02 Y4.909 I0.5250 J0.9093
G02 X108.050 Y4.000 I0.5250 J-0.9093
G02 X106.370 I-0.8400 J0.0000
G02 X107.630 I0.6300 J0.0000
G02 X106.685 Y3.454 Z-2.167 I-0.6300 J0.0000 F200
G02 Y4.546 Z-2.333 I0.3150 J0.5456
G02 X107.630 Y4.000 Z-2.500 I0.3150 J-0.5456
G02 X106.685 Y3.454 I-0.6300 J0.0000
G02 Y4.546 I0.3150 J0.5456
G02 X107.630 Y4.000 I0.3150 J-0.5456
G02 X107.614 Y3.746 I-0.6355 J-0.0887 F500
G02 X107.495 Y3.505 I-0.6540 J0.1748
G02 X107.281 Y3.321 I-0.5625 J0.4369
G02 X107.000 Y3.230 I-0.3661 J0.6517
G02 X106.692 Y3.256 I-0.0888 J0.7776
G02 X106.406 Y3.406 I0.2291 J0.7851
G02 X106.192 Y3.665 I0.5371 J0.6627
G02 X106.090 Y4.000 I0.7825 J0.4203
G02 X106.127 Y4.362 I0.9191 J0.0888
G02 X106.307 Y4.693 I0.9157 J-0.2831
G02 X106.612 Y4.938 I0.7626 J-0.6370
G02 X107.000 Y5.050 I0.4743 J-0.9129
G02 X107.402 Y4.970 I0.0000 J-1.0500
G02 X107.742 Y4.742 I-0.4018 J-0.9701
G02 X107.970 Y4.402 I-0.7425 J-0.7425
G02 X108.050 Y4.000 I-0.9701 J-0.4018
G02 X106.475 Y3.091 I-1.0500 J0.0000
G02 Y4.909 I0.5250 J0.9093
G02 X108.050 Y4.000 I0.5250 J-0.9093
G02 X106.370 I-0.8400 J0.0000
G02 X107.630 I0.6300 J0.0000
G02 X106.685 Y3.454 Z-2.667 I-0.6300 J0.0000 F200
G02 Y4.546 Z-2.833 I0.3150 J0.5456
G02 X107.630 Y4.000 Z-3.000 I0.3150 J-0.5456
G02 X106.685 Y3.454 I-0.6300 J0.0000
G02 Y4.546 I0.3150 J0.5456
G02 X107.630 Y4.000 I0.3150 J-0.5456
G02 X107.614 Y3.746 I-0.6355 J-0.0887 F500
G02 X107.495 Y3.505 I-0.6540 J0.1748
G02 X107.281 Y3.321 I-0.5625 J0.4369
G02 X107.000 Y3.230 I-0.3661 J0.6517
G02 X106.692 Y3.256 I-0.0888 J0.7776
G02 X106.406 Y3.406 I0.2291 J0.7851
G02 X106.192 Y3.665 I0.5371 J0.6627
G02 X106.090 Y4.000 I0.7825 J0.4203
G02 X106.127 Y4.362 I0.9191 J0.0888
G02 X106.307 Y4.693 I0.9157 J-0.2831
G02 X106.612 Y4.938 I0.7626 J-0.6370
G02 X107.000 Y5.050 I0.4743 J-0.9129
G02 X107.402 Y4.970 I0.0000 J-1.0500
G02 X107.742 Y4.742 I-0.4018 J-0.9701
G02 X107.970 Y4.402 I-0.7425 J-0.7425
G02 X108.050 Y4.000 I-0.9701 J-0.4018
G02 X106.475 Y3.091 I-1.0500 J0.0000
G02 Y4.909 I0.5250 J0.9093
G02 X108.050 Y4.000 I0.5250 J-0.9093
G02 X106.370 I-0.8400 J0.0000
G02 X107.630 I0.6300 J0.0000
G02 X106.685 Y3.454 Z-3.167 I-0.6300 J0.0000 F200
G02 Y4.546 Z-3.333 I0.3150 J0.5456
G02 X107.630 Y4.000 Z-3.500 I0.3150 J-0.5456
G02 X106.685 Y3.454 I-0.6300 J0.0000
G02 Y4.546 I0.3150 J0.5456
G02 X107.630 Y4.000 I0.3150 J-0.5456
G02 X107.614 Y3.746 I-0.6355 J-0.0887 F500
G02 X107.495 Y3.505 I-0.6540 J0.1748
G02 X107.281 Y3.321 I-0.5625 J0.4369
G02 X107.000 Y3.230 I-0.3661 J0.6517
G02 X106.692 Y3.256 I-0.0888 J0.7776
G02 X106.406 Y3.406 I0.2291 J0.7851
G02 X106.192 Y3.665 I0.5371 J0.6627
G02 X106.090 Y4.000 I0.7825 J0.4203
G02 X106.127 Y4.362 I0.9191 J0.0888
G02 X106.307 Y4.693 I0.9157 J-0.2831
G02 X106.612 Y4.938 I0.7626 J-0.6370
G02 X107.000 Y5.050 I0.4743 J-0.9129
G02 X107.402 Y4.970 I0.0000 J-1.0500
G02 X107.742 Y4.742 I-0.4018 J-0.9701
G02 X107.970 Y4.402 I-0.7425 J-0.7425
G02 X108.050 Y4.000 I-0.9701 J-0.4018
G02 X106.475 Y3.091 I-1.0500 J0.0000
G02 Y4.909 I0.5250 J0.9093
G02 X108.050 Y4.000 I0.5250 J-0.9093
G02 X106.370 I-0.8400 J0.0000
G02 X107.630 I0.6300 J0.0000
G02 X106.685 Y3.454 Z-3.583 I-0.6300 J0.0000 F200
G02 Y4.546 Z-3.667 I0.3150 J0.5456
G02 X107.630 Y4.000 Z-3.750 I0.3150 J-0.5456
G02 X106.685 Y3.454 I-0.6300 J0.0000
G02 Y4.546 I0.3150 J0.5456
G02 X107.630 Y4.000 I0.3150 J-0.5456
G02 X107.614 Y3.746 I-0.6355 J-0.0887 F500
G02 X107.495 Y3.505 I-0.6540 J0.1748
G02 X107.281 Y3.321 I-0.5625 J0.4369
G02 X107.000 Y3.230 I-0.3661 J0.6517
G02 X106.692 Y3.256 I-0.0888 J0.7776
G02 X106.406 Y3.406 I0.2291 J0.7851
G02 X106.192 Y3.665 I0.5371 J0.6627
G02 X106.090 Y4.000 I0.7825 J0.4203
G02 X106.127 Y4.362 I0.9191 J0.0888
G02 X106.307 Y4.693 I0.9157 J-0.2831
G02 X106.612 Y4.938 I0.7626 J-0.6370
G02 X107.000 Y5.050 I0.4743 J-0.9129
G02 X107.402 Y4.970 I0.0000 J-1.0500
G02 X107.742 Y4.742 I-0.4018 J-0.9701
G02 X107.970 Y4.402 I-0.7425 J-0.7425
G02 X108.050 Y4.000 I-0.9701 J-0.4018
G02 X106.475 Y3.091 I-1.0500 J0.0000
G02 Y4.909 I0.5250 J0.9093
G02 X108.050 Y4.000 I0.5250 J-0.9093
G02 X107.350 Y3.300 Z-3.250 I-0.7000 J0.0000 F200
G00 Z20.000


(No. 5 Part: Part 2)
G00 X3.300 Y14.745 Z20.000
G00 Z0.500
G01 Z-0.500 F200
G01 Y8.660 F500
G01 X3.288 Y8.641
G01 X3.117 Y8.616
G01 X3.030 Y8.597
G01 X2.669 Y8.507
G01 X2.584 Y8.480
G01 X2.233 Y8.355
G01 X2.152 Y8.320
G01 X1.815 Y8.160
G01 X1.737 Y8.118
G01 X1.418 Y7.926
G01 X1.345 Y7.876
G01 X1.045 Y7.654
G01 X0.978 Y7.597
G01 X0.701 Y7.347
G01 X0.639 Y7.284
G01 X0.389 Y7.008
G01 X0.334 Y6.938
G01 X0.112 Y6.639
G01 X0.063 Y6.565
G01 X-0.128 Y6.245
G01 X-0.169 Y6.167
G01 X-0.328 Y5.830
G01 X-0.361 Y5.748
G01 X-0.487 Y5.397
G01 X-0.512 Y5.312
G01 X-0.602 Y4.950
G01 X-0.618 Y4.863
G01 X-0.673 Y4.495
G01 X-0.681 Y4.406
G01 X-0.699 Y4.034
G01 X-0.698 Y3.946
G01 X-0.680 Y3.574
G01 X-0.670 Y3.485
G01 X-0.616 Y3.117
G01 X-0.597 Y3.030
G01 X-0.507 Y2.669
G01 X-0.480 Y2.584
G01 X-0.355 Y2.233
G01 X-0.320 Y2.152
G01 X-0.160 Y1.815
G01 X-0.118 Y1.737
G01 X0.074 Y1.418
G01 X0.124 Y1.345
G01 X0.346 Y1.045
G01 X0.403 Y0.978
G01 X0.653 Y0.701
G01 X0.716 Y0.639
G01 X0.992 Y0.389
G01 X1.062 Y0.334
G01 X1.361 Y0.112
G01 X1.435 Y0.063
G01 X1.755 Y-0.128
G01 X1.833 Y-0.169
G01 X2.170 Y-0.328
G01 X2.252 Y-0.361
G01 X2.603 Y-0.487
G01 X2.688 Y-0.512
G01 X3.050 Y-0.602
G01 X3.137 Y-0.618
G01 X3.505 Y-0.673
G01 X3.594 Y-0.681
G01 X3.966 Y-0.699
G01 X4.054 Y-0.698
G01 X4.426 Y-0.680
G01 X4.515 Y-0.670
G01 X4.883 Y-0.616
G01 X4.970 Y-0.597
G01 X5.331 Y-0.507
G01 X5.416 Y-0.480
G01 X5.767 Y-0.355
G01 X5.848 Y-0.320
G01 X6.185 Y-0.160
G01 X6.263 Y-0.118
G01 X6.582 Y0.074
G01 X6.655 Y0.124
G01 X6.955 Y0.346
G01 X7.022 Y0.403
G01 X7.299 Y0.653
G01 X7.361 Y0.716
G01 X7.611 Y0.992
G01 X7.666 Y1.062
G01 X7.888 Y1.361
G01 X7.937 Y1.435
G01 X8.128 Y1.755
G01 X8.169 Y1.833
G01 X8.328 Y2.170
G01 X8.361 Y2.252
G01 X8.487 Y2.603
G01 X8.512 Y2.688
G01 X8.602 Y3.050
G01 X8.618 Y3.137
G01 X8.641 Y3.288
G01 X8.666 Y3.300
G01 X17.363
G01 X22.763
G01 X82.481
G01 X87.881
G01 X102.340
G01 X102.359 Y3.288
G01 X102.384 Y3.117
G01 X102.403 Y3.030
G01 X102.493 Y2.669
G01 X102.520 Y2.584
G01 X102.645 Y2.233
G01 X102.680 Y2.152
G01 X102.840 Y1.815
G01 X102.882 Y1.737
G01 X103.074 Y1.418
G01 X103.124 Y1.345
G01 X103.346 Y1.045
G01 X103.403 Y0.978
G01 X103.653 Y0.701
G01 X103.716 Y0.639
G01 X103.992 Y0.389
G01 X104.062 Y0.334
G01 X104.361 Y0.112
G01 X104.435 Y0.063
G01 X104.755 Y-0.128
G01 X104.833 Y-0.169
G01 X105.170 Y-0.328
G01 X105.252 Y-0.361
G01 X105.603 Y-0.487
G01 X105.688 Y-0.512
G01 X106.050 Y-0.602
G01 X106.137 Y-0.618
G01 X106.505 Y-0.673
G01 X106.594 Y-0.681
G01 X106.966 Y-0.699
G01 X107.054 Y-0.698
G01 X107.426 Y-0.680
G01 X107.515 Y-0.670
G01 X107.883 Y-0.616
G01 X107.970 Y-0.597
G01 X108.331 Y-0.507
G01 X108.416 Y-0.480
G01 X108.767 Y-0.355
G01 X108.848 Y-0.320
G01 X109.185 Y-0.160
G01 X109.263 Y-0.118
G01 X109.582 Y0.074
G01 X109.655 Y0.124
G01 X109.955 Y0.346
G01 X110.022 Y0.403
G01 X110.299 Y0.653
G01 X110.361 Y0.716
G01 X110.611 Y0.992
G01 X110.666 Y1.062
G01 X110.888 Y1.361
G01 X110.937 Y1.435
G01 X111.128 Y1.755
G01 X111.169 Y1.833
G01 X111.328 Y2.170
G01 X111.361 Y2.252
G01 X111.487 Y2.603
G01 X111.512 Y2.688
G01 X111.602 Y3.050
G01 X111.618 Y3.137
G01 X111.673 Y3.505
G01 X111.681 Y3.594
G01 X111.699 Y3.966
G01 X111.698 Y4.054
G01 X111.680 Y4.426
G01 X111.670 Y4.515
G01 X111.616 Y4.883
G01 X111.597 Y4.970
G01 X111.507 Y5.331
G01 X111.480 Y5.416
G01 X111.355 Y5.767
G01 X111.320 Y5.848
G01 X111.160 Y6.185
G01 X111.118 Y6.263
G01 X110.926 Y6.582
G01 X110.876 Y6.655
G01 X110.654 Y6.955
G01 X110.597 Y7.022
G01 X110.347 Y7.299
G01 X110.284 Y7.361
G01 X110.008 Y7.611
G01 X109.938 Y7.666
G01 X109.639 Y7.888
G01 X109.565 Y7.937
G01 X109.245 Y8.128
G01 X109.167 Y8.169
G01 X108.830 Y8.328
G01 X108.748 Y8.361
G01 X108.397 Y8.487
G01 X108.312 Y8.512
G01 X107.950 Y8.602
G01 X107.863 Y8.618
G01 X107.712 Y8.641
G03 X107.254 Y9.402 I-0.7418 J0.0721
G03 X106.980 Y9.450 I-0.2556 J-0.6595
G01 X97.825
G01 Y30.300
G01 Y35.700
G01 Y56.550
G01 X107.000
G03 X107.712 Y57.359 I-0.0153 J0.7316
G01 X107.883 Y57.384
G01 X107.970 Y57.403
G01 X108.331 Y57.493
G01 X108.416 Y57.520
G01 X108.767 Y57.645
G01 X108.848 Y57.680
G01 X109.185 Y57.840
G01 X109.263 Y57.882
G01 X109.582 Y58.074
G01 X109.655 Y58.124
G01 X109.955 Y58.346
G01 X110.022 Y58.403
G01 X110.299 Y58.653
G01 X110.361 Y58.716
G01 X110.611 Y58.992
G01 X110.666 Y59.062
G01 X110.888 Y59.361
G01 X110.937 Y59.435
G01 X111.128 Y59.755
G01 X111.169 Y59.833
G01 X111.328 Y60.170
G01 X111.361 Y60.252
G01 X111.487 Y60.603
G01 X111.512 Y60.688
G01 X111.602 Y61.050
G01 X111.618 Y61.137
G01 X111.673 Y61.505
G01 X111.681 Y61.594
G01 X111.699 Y61.966
G01 X111.698 Y62.054
G01 X111.680 Y62.426
G01 X111.670 Y62.515
G01 X111.616 Y62.883
G01 X111.597 Y62.970
G01 X111.507 Y63.331
G01 X111.480 Y63.416
G01 X111.355 Y63.767
G01 X111.320 Y63.848
G01 X111.160 Y64.185
G01 X111.118 Y64.263
G01 X110.926 Y64.582
G01 X110.876 Y64.655
G01 X110.654 Y64.955
G01 X110.597 Y65.022
G01 X110.347 Y65.299
G01 X110.284 Y65.361
G01 X110.008 Y65.611
G01 X109.938 Y65.666
G01 X109.639 Y65.888
G01 X109.565 Y65.937
G01 X109.245 Y66.128
G01 X109.167 Y66.169
G01 X108.830 Y66.328
G01 X108.748 Y66.361
G01 X108.397 Y66.487
G01 X108.312 Y66.512
G01 X107.950 Y66.602
G01 X107.863 Y66.618
G01 X107.495 Y66.673
G01 X107.406 Y66.681
G01 X107.034 Y66.699
G01 X106.946 Y66.698
G01 X106.574 Y66.680
G01 X106.485 Y66.670
G01 X106.117 Y66.616
G01 X106.030 Y66.597
G01 X105.669 Y66.507
G01 X105.584 Y66.480
G01 X105.233 Y66.355
G01 X105.152 Y66.320
G01 X104.815 Y66.160
G01 X104.737 Y66.118
G01 X104.418 Y65.926
G01 X104.345 Y65.876
G01 X104.045 Y65.654
G01 X103.978 Y65.597
G01 X103.701 Y65.347
G01 X103.639 Y65.284
G01 X103.389 Y65.008
G01 X103.334 Y64.938
G01 X103.112 Y64.639
G01 X103.063 Y64.565
G01 X102.872 Y64.245
G01 X102.831 Y64.167
G01 X102.672 Y63.830
G01 X102.639 Y63.748
G01 X102.513 Y63.397
G01 X102.488 Y63.312
G01 X102.398 Y62.950
G01 X102.382 Y62.863
G01 X102.359 Y62.712
G01 X102.334 Y62.700
G01 X86.663
G01 X81.263
G01 X23.538
G01 X18.138
G01 X8.620
G01 X8.558 Y63.127
G01 X8.545 Y63.195
G01 X8.525 Y63.267
G01 X8.418 Y63.601
G01 X8.388 Y63.680
G01 X8.251 Y64.003
G01 X8.214 Y64.079
G01 X8.047 Y64.388
G01 X8.003 Y64.460
G01 X7.809 Y64.753
G01 X7.758 Y64.820
G01 X7.538 Y65.093
G01 X7.481 Y65.156
G01 X7.236 Y65.408
G01 X7.173 Y65.465
G01 X6.907 Y65.693
G01 X6.839 Y65.744
G01 X6.552 Y65.946
G01 X6.480 Y65.991
G01 X6.176 Y66.165
G01 X6.100 Y66.203
G01 X5.781 Y66.349
G01 X5.702 Y66.380
G01 X5.371 Y66.495
G01 X5.289 Y66.518
G01 X4.949 Y66.603
G01 X4.865 Y66.618
G01 X4.518 Y66.671
G01 X4.434 Y66.679
G01 X4.084 Y66.699
G01 X3.999
G01 X3.648 Y66.686
G01 X3.564 Y66.678
G01 X3.216 Y66.633
G01 X3.133 Y66.618
G01 X2.790 Y66.541
G01 X2.709 Y66.518
G01 X2.375 Y66.409
G01 X2.296 Y66.379
G01 X1.974 Y66.240
G01 X1.898 Y66.202
G01 X1.590 Y66.034
G01 X1.518 Y65.989
G01 X1.227 Y65.794
G01 X1.159 Y65.743
G01 X0.887 Y65.521
G01 X0.825 Y65.463
G01 X0.575 Y65.217
G01 X0.518 Y65.155
G01 X0.292 Y64.886
G01 X0.241 Y64.819
G01 X0.040 Y64.531
G01 X-0.004 Y64.458
G01 X-0.177 Y64.153
G01 X-0.215 Y64.077
G01 X-0.358 Y63.757
G01 X-0.389 Y63.678
G01 X-0.502 Y63.346
G01 X-0.525 Y63.264
G01 X-0.608 Y62.923
G01 X-0.623 Y62.840
G01 X-0.673 Y62.493
G01 X-0.681 Y62.408
G01 X-0.699 Y62.058
G01 Y61.973
G01 X-0.684 Y61.623
G01 X-0.676 Y61.538
G01 X-0.629 Y61.191
G01 X-0.613 Y61.107
G01 X-0.534 Y60.766
G01 X-0.511 Y60.684
G01 X-0.401 Y60.351
G01 X-0.369 Y60.272
G01 X-0.229 Y59.951
G01 X-0.191 Y59.875
G01 X-0.021 Y59.568
G01 X0.024 Y59.496
G01 X0.221 Y59.206
G01 X0.273 Y59.139
G01 X0.496 Y58.868
G01 X0.554 Y58.806
G01 X0.801 Y58.557
G01 X0.865 Y58.501
G01 X1.134 Y58.276
G01 X1.202 Y58.225
G01 X1.491 Y58.027
G01 X1.563 Y57.982
G01 X1.870 Y57.811
G01 X1.946 Y57.774
G01 X2.267 Y57.632
G01 X2.346 Y57.602
G01 X2.678 Y57.490
G01 X2.760 Y57.468
G01 X3.102 Y57.387
G01 X3.185 Y57.373
G01 X3.295 Y57.357
G01 X3.300 Y57.332
G01 Y51.241
G01 Y45.841
G01 Y39.750
G01 X3.303 Y39.680
G03 X4.020 Y39.050 I0.6970 J0.0702
G01 X11.125
G03 X11.825 Y39.770 I-0.0002 J0.7005
G01 Y55.550
G01 X35.992
G01 X41.392
G01 X92.425
G01 Y48.287
G01 Y42.887
G01 Y23.480
G01 Y18.080
G01 Y10.450
G01 X41.392
G01 X35.992
G01 X11.825
G01 Y26.250
G03 X11.105 Y26.950 I-0.7005 J-0.0002
G01 X4.000
G03 X3.302 Y26.300 I0.0000 J-0.7000
G01 X3.300 Y26.230
G01 Y20.145
G01 Y14.745
G01 Z-1.000 F200
G01 Y8.660 F500
G01 X3.288 Y8.641
G01 X3.117 Y8.616
G01 X3.030 Y8.597
G01 X2.669 Y8.507
G01 X2.584 Y8.480
G01 X2.233 Y8.355
G01 X2.152 Y8.320
G01 X1.815 Y8.160
G01 X1.737 Y8.118
G01 X1.418 Y7.926
G01 X1.345 Y7.876
G01 X1.045 Y7.654
G01 X0.978 Y7.597
G01 X0.701 Y7.347
G01 X0.639 Y7.284
G01 X0.389 Y7.008
G01 X0.334 Y6.938
G01 X0.112 Y6.639
G01 X0.063 Y6.565
G01 X-0.128 Y6.245
G01 X-0.169 Y6.167
G01 X-0.328 Y5.830
G01 X-0.361 Y5.748
G01 X-0.487 Y5.397
G01 X-0.512 Y5.312
G01 X-0.602 Y4.950
G01 X-0.618 Y4.863
G01 X-0.673 Y4.495
G01 X-0.681 Y4.406
G01 X-0.699 Y4.034
G01 X-0.698 Y3.946
G01 X-0.680 Y3.574
G01 X-0.670 Y3.485
G01 X-0.616 Y3.117
G01 X-0.597 Y3.030
G01 X-0.507 Y2.669
G01 X-0.480 Y2.584
G01 X-0.355 Y2.233
G01 X-0.320 Y2.152
G01 X-0.160 Y1.815
G01 X-0.118 Y1.737
G01 X0.074 Y1.418
G01 X0.124 Y1.345
G01 X0.346 Y1.045
G01 X0.403 Y0.978
G01 X0.653 Y0.701
G01 X0.716 Y0.639
G01 X0.992 Y0.389
G01 X1.062 Y0.334
G01 X1.361 Y0.112
G01 X1.435 Y0.063
G01 X1.755 Y-0.128
G01 X1.833 Y-0.169
G01 X2.170 Y-0.328
G01 X2.252 Y-0.361
G01 X2.603 Y-0.487
G01 X2.688 Y-0.512
G01 X3.050 Y-0.602
G01 X3.137 Y-0.618
G01 X3.505 Y-0.673
G01 X3.594 Y-0.681
G01 X3.966 Y-0.699
G01 X4.054 Y-0.698
G01 X4.426 Y-0.680
G01 X4.515 Y-0.670
G01 X4.883 Y-0.616
G01 X4.970 Y-0.597
G01 X5.331 Y-0.507
G01 X5.416 Y-0.480
G01 X5.767 Y-0.355
G01 X5.848 Y-0.320
G01 X6.185 Y-0.160
G01 X6.263 Y-0.118
G01 X6.582 Y0.074
G01 X6.655 Y0.124
G01 X6.955 Y0.346
G01 X7.022 Y0.403
G01 X7.299 Y0.653
G01 X7.361 Y0.716
G01 X7.611 Y0.992
G01 X7.666 Y1.062
G01 X7.888 Y1.361
G01 X7.937 Y1.435
G01 X8.128 Y1.755
G01 X8.169 Y1.833
G01 X8.328 Y2.170
G01 X8.361 Y2.252
G01 X8.487 Y2.603
G01 X8.512 Y2.688
G01 X8.602 Y3.050
G01 X8.618 Y3.137
G01 X8.641 Y3.288
G01 X8.666 Y3.300
G01 X17.363
G01 X22.763
G01 X82.481
G01 X87.881
G01 X102.340
G01 X102.359 Y3.288
G01 X102.384 Y3.117
G01 X102.403 Y3.030
G01 X102.493 Y2.669
G01 X102.520 Y2.584
G01 X102.645 Y2.233
G01 X102.680 Y2.152
G01 X102.840 Y1.815
G01 X102.882 Y1.737
G01 X103.074 Y1.418
G01 X103.124 Y1.345
G01 X103.346 Y1.045
G01 X103.403 Y0.978
G01 X103.653 Y0.701
G01 X103.716 Y0.639
G01 X103.992 Y0.389
G01 X104.062 Y0.334
G01 X104.361 Y0.112
G01 X104.435 Y0.063
G01 X104.755 Y-0.128
G01 X104.833 Y-0.169
G01 X105.170 Y-0.328
G01 X105.252 Y-0.361
G01 X105.603 Y-0.487
G01 X105.688 Y-0.512
G01 X106.050 Y-0.602
G01 X106.137 Y-0.618
G01 X106.505 Y-0.673
G01 X106.594 Y-0.681
G01 X106.966 Y-0.699
G01 X107.054 Y-0.698
G01 X107.426 Y-0.680
G01 X107.515 Y-0.670
G01 X107.883 Y-0.616
G01 X107.970 Y-0.597
G01 X108.331 Y-0.507
G01 X108.416 Y-0.480
G01 X108.767 Y-0.355
G01 X108.848 Y-0.320
G01 X109.185 Y-0.160
G01 X109.263 Y-0.118
G01 X109.582 Y0.074
G01 X109.655 Y0.124
G01 X109.955 Y0.346
G01 X110.022 Y0.403
G01 X110.299 Y0.653
G01 X110.361 Y0.716
G01 X110.611 Y0.992
G01 X110.666 Y1.062
G01 X110.888 Y1.361
G01 X110.937 Y1.435
G01 X111.128 Y1.755
G01 X111.169 Y1.833
G01 X111.328 Y2.170
G01 X111.361 Y2.252
G01 X111.487 Y2.603
G01 X111.512 Y2.688
G01 X111.602 Y3.050
G01 X111.618 Y3.137
G01 X111.673 Y3.505
G01 X111.681 Y3.594
G01 X111.699 Y3.966
G01 X111.698 Y4.054
G01 X111.680 Y4.426
G01 X111.670 Y4.515
G01 X111.616 Y4.883
G01 X111.597 Y4.970
G01 X111.507 Y5.331
G01 X111.480 Y5.416
G01 X111.355 Y5.767
G01 X111.320 Y5.848
G01 X111.160 Y6.185
G01 X111.118 Y6.263
G01 X110.926 Y6.582
G01 X110.876 Y6.655
G01 X110.654 Y6.955
G01 X110.597 Y7.022
G01 X110.347 Y7.299
G01 X110.284 Y7.361
G01 X110.008 Y7.611
G01 X109.938 Y7.666
G01 X109.639 Y7.888
G01 X109.565 Y7.937
G01 X109.245 Y8.128
G01 X109.167 Y8.169
G01 X108.830 Y8.328
G01 X108.748 Y8.361
G01 X108.397 Y8.487
G01 X108.312 Y8.512
G01 X107.950 Y8.602
G01 X107.863 Y8.618
G01 X107.712 Y8.641
G03 X107.254 Y9.402 I-0.7418 J0.0721
G03 X106.980 Y9.450 I-0.2556 J-0.6595
G01 X97.825
G01 Y30.300
G01 Y35.700
G01 Y56.550
G01 X107.000
G03 X107.712 Y57.359 I-0.0153 J0.7316
G01 X107.883 Y57.384
G01 X107.970 Y57.403
G01 X108.331 Y57.493
G01 X108.416 Y57.520
G01 X108.767 Y57.645
G01 X108.848 Y57.680
G01 X109.185 Y57.840
G01 X109.263 Y57.882
G01 X109.582 Y58.074
G01 X109.655 Y58.124
G01 X109.955 Y58.346
G01 X110.022 Y58.403
G01 X110.299 Y58.653
G01 X110.361 Y58.716
G01 X110.611 Y58.992
G01 X110.666 Y59.062
G01 X110.888 Y59.361
G01 X110.937 Y59.435
G01 X111.128 Y59.755
G01 X111.169 Y59.833
G01 X111.328 Y60.170
G01 X111.361 Y60.252
G01 X111.487 Y60.603
G01 X111.512 Y60.688
G01 X111.602 Y61.050
G01 X111.618 Y61.137
G01 X111.673 Y61.505
G01 X111.681 Y61.594
G01 X111.699 Y61.966
G01 X111.698 Y62.054
G01 X111.680 Y62.426
G01 X111.670 Y62.515
G01 X111.616 Y62.883
G01 X111.597 Y62.970
G01 X111.507 Y63.331
G01 X111.480 Y63.416
G01 X111.355 Y63.767
G01 X111.320 Y63.848
G01 X111.160 Y64.185
G01 X111.118 Y64.263
G01 X110.926 Y64.582
G01 X110.876 Y64.655
G01 X110.654 Y64.955
G01 X110.597 Y65.022
G01 X110.347 Y65.299
G01 X110.284 Y65.361
G01 X110.008 Y65.611
G01 X109.938 Y65.666
G01 X109.639 Y65.888
G01 X109.565 Y65.937
G01 X109.245 Y66.128
G01 X109.167 Y66.169
G01 X108.830 Y66.328
G01 X108.748 Y66.361
G01 X108.397 Y66.487
G01 X108.312 Y66.512
G01 X107.950 Y66.602
G01 X107.863 Y66.618
G01 X107.495 Y66.673
G01 X107.406 Y66.681
G01 X107.034 Y66.699
G01 X106.946 Y66.698
G01 X106.574 Y66.680
G01 X106.485 Y66.670
G01 X106.117 Y66.616
G01 X106.030 Y66.597
G01 X105.669 Y66.507
G01 X105.584 Y66.480
G01 X105.233 Y66.355
G01 X105.152 Y66.320
G01 X104.815 Y66.160
G01 X104.737 Y66.118
G01 X104.418 Y65.926
G01 X104.345 Y65.876
G01 X104.045 Y65.654
G01 X103.978 Y65.597
G01 X103.701 Y65.347
G01 X103.639 Y65.284
G01 X103.389 Y65.008
G01 X103.334 Y64.938
G01 X103.112 Y64.639
G01 X103.063 Y64.565
G01 X102.872 Y64.245
G01 X102.831 Y64.167
G01 X102.672 Y63.830
G01 X102.639 Y63.748
G01 X102.513 Y63.397
G01 X102.488 Y63.312
G01 X102.398 Y62.950
G01 X102.382 Y62.863
G01 X102.359 Y62.712
G01 X102.334 Y62.700
G01 X86.663
G01 X81.263
G01 X23.538
G01 X18.138
G01 X8.620
G01 X8.558 Y63.127
G01 X8.545 Y63.195
G01 X8.525 Y63.267
G01 X8.418 Y63.601
G01 X8.388 Y63.680
G01 X8.251 Y64.003
G01 X8.214 Y64.079
G01 X8.047 Y64.388
G01 X8.003 Y64.460
G01 X7.809 Y64.753
G01 X7.758 Y64.820
G01 X7.538 Y65.093
G01 X7.481 Y65.156
G01 X7.236 Y65.408
G01 X7.173 Y65.465
G01 X6.907 Y65.693
G01 X6.839 Y65.744
G01 X6.552 Y65.946
G01 X6.480 Y65.991
G01 X6.176 Y66.165
G01 X6.100 Y66.203
G01 X5.781 Y66.349
G01 X5.702 Y66.380
G01 X5.371 Y66.495
G01 X5.289 Y66.518
G01 X4.949 Y66.603
G01 X4.865 Y66.618
G01 X4.518 Y66.671
G01 X4.434 Y66.679
G01 X4.084 Y66.699
G01 X3.999
G01 X3.648 Y66.686
G01 X3.564 Y66.678
G01 X3.216 Y66.633
G01 X3.133 Y66.618
G01 X2.790 Y66.541
G01 X2.709 Y66.518
G01 X2.375 Y66.409
G01 X2.296 Y66.379
G01 X1.974 Y66.240
G01 X1.898 Y66.202
G01 X1.590 Y66.034
G01 X1.518 Y65.989
G01 X1.227 Y65.794
G01 X1.159 Y65.743
G01 X0.887 Y65.521
G01 X0.825 Y65.463
G01 X0.575 Y65.217
G01 X0.518 Y65.155
G01 X0.292 Y64.886
G01 X0.241 Y64.819
G01 X0.040 Y64.531
G01 X-0.004 Y64.458
G01 X-0.177 Y64.153
G01 X-0.215 Y64.077
G01 X-0.358 Y63.757
G01 X-0.389 Y63.678
G01 X-0.502 Y63.346
G01 X-0.525 Y63.264
G01 X-0.608 Y62.923
G01 X-0.623 Y62.840
G01 X-0.673 Y62.493
G01 X-0.681 Y62.408
G01 X-0.699 Y62.058
G01 Y61.973
G01 X-0.684 Y61.623
G01 X-0.676 Y61.538
G01 X-0.629 Y61.191
G01 X-0.613 Y61.107
G01 X-0.534 Y60.766
G01 X-0.511 Y60.684
G01 X-0.401 Y60.351
G01 X-0.369 Y60.272
G01 X-0.229 Y59.951
G01 X-0.191 Y59.875
G01 X-0.021 Y59.568
G01 X0.024 Y59.496
G01 X0.221 Y59.206
G01 X0.273 Y59.139
G01 X0.496 Y58.868
G01 X0.554 Y58.806
G01 X0.801 Y58.557
G01 X0.865 Y58.501
G01 X1.134 Y58.276
G01 X1.202 Y58.225
G01 X1.491 Y58.027
G01 X1.563 Y57.982
G01 X1.870 Y57.811
G01 X1.946 Y57.774
G01 X2.267 Y57.632
G01 X2.346 Y57.602
G01 X2.678 Y57.490
G01 X2.760 Y57.468
G01 X3.102 Y57.387
G01 X3.185 Y57.373
G01 X3.295 Y57.357
G01 X3.300 Y57.332
G01 Y51.241
G01 Y45.841
G01 Y39.750
G01 X3.303 Y39.680
G03 X4.020 Y39.050 I0.6970 J0.0702
G01 X11.125
G03 X11.825 Y39.770 I-0.0002 J0.7005
G01 Y55.550
G01 X35.992
G01 X41.392
G01 X92.425
G01 Y48.287
G01 Y42.887
G01 Y23.480
G01 Y18.080
G01 Y10.450
G01 X41.392
G01 X35.992
G01 X11.825
G01 Y26.250
G03 X11.105 Y26.950 I-0.7005 J-0.0002
G01 X4.000
G03 X3.302 Y26.300 I0.0000 J-0.7000
G01 X3.300 Y26.230
G01 Y20.145
G01 Y14.745
G01 Z-1.500 F200
G01 Y8.660 F500
G01 X3.288 Y8.641
G01 X3.117 Y8.616
G01 X3.030 Y8.597
G01 X2.669 Y8.507
G01 X2.584 Y8.480
G01 X2.233 Y8.355
G01 X2.152 Y8.320
G01 X1.815 Y8.160
G01 X1.737 Y8.118
G01 X1.418 Y7.926
G01 X1.345 Y7.876
G01 X1.045 Y7.654
G01 X0.978 Y7.597
G01 X0.701 Y7.347
G01 X0.639 Y7.284
G01 X0.389 Y7.008
G01 X0.334 Y6.938
G01 X0.112 Y6.639
G01 X0.063 Y6.565
G01 X-0.128 Y6.245
G01 X-0.169 Y6.167
G01 X-0.328 Y5.830
G01 X-0.361 Y5.748
G01 X-0.487 Y5.397
G01 X-0.512 Y5.312
G01 X-0.602 Y4.950
G01 X-0.618 Y4.863
G01 X-0.673 Y4.495
G01 X-0.681 Y4.406
G01 X-0.699 Y4.034
G01 X-0.698 Y3.946
G01 X-0.680 Y3.574
G01 X-0.670 Y3.485
G01 X-0.616 Y3.117
G01 X-0.597 Y3.030
G01 X-0.507 Y2.669
G01 X-0.480 Y2.584
G01 X-0.355 Y2.233
G01 X-0.320 Y2.152
G01 X-0.160 Y1.815
G01 X-0.118 Y1.737
G01 X0.074 Y1.418
G01 X0.124 Y1.345
G01 X0.346 Y1.045
G01 X0.403 Y0.978
G01 X0.653 Y0.701
G01 X0.716 Y0.639
G01 X0.992 Y0.389
G01 X1.062 Y0.334
G01 X1.361 Y0.112
G01 X1.435 Y0.063
G01 X1.755 Y-0.128
G01 X1.833 Y-0.169
G01 X2.170 Y-0.328
G01 X2.252 Y-0.361
G01 X2.603 Y-0.487
G01 X2.688 Y-0.512
G01 X3.050 Y-0.602
G01 X3.137 Y-0.618
G01 X3.505 Y-0.673
G01 X3.594 Y-0.681
G01 X3.966 Y-0.699
G01 X4.054 Y-0.698
G01 X4.426 Y-0.680
G01 X4.515 Y-0.670
G01 X4.883 Y-0.616
G01 X4.970 Y-0.597
G01 X5.331 Y-0.507
G01 X5.416 Y-0.480
G01 X5.767 Y-0.355
G01 X5.848 Y-0.320
G01 X6.185 Y-0.160
G01 X6.263 Y-0.118
G01 X6.582 Y0.074
G01 X6.655 Y0.124
G01 X6.955 Y0.346
G01 X7.022 Y0.403
G01 X7.299 Y0.653
G01 X7.361 Y0.716
G01 X7.611 Y0.992
G01 X7.666 Y1.062
G01 X7.888 Y1.361
G01 X7.937 Y1.435
G01 X8.128 Y1.755
G01 X8.169 Y1.833
G01 X8.328 Y2.170
G01 X8.361 Y2.252
G01 X8.487 Y2.603
G01 X8.512 Y2.688
G01 X8.602 Y3.050
G01 X8.618 Y3.137
G01 X8.641 Y3.288
G01 X8.666 Y3.300
G01 X17.363
G01 X22.763
G01 X82.481
G01 X87.881
G01 X102.340
G01 X102.359 Y3.288
G01 X102.384 Y3.117
G01 X102.403 Y3.030
G01 X102.493 Y2.669
G01 X102.520 Y2.584
G01 X102.645 Y2.233
G01 X102.680 Y2.152
G01 X102.840 Y1.815
G01 X102.882 Y1.737
G01 X103.074 Y1.418
G01 X103.124 Y1.345
G01 X103.346 Y1.045
G01 X103.403 Y0.978
G01 X103.653 Y0.701
G01 X103.716 Y0.639
G01 X103.992 Y0.389
G01 X104.062 Y0.334
G01 X104.361 Y0.112
G01 X104.435 Y0.063
G01 X104.755 Y-0.128
G01 X104.833 Y-0.169
G01 X105.170 Y-0.328
G01 X105.252 Y-0.361
G01 X105.603 Y-0.487
G01 X105.688 Y-0.512
G01 X106.050 Y-0.602
G01 X106.137 Y-0.618
G01 X106.505 Y-0.673
G01 X106.594 Y-0.681
G01 X106.966 Y-0.699
G01 X107.054 Y-0.698
G01 X107.426 Y-0.680
G01 X107.515 Y-0.670
G01 X107.883 Y-0.616
G01 X107.970 Y-0.597
G01 X108.331 Y-0.507
G01 X108.416 Y-0.480
G01 X108.767 Y-0.355
G01 X108.848 Y-0.320
G01 X109.185 Y-0.160
G01 X109.263 Y-0.118
G01 X109.582 Y0.074
G01 X109.655 Y0.124
G01 X109.955 Y0.346
G01 X110.022 Y0.403
G01 X110.299 Y0.653
G01 X110.361 Y0.716
G01 X110.611 Y0.992
G01 X110.666 Y1.062
G01 X110.888 Y1.361
G01 X110.937 Y1.435
G01 X111.128 Y1.755
G01 X111.169 Y1.833
G01 X111.328 Y2.170
G01 X111.361 Y2.252
G01 X111.487 Y2.603
G01 X111.512 Y2.688
G01 X111.602 Y3.050
G01 X111.618 Y3.137
G01 X111.673 Y3.505
G01 X111.681 Y3.594
G01 X111.699 Y3.966
G01 X111.698 Y4.054
G01 X111.680 Y4.426
G01 X111.670 Y4.515
G01 X111.616 Y4.883
G01 X111.597 Y4.970
G01 X111.507 Y5.331
G01 X111.480 Y5.416
G01 X111.355 Y5.767
G01 X111.320 Y5.848
G01 X111.160 Y6.185
G01 X111.118 Y6.263
G01 X110.926 Y6.582
G01 X110.876 Y6.655
G01 X110.654 Y6.955
G01 X110.597 Y7.022
G01 X110.347 Y7.299
G01 X110.284 Y7.361
G01 X110.008 Y7.611
G01 X109.938 Y7.666
G01 X109.639 Y7.888
G01 X109.565 Y7.937
G01 X109.245 Y8.128
G01 X109.167 Y8.169
G01 X108.830 Y8.328
G01 X108.748 Y8.361
G01 X108.397 Y8.487
G01 X108.312 Y8.512
G01 X107.950 Y8.602
G01 X107.863 Y8.618
G01 X107.712 Y8.641
G03 X107.254 Y9.402 I-0.7418 J0.0721
G03 X106.980 Y9.450 I-0.2556 J-0.6595
G01 X97.825
G01 Y30.300
G01 Y35.700
G01 Y56.550
G01 X107.000
G03 X107.712 Y57.359 I-0.0153 J0.7316
G01 X107.883 Y57.384
G01 X107.970 Y57.403
G01 X108.331 Y57.493
G01 X108.416 Y57.520
G01 X108.767 Y57.645
G01 X108.848 Y57.680
G01 X109.185 Y57.840
G01 X109.263 Y57.882
G01 X109.582 Y58.074
G01 X109.655 Y58.124
G01 X109.955 Y58.346
G01 X110.022 Y58.403
G01 X110.299 Y58.653
G01 X110.361 Y58.716
G01 X110.611 Y58.992
G01 X110.666 Y59.062
G01 X110.888 Y59.361
G01 X110.937 Y59.435
G01 X111.128 Y59.755
G01 X111.169 Y59.833
G01 X111.328 Y60.170
G01 X111.361 Y60.252
G01 X111.487 Y60.603
G01 X111.512 Y60.688
G01 X111.602 Y61.050
G01 X111.618 Y61.137
G01 X111.673 Y61.505
G01 X111.681 Y61.594
G01 X111.699 Y61.966
G01 X111.698 Y62.054
G01 X111.680 Y62.426
G01 X111.670 Y62.515
G01 X111.616 Y62.883
G01 X111.597 Y62.970
G01 X111.507 Y63.331
G01 X111.480 Y63.416
G01 X111.355 Y63.767
G01 X111.320 Y63.848
G01 X111.160 Y64.185
G01 X111.118 Y64.263
G01 X110.926 Y64.582
G01 X110.876 Y64.655
G01 X110.654 Y64.955
G01 X110.597 Y65.022
G01 X110.347 Y65.299
G01 X110.284 Y65.361
G01 X110.008 Y65.611
G01 X109.938 Y65.666
G01 X109.639 Y65.888
G01 X109.565 Y65.937
G01 X109.245 Y66.128
G01 X109.167 Y66.169
G01 X108.830 Y66.328
G01 X108.748 Y66.361
G01 X108.397 Y66.487
G01 X108.312 Y66.512
G01 X107.950 Y66.602
G01 X107.863 Y66.618
G01 X107.495 Y66.673
G01 X107.406 Y66.681
G01 X107.034 Y66.699
G01 X106.946 Y66.698
G01 X106.574 Y66.680
G01 X106.485 Y66.670
G01 X106.117 Y66.616
G01 X106.030 Y66.597
G01 X105.669 Y66.507
G01 X105.584 Y66.480
G01 X105.233 Y66.355
G01 X105.152 Y66.320
G01 X104.815 Y66.160
G01 X104.737 Y66.118
G01 X104.418 Y65.926
G01 X104.345 Y65.876
G01 X104.045 Y65.654
G01 X103.978 Y65.597
G01 X103.701 Y65.347
G01 X103.639 Y65.284
G01 X103.389 Y65.008
G01 X103.334 Y64.938
G01 X103.112 Y64.639
G01 X103.063 Y64.565
G01 X102.872 Y64.245
G01 X102.831 Y64.167
G01 X102.672 Y63.830
G01 X102.639 Y63.748
G01 X102.513 Y63.397
G01 X102.488 Y63.312
G01 X102.398 Y62.950
G01 X102.382 Y62.863
G01 X102.359 Y62.712
G01 X102.334 Y62.700
G01 X86.663
G01 X81.263
G01 X23.538
G01 X18.138
G01 X8.620
G01 X8.558 Y63.127
G01 X8.545 Y63.195
G01 X8.525 Y63.267
G01 X8.418 Y63.601
G01 X8.388 Y63.680
G01 X8.251 Y64.003
G01 X8.214 Y64.079
G01 X8.047 Y64.388
G01 X8.003 Y64.460
G01 X7.809 Y64.753
G01 X7.758 Y64.820
G01 X7.538 Y65.093
G01 X7.481 Y65.156
G01 X7.236 Y65.408
G01 X7.173 Y65.465
G01 X6.907 Y65.693
G01 X6.839 Y65.744
G01 X6.552 Y65.946
G01 X6.480 Y65.991
G01 X6.176 Y66.165
G01 X6.100 Y66.203
G01 X5.781 Y66.349
G01 X5.702 Y66.380
G01 X5.371 Y66.495
G01 X5.289 Y66.518
G01 X4.949 Y66.603
G01 X4.865 Y66.618
G01 X4.518 Y66.671
G01 X4.434 Y66.679
G01 X4.084 Y66.699
G01 X3.999
G01 X3.648 Y66.686
G01 X3.564 Y66.678
G01 X3.216 Y66.633
G01 X3.133 Y66.618
G01 X2.790 Y66.541
G01 X2.709 Y66.518
G01 X2.375 Y66.409
G01 X2.296 Y66.379
G01 X1.974 Y66.240
G01 X1.898 Y66.202
G01 X1.590 Y66.034
G01 X1.518 Y65.989
G01 X1.227 Y65.794
G01 X1.159 Y65.743
G01 X0.887 Y65.521
G01 X0.825 Y65.463
G01 X0.575 Y65.217
G01 X0.518 Y65.155
G01 X0.292 Y64.886
G01 X0.241 Y64.819
G01 X0.040 Y64.531
G01 X-0.004 Y64.458
G01 X-0.177 Y64.153
G01 X-0.215 Y64.077
G01 X-0.358 Y63.757
G01 X-0.389 Y63.678
G01 X-0.502 Y63.346
G01 X-0.525 Y63.264
G01 X-0.608 Y62.923
G01 X-0.623 Y62.840
G01 X-0.673 Y62.493
G01 X-0.681 Y62.408
G01 X-0.699 Y62.058
G01 Y61.973
G01 X-0.684 Y61.623
G01 X-0.676 Y61.538
G01 X-0.629 Y61.191
G01 X-0.613 Y61.107
G01 X-0.534 Y60.766
G01 X-0.511 Y60.684
G01 X-0.401 Y60.351
G01 X-0.369 Y60.272
G01 X-0.229 Y59.951
G01 X-0.191 Y59.875
G01 X-0.021 Y59.568
G01 X0.024 Y59.496
G01 X0.221 Y59.206
G01 X0.273 Y59.139
G01 X0.496 Y58.868
G01 X0.554 Y58.806
G01 X0.801 Y58.557
G01 X0.865 Y58.501
G01 X1.134 Y58.276
G01 X1.202 Y58.225
G01 X1.491 Y58.027
G01 X1.563 Y57.982
G01 X1.870 Y57.811
G01 X1.946 Y57.774
G01 X2.267 Y57.632
G01 X2.346 Y57.602
G01 X2.678 Y57.490
G01 X2.760 Y57.468
G01 X3.102 Y57.387
G01 X3.185 Y57.373
G01 X3.295 Y57.357
G01 X3.300 Y57.332
G01 Y51.241
G01 Y45.841
G01 Y39.750
G01 X3.303 Y39.680
G03 X4.020 Y39.050 I0.6970 J0.0702
G01 X11.125
G03 X11.825 Y39.770 I-0.0002 J0.7005
G01 Y55.550
G01 X35.992
G01 X41.392
G01 X92.425
G01 Y48.287
G01 Y42.887
G01 Y23.480
G01 Y18.080
G01 Y10.450
G01 X41.392
G01 X35.992
G01 X11.825
G01 Y26.250
G03 X11.105 Y26.950 I-0.7005 J-0.0002
G01 X4.000
G03 X3.302 Y26.300 I0.0000 J-0.7000
G01 X3.300 Y26.230
G01 Y20.145
G01 Y14.745
G01 Z-2.000 F200
G01 Y8.660 F500
G01 X3.288 Y8.641
G01 X3.117 Y8.616
G01 X3.030 Y8.597
G01 X2.669 Y8.507
G01 X2.584 Y8.480
G01 X2.233 Y8.355
G01 X2.152 Y8.320
G01 X1.815 Y8.160
G01 X1.737 Y8.118
G01 X1.418 Y7.926
G01 X1.345 Y7.876
G01 X1.045 Y7.654
G01 X0.978 Y7.597
G01 X0.701 Y7.347
G01 X0.639 Y7.284
G01 X0.389 Y7.008
G01 X0.334 Y6.938
G01 X0.112 Y6.639
G01 X0.063 Y6.565
G01 X-0.128 Y6.245
G01 X-0.169 Y6.167
G01 X-0.328 Y5.830
G01 X-0.361 Y5.748
G01 X-0.487 Y5.397
G01 X-0.512 Y5.312
G01 X-0.602 Y4.950
G01 X-0.618 Y4.863
G01 X-0.673 Y4.495
G01 X-0.681 Y4.406
G01 X-0.699 Y4.034
G01 X-0.698 Y3.946
G01 X-0.680 Y3.574
G01 X-0.670 Y3.485
G01 X-0.616 Y3.117
G01 X-0.597 Y3.030
G01 X-0.507 Y2.669
G01 X-0.480 Y2.584
G01 X-0.355 Y2.233
G01 X-0.320 Y2.152
G01 X-0.160 Y1.815
G01 X-0.118 Y1.737
G01 X0.074 Y1.418
G01 X0.124 Y1.345
G01 X0.346 Y1.045
G01 X0.403 Y0.978
G01 X0.653 Y0.701
G01 X0.716 Y0.639
G01 X0.992 Y0.389
G01 X1.062 Y0.334
G01 X1.361 Y0.112
G01 X1.435 Y0.063
G01 X1.755 Y-0.128
G01 X1.833 Y-0.169
G01 X2.170 Y-0.328
G01 X2.252 Y-0.361
G01 X2.603 Y-0.487
G01 X2.688 Y-0.512
G01 X3.050 Y-0.602
G01 X3.137 Y-0.618
G01 X3.505 Y-0.673
G01 X3.594 Y-0.681
G01 X3.966 Y-0.699
G01 X4.054 Y-0.698
G01 X4.426 Y-0.680
G01 X4.515 Y-0.670
G01 X4.883 Y-0.616
G01 X4.970 Y-0.597
G01 X5.331 Y-0.507
G01 X5.416 Y-0.480
G01 X5.767 Y-0.355
G01 X5.848 Y-0.320
G01 X6.185 Y-0.160
G01 X6.263 Y-0.118
G01 X6.582 Y0.074
G01 X6.655 Y0.124
G01 X6.955 Y0.346
G01 X7.022 Y0.403
G01 X7.299 Y0.653
G01 X7.361 Y0.716
G01 X7.611 Y0.992
G01 X7.666 Y1.062
G01 X7.888 Y1.361
G01 X7.937 Y1.435
G01 X8.128 Y1.755
G01 X8.169 Y1.833
G01 X8.328 Y2.170
G01 X8.361 Y2.252
G01 X8.487 Y2.603
G01 X8.512 Y2.688
G01 X8.602 Y3.050
G01 X8.618 Y3.137
G01 X8.641 Y3.288
G01 X8.666 Y3.300
G01 X17.363
G00 Z-1.750
G01 X22.763
G01 Z-2.000 F200
G01 X82.481 F500
G00 Z-1.750
G01 X87.881
G01 Z-2.000 F200
G01 X102.340 F500
G01 X102.359 Y3.288
G01 X102.384 Y3.117
G01 X102.403 Y3.030
G01 X102.493 Y2.669
G01 X102.520 Y2.584
G01 X102.645 Y2.233
G01 X102.680 Y2.152
G01 X102.840 Y1.815
G01 X102.882 Y1.737
G01 X103.074 Y1.418
G01 X103.124 Y1.345
G01 X103.346 Y1.045
G01 X103.403 Y0.978
G01 X103.653 Y0.701
G01 X103.716 Y0.639
G01 X103.992 Y0.389
G01 X104.062 Y0.334
G01 X104.361 Y0.112
G01 X104.435 Y0.063
G01 X104.755 Y-0.128
G01 X104.833 Y-0.169
G01 X105.170 Y-0.328
G01 X105.252 Y-0.361
G01 X105.603 Y-0.487
G01 X105.688 Y-0.512
G01 X106.050 Y-0.602
G01 X106.137 Y-0.618
G01 X106.505 Y-0.673
G01 X106.594 Y-0.681
G01 X106.966 Y-0.699
G01 X107.054 Y-0.698
G01 X107.426 Y-0.680
G01 X107.515 Y-0.670
G01 X107.883 Y-0.616
G01 X107.970 Y-0.597
G01 X108.331 Y-0.507
G01 X108.416 Y-0.480
G01 X108.767 Y-0.355
G01 X108.848 Y-0.320
G01 X109.185 Y-0.160
G01 X109.263 Y-0.118
G01 X109.582 Y0.074
G01 X109.655 Y0.124
G01 X109.955 Y0.346
G01 X110.022 Y0.403
G01 X110.299 Y0.653
G01 X110.361 Y0.716
G01 X110.611 Y0.992
G01 X110.666 Y1.062
G01 X110.888 Y1.361
G01 X110.937 Y1.435
G01 X111.128 Y1.755
G01 X111.169 Y1.833
G01 X111.328 Y2.170
G01 X111.361 Y2.252
G01 X111.487 Y2.603
G01 X111.512 Y2.688
G01 X111.602 Y3.050
G01 X111.618 Y3.137
G01 X111.673 Y3.505
G01 X111.681 Y3.594
G01 X111.699 Y3.966
G01 X111.698 Y4.054
G01 X111.680 Y4.426
G01 X111.670 Y4.515
G01 X111.616 Y4.883
G01 X111.597 Y4.970
G01 X111.507 Y5.331
G01 X111.480 Y5.416
G01 X111.355 Y5.767
G01 X111.320 Y5.848
G01 X111.160 Y6.185
G01 X111.118 Y6.263
G01 X110.926 Y6.582
G01 X110.876 Y6.655
G01 X110.654 Y6.955
G01 X110.597 Y7.022
G01 X110.347 Y7.299
G01 X110.284 Y7.361
G01 X110.008 Y7.611
G01 X109.938 Y7.666
G01 X109.639 Y7.888
G01 X109.565 Y7.937
G01 X109.245 Y8.128
G01 X109.167 Y8.169
G01 X108.830 Y8.328
G01 X108.748 Y8.361
G01 X108.397 Y8.487
G01 X108.312 Y8.512
G01 X107.950 Y8.602
G01 X107.863 Y8.618
G01 X107.712 Y8.641
G03 X107.254 Y9.402 I-0.7418 J0.0721
G03 X106.980 Y9.450 I-0.2556 J-0.6595
G01 X97.825
G01 Y30.300
G00 Z-1.750
G01 Y35.700
G01 Z-2.000 F200
G01 Y56.550 F500
G01 X107.000
G03 X107.712 Y57.359 I-0.0153 J0.7316
G01 X107.883 Y57.384
G01 X107.970 Y57.403
G01 X108.331 Y57.493
G01 X108.416 Y57.520
G01 X108.767 Y57.645
G01 X108.848 Y57.680
G01 X109.185 Y57.840
G01 X109.263 Y57.882
G01 X109.582 Y58.074
G01 X109.655 Y58.124
G01 X109.955 Y58.346
G01 X110.022 Y58.403
G01 X110.299 Y58.653
G01 X110.361 Y58.716
G01 X110.611 Y58.992
G01 X110.666 Y59.062
G01 X110.888 Y59.361
G01 X110.937 Y59.435
G01 X111.128 Y59.755
G01 X111.169 Y59.833
G01 X111.328 Y60.170
G01 X111.361 Y60.252
G01 X111.487 Y60.603
G01 X111.512 Y60.688
G01 X111.602 Y61.050
G01 X111.618 Y61.137
G01 X111.673 Y61.505
G01 X111.681 Y61.594
G01 X111.699 Y61.966
G01 X111.698 Y62.054
G01 X111.680 Y62.426
G01 X111.670 Y62.515
G01 X111.616 Y62.883
G01 X111.597 Y62.970
G01 X111.507 Y63.331
G01 X111.480 Y63.416
G01 X111.355 Y63.767
G01 X111.320 Y63.848
G01 X111.160 Y64.185
G01 X111.118 Y64.263
G01 X110.926 Y64.582
G01 X110.876 Y64.655
G01 X110.654 Y64.955
G01 X110.597 Y65.022
G01 X110.347 Y65.299
G01 X110.284 Y65.361
G01 X110.008 Y65.611
G01 X109.938 Y65.666
G01 X109.639 Y65.888
G01 X109.565 Y65.937
G01 X109.245 Y66.128
G01 X109.167 Y66.169
G01 X108.830 Y66.328
G01 X108.748 Y66.361
G01 X108.397 Y66.487
G01 X108.312 Y66.512
G01 X107.950 Y66.602
G01 X107.863 Y66.618
G01 X107.495 Y66.673
G01 X107.406 Y66.681
G01 X107.034 Y66.699
G01 X106.946 Y66.698
G01 X106.574 Y66.680
G01 X106.485 Y66.670
G01 X106.117 Y66.616
G01 X106.030 Y66.597
G01 X105.669 Y66.507
G01 X105.584 Y66.480
G01 X105.233 Y66.355
G01 X105.152 Y66.320
G01 X104.815 Y66.160
G01 X104.737 Y66.118
G01 X104.418 Y65.926
G01 X104.345 Y65.876
G01 X104.045 Y65.654
G01 X103.978 Y65.597
G01 X103.701 Y65.347
G01 X103.639 Y65.284
G01 X103.389 Y65.008
G01 X103.334 Y64.938
G01 X103.112 Y64.639
G01 X103.063 Y64.565
G01 X102.872 Y64.245
G01 X102.831 Y64.167
G01 X102.672 Y63.830
G01 X102.639 Y63.748
G01 X102.513 Y63.397
G01 X102.488 Y63.312
G01 X102.398 Y62.950
G01 X102.382 Y62.863
G01 X102.359 Y62.712
G01 X102.334 Y62.700
G01 X86.663
G00 Z-1.750
G01 X81.263
G01 Z-2.000 F200
G01 X23.538 F500
G00 Z-1.750
G01 X18.138
G01 Z-2.000 F200
G01 X8.620 F500
G01 X8.558 Y63.127
G01 X8.545 Y63.195
G01 X8.525 Y63.267
G01 X8.418 Y63.601
G01 X8.388 Y63.680
G01 X8.251 Y64.003
G01 X8.214 Y64.079
G01 X8.047 Y64.388
G01 X8.003 Y64.460
G01 X7.809 Y64.753
G01 X7.758 Y64.820
G01 X7.538 Y65.093
G01 X7.481 Y65.156
G01 X7.236 Y65.408
G01 X7.173 Y65.465
G01 X6.907 Y65.693
G01 X6.839 Y65.744
G01 X6.552 Y65.946
G01 X6.480 Y65.991
G01 X6.176 Y66.165
G01 X6.100 Y66.203
G01 X5.781 Y66.349
G01 X5.702 Y66.380
G01 X5.371 Y66.495
G01 X5.289 Y66.518
G01 X4.949 Y66.603
G01 X4.865 Y66.618
G01 X4.518 Y66.671
G01 X4.434 Y66.679
G01 X4.084 Y66.699
G01 X3.999
G01 X3.648 Y66.686
G01 X3.564 Y66.678
G01 X3.216 Y66.633
G01 X3.133 Y66.618
G01 X2.790 Y66.541
G01 X2.709 Y66.518
G01 X2.375 Y66.409
G01 X2.296 Y66.379
G01 X1.974 Y66.240
G01 X1.898 Y66.202
G01 X1.590 Y66.034
G01 X1.518 Y65.989
G01 X1.227 Y65.794
G01 X1.159 Y65.743
G01 X0.887 Y65.521
G01 X0.825 Y65.463
G01 X0.575 Y65.217
G01 X0.518 Y65.155
G01 X0.292 Y64.886
G01 X0.241 Y64.819
G01 X0.040 Y64.531
G01 X-0.004 Y64.458
G01 X-0.177 Y64.153
G01 X-0.215 Y64.077
G01 X-0.358 Y63.757
G01 X-0.389 Y63.678
G01 X-0.502 Y63.346
G01 X-0.525 Y63.264
G01 X-0.608 Y62.923
G01 X-0.623 Y62.840
G01 X-0.673 Y62.493
G01 X-0.681 Y62.408
G01 X-0.699 Y62.058
G01 Y61.973
G01 X-0.684 Y61.623
G01 X-0.676 Y61.538
G01 X-0.629 Y61.191
G01 X-0.613 Y61.107
G01 X-0.534 Y60.766
G01 X-0.511 Y60.684
G01 X-0.401 Y60.351
G01 X-0.369 Y60.272
G01 X-0.229 Y59.951
G01 X-0.191 Y59.875
G01 X-0.021 Y59.568
G01 X0.024 Y59.496
G01 X0.221 Y59.206
G01 X0.273 Y59.139
G01 X0.496 Y58.868
G01 X0.554 Y58.806
G01 X0.801 Y58.557
G01 X0.865 Y58.501
G01 X1.134 Y58.276
G01 X1.202 Y58.225
G01 X1.491 Y58.027
G01 X1.563 Y57.982
G01 X1.870 Y57.811
G01 X1.946 Y57.774
G01 X2.267 Y57.632
G01 X2.346 Y57.602
G01 X2.678 Y57.490
G01 X2.760 Y57.468
G01 X3.102 Y57.387
G01 X3.185 Y57.373
G01 X3.295 Y57.357
G01 X3.300 Y57.332
G01 Y51.241
G00 Z-1.750
G01 Y45.841
G01 Z-2.000 F200
G01 Y39.750 F500
G01 X3.303 Y39.680
G03 X4.020 Y39.050 I0.6970 J0.0702
G01 X11.125
G03 X11.825 Y39.770 I-0.0002 J0.7005
G01 Y55.550
G01 X35.992
G00 Z-1.750
G01 X41.392
G01 Z-2.000 F200
G01 X92.425 F500
G01 Y48.287
G00 Z-1.750
G01 Y42.887
G01 Z-2.000 F200
G01 Y23.480 F500
G00 Z-1.750
G01 Y18.080
G01 Z-2.000 F200
G01 Y10.450 F500
G01 X41.392
G00 Z-1.750
G01 X35.992
G01 Z-2.000 F200
G01 X11.825 F500
G01 Y26.250
G03 X11.105 Y26.950 I-0.7005 J-0.0002
G01 X4.000
G03 X3.302 Y26.300 I0.0000 J-0.7000
G01 X3.300 Y26.230
G01 Y20.145
G00 Z-1.750
G01 Y14.745
G01 Z-2.500 F200
G01 Y8.660 F500
G01 X3.288 Y8.641
G01 X3.117 Y8.616
G01 X3.030 Y8.597
G01 X2.669 Y8.507
G01 X2.584 Y8.480
G01 X2.233 Y8.355
G01 X2.152 Y8.320
G01 X1.815 Y8.160
G01 X1.737 Y8.118
G01 X1.418 Y7.926
G01 X1.345 Y7.876
G01 X1.045 Y7.654
G01 X0.978 Y7.597
G01 X0.701 Y7.347
G01 X0.639 Y7.284
G01 X0.389 Y7.008
G01 X0.334 Y6.938
G01 X0.112 Y6.639
G01 X0.063 Y6.565
G01 X-0.128 Y6.245
G01 X-0.169 Y6.167
G01 X-0.328 Y5.830
G01 X-0.361 Y5.748
G01 X-0.487 Y5.397
G01 X-0.512 Y5.312
G01 X-0.602 Y4.950
G01 X-0.618 Y4.863
G01 X-0.673 Y4.495
G01 X-0.681 Y4.406
G01 X-0.699 Y4.034
G01 X-0.698 Y3.946
G01 X-0.680 Y3.574
G01 X-0.670 Y3.485
G01 X-0.616 Y3.117
G01 X-0.597 Y3.030
G01 X-0.507 Y2.669
G01 X-0.480 Y2.584
G01 X-0.355 Y2.233
G01 X-0.320 Y2.152
G01 X-0.160 Y1.815
G01 X-0.118 Y1.737
G01 X0.074 Y1.418
G01 X0.124 Y1.345
G01 X0.346 Y1.045
G01 X0.403 Y0.978
G01 X0.653 Y0.701
G01 X0.716 Y0.639
G01 X0.992 Y0.389
G01 X1.062 Y0.334
G01 X1.361 Y0.112
G01 X1.435 Y0.063
G01 X1.755 Y-0.128
G01 X1.833 Y-0.169
G01 X2.170 Y-0.328
G01 X2.252 Y-0.361
G01 X2.603 Y-0.487
G01 X2.688 Y-0.512
G01 X3.050 Y-0.602
G01 X3.137 Y-0.618
G01 X3.505 Y-0.673
G01 X3.594 Y-0.681
G01 X3.966 Y-0.699
G01 X4.054 Y-0.698
G01 X4.426 Y-0.680
G01 X4.515 Y-0.670
G01 X4.883 Y-0.616
G01 X4.970 Y-0.597
G01 X5.331 Y-0.507
G01 X5.416 Y-0.480
G01 X5.767 Y-0.355
G01 X5.848 Y-0.320
G01 X6.185 Y-0.160
G01 X6.263 Y-0.118
G01 X6.582 Y0.074
G01 X6.655 Y0.124
G01 X6.955 Y0.346
G01 X7.022 Y0.403
G01 X7.299 Y0.653
G01 X7.361 Y0.716
G01 X7.611 Y0.992
G01 X7.666 Y1.062
G01 X7.888 Y1.361
G01 X7.937 Y1.435
G01 X8.128 Y1.755
G01 X8.169 Y1.833
G01 X8.328 Y2.170
G01 X8.361 Y2.252
G01 X8.487 Y2.603
G01 X8.512 Y2.688
G01 X8.602 Y3.050
G01 X8.618 Y3.137
G01 X8.641 Y3.288
G01 X8.666 Y3.300
G01 X17.363
G00 Z-1.750
G01 X22.763
G01 Z-2.500 F200
G01 X82.481 F500
G00 Z-1.750
G01 X87.881
G01 Z-2.500 F200
G01 X102.340 F500
G01 X102.359 Y3.288
G01 X102.384 Y3.117
G01 X102.403 Y3.030
G01 X102.493 Y2.669
G01 X102.520 Y2.584
G01 X102.645 Y2.233
G01 X102.680 Y2.152
G01 X102.840 Y1.815
G01 X102.882 Y1.737
G01 X103.074 Y1.418
G01 X103.124 Y1.345
G01 X103.346 Y1.045
G01 X103.403 Y0.978
G01 X103.653 Y0.701
G01 X103.716 Y0.639
G01 X103.992 Y0.389
G01 X104.062 Y0.334
G01 X104.361 Y0.112
G01 X104.435 Y0.063
G01 X104.755 Y-0.128
G01 X104.833 Y-0.169
G01 X105.170 Y-0.328
G01 X105.252 Y-0.361
G01 X105.603 Y-0.487
G01 X105.688 Y-0.512
G01 X106.050 Y-0.602
G01 X106.137 Y-0.618
G01 X106.505 Y-0.673
G01 X106.594 Y-0.681
G01 X106.966 Y-0.699
G01 X107.054 Y-0.698
G01 X107.426 Y-0.680
G01 X107.515 Y-0.670
G01 X107.883 Y-0.616
G01 X107.970 Y-0.597
G01 X108.331 Y-0.507
G01 X108.416 Y-0.480
G01 X108.767 Y-0.355
G01 X108.848 Y-0.320
G01 X109.185 Y-0.160
G01 X109.263 Y-0.118
G01 X109.582 Y0.074
G01 X109.655 Y0.124
G01 X109.955 Y0.346
G01 X110.022 Y0.403
G01 X110.299 Y0.653
G01 X110.361 Y0.716
G01 X110.611 Y0.992
G01 X110.666 Y1.062
G01 X110.888 Y1.361
G01 X110.937 Y1.435
G01 X111.128 Y1.755
G01 X111.169 Y1.833
G01 X111.328 Y2.170
G01 X111.361 Y2.252
G01 X111.487 Y2.603
G01 X111.512 Y2.688
G01 X111.602 Y3.050
G01 X111.618 Y3.137
G01 X111.673 Y3.505
G01 X111.681 Y3.594
G01 X111.699 Y3.966
G01 X111.698 Y4.054
G01 X111.680 Y4.426
G01 X111.670 Y4.515
G01 X111.616 Y4.883
G01 X111.597 Y4.970
G01 X111.507 Y5.331
G01 X111.480 Y5.416
G01 X111.355 Y5.767
G01 X111.320 Y5.848
G01 X111.160 Y6.185
G01 X111.118 Y6.263
G01 X110.926 Y6.582
G01 X110.876 Y6.655
G01 X110.654 Y6.955
G01 X110.597 Y7.022
G01 X110.347 Y7.299
G01 X110.284 Y7.361
G01 X110.008 Y7.611
G01 X109.938 Y7.666
G01 X109.639 Y7.888
G01 X109.565 Y7.937
G01 X109.245 Y8.128
G01 X109.167 Y8.169
G01 X108.830 Y8.328
G01 X108.748 Y8.361
G01 X108.397 Y8.487
G01 X108.312 Y8.512
G01 X107.950 Y8.602
G01 X107.863 Y8.618
G01 X107.712 Y8.641
G03 X107.254 Y9.402 I-0.7418 J0.0721
G03 X106.980 Y9.450 I-0.2556 J-0.6595
G01 X97.825
G01 Y30.300
G00 Z-1.750
G01 Y35.700
G01 Z-2.500 F200
G01 Y56.550 F500
G01 X107.000
G03 X107.712 Y57.359 I-0.0153 J0.7316
G01 X107.883 Y57.384
G01 X107.970 Y57.403
G01 X108.331 Y57.493
G01 X108.416 Y57.520
G01 X108.767 Y57.645
G01 X108.848 Y57.680
G01 X109.185 Y57.840
G01 X109.263 Y57.882
G01 X109.582 Y58.074
G01 X109.655 Y58.124
G01 X109.955 Y58.346
G01 X110.022 Y58.403
G01 X110.299 Y58.653
G01 X110.361 Y58.716
G01 X110.611 Y58.992
G01 X110.666 Y59.062
G01 X110.888 Y59.361
G01 X110.937 Y59.435
G01 X111.128 Y59.755
G01 X111.169 Y59.833
G01 X111.328 Y60.170
G01 X111.361 Y60.252
G01 X111.487 Y60.603
G01 X111.512 Y60.688
G01 X111.602 Y61.050
G01 X111.618 Y61.137
G01 X111.673 Y61.505
G01 X111.681 Y61.594
G01 X111.699 Y61.966
G01 X111.698 Y62.054
G01 X111.680 Y62.426
G01 X111.670 Y62.515
G01 X111.616 Y62.883
G01 X111.597 Y62.970
G01 X111.507 Y63.331
G01 X111.480 Y63.416
G01 X111.355 Y63.767
G01 X111.320 Y63.848
G01 X111.160 Y64.185
G01 X111.118 Y64.263
G01 X110.926 Y64.582
G01 X110.876 Y64.655
G01 X110.654 Y64.955
G01 X110.597 Y65.022
G01 X110.347 Y65.299
G01 X110.284 Y65.361
G01 X110.008 Y65.611
G01 X109.938 Y65.666
G01 X109.639 Y65.888
G01 X109.565 Y65.937
G01 X109.245 Y66.128
G01 X109.167 Y66.169
G01 X108.830 Y66.328
G01 X108.748 Y66.361
G01 X108.397 Y66.487
G01 X108.312 Y66.512
G01 X107.950 Y66.602
G01 X107.863 Y66.618
G01 X107.495 Y66.673
G01 X107.406 Y66.681
G01 X107.034 Y66.699
G01 X106.946 Y66.698
G01 X106.574 Y66.680
G01 X106.485 Y66.670
G01 X106.117 Y66.616
G01 X106.030 Y66.597
G01 X105.669 Y66.507
G01 X105.584 Y66.480
G01 X105.233 Y66.355
G01 X105.152 Y66.320
G01 X104.815 Y66.160
G01 X104.737 Y66.118
G01 X104.418 Y65.926
G01 X104.345 Y65.876
G01 X104.045 Y65.654
G01 X103.978 Y65.597
G01 X103.701 Y65.347
G01 X103.639 Y65.284
G01 X103.389 Y65.008
G01 X103.334 Y64.938
G01 X103.112 Y64.639
G01 X103.063 Y64.565
G01 X102.872 Y64.245
G01 X102.831 Y64.167
G01 X102.672 Y63.830
G01 X102.639 Y63.748
G01 X102.513 Y63.397
G01 X102.488 Y63.312
G01 X102.398 Y62.950
G01 X102.382 Y62.863
G01 X102.359 Y62.712
G01 X102.334 Y62.700
G01 X86.663
G00 Z-1.750
G01 X81.263
G01 Z-2.500 F200
G01 X23.538 F500
G00 Z-1.750
G01 X18.138
G01 Z-2.500 F200
G01 X8.620 F500
G01 X8.558 Y63.127
G01 X8.545 Y63.195
G01 X8.525 Y63.267
G01 X8.418 Y63.601
G01 X8.388 Y63.680
G01 X8.251 Y64.003
G01 X8.214 Y64.079
G01 X8.047 Y64.388
G01 X8.003 Y64.460
G01 X7.809 Y64.753
G01 X7.758 Y64.820
G01 X7.538 Y65.093
G01 X7.481 Y65.156
G01 X7.236 Y65.408
G01 X7.173 Y65.465
G01 X6.907 Y65.693
G01 X6.839 Y65.744
G01 X6.552 Y65.946
G01 X6.480 Y65.991
G01 X6.176 Y66.165
G01 X6.100 Y66.203
G01 X5.781 Y66.349
G01 X5.702 Y66.380
G01 X5.371 Y66.495
G01 X5.289 Y66.518
G01 X4.949 Y66.603
G01 X4.865 Y66.618
G01 X4.518 Y66.671
G01 X4.434 Y66.679
G01 X4.084 Y66.699
G01 X3.999
G01 X3.648 Y66.686
G01 X3.564 Y66.678
G01 X3.216 Y66.633
G01 X3.133 Y66.618
G01 X2.790 Y66.541
G01 X2.709 Y66.518
G01 X2.375 Y66.409
G01 X2.296 Y66.379
G01 X1.974 Y66.240
G01 X1.898 Y66.202
G01 X1.590 Y66.034
G01 X1.518 Y65.989
G01 X1.227 Y65.794
G01 X1.159 Y65.743
G01 X0.887 Y65.521
G01 X0.825 Y65.463
G01 X0.575 Y65.217
G01 X0.518 Y65.155
G01 X0.292 Y64.886
G01 X0.241 Y64.819
G01 X0.040 Y64.531
G01 X-0.004 Y64.458
G01 X-0.177 Y64.153
G01 X-0.215 Y64.077
G01 X-0.358 Y63.757
G01 X-0.389 Y63.678
G01 X-0.502 Y63.346
G01 X-0.525 Y63.264
G01 X-0.608 Y62.923
G01 X-0.623 Y62.840
G01 X-0.673 Y62.493
G01 X-0.681 Y62.408
G01 X-0.699 Y62.058
G01 Y61.973
G01 X-0.684 Y61.623
G01 X-0.676 Y61.538
G01 X-0.629 Y61.191
G01 X-0.613 Y61.107
G01 X-0.534 Y60.766
G01 X-0.511 Y60.684
G01 X-0.401 Y60.351
G01 X-0.369 Y60.272
G01 X-0.229 Y59.951
G01 X-0.191 Y59.875
G01 X-0.021 Y59.568
G01 X0.024 Y59.496
G01 X0.221 Y59.206
G01 X0.273 Y59.139
G01 X0.496 Y58.868
G01 X0.554 Y58.806
G01 X0.801 Y58.557
G01 X0.865 Y58.501
G01 X1.134 Y58.276
G01 X1.202 Y58.225
G01 X1.491 Y58.027
G01 X1.563 Y57.982
G01 X1.870 Y57.811
G01 X1.946 Y57.774
G01 X2.267 Y57.632
G01 X2.346 Y57.602
G01 X2.678 Y57.490
G01 X2.760 Y57.468
G01 X3.102 Y57.387
G01 X3.185 Y57.373
G01 X3.295 Y57.357
G01 X3.300 Y57.332
G01 Y51.241
G00 Z-1.750
G01 Y45.841
G01 Z-2.500 F200
G01 Y39.750 F500
G01 X3.303 Y39.680
G03 X4.020 Y39.050 I0.6970 J0.0702
G01 X11.125
G03 X11.825 Y39.770 I-0.0002 J0.7005
G01 Y55.550
G01 X35.992
G00 Z-1.750
G01 X41.392
G01 Z-2.500 F200
G01 X92.425 F500
G01 Y48.287
G00 Z-1.750
G01 Y42.887
G01 Z-2.500 F200
G01 Y23.480 F500
G00 Z-1.750
G01 Y18.080
G01 Z-2.500 F200
G01 Y10.450 F500
G01 X41.392
G00 Z-1.750
G01 X35.992
G01 Z-2.500 F200
G01 X11.825 F500
G01 Y26.250
G03 X11.105 Y26.950 I-0.7005 J-0.0002
G01 X4.000
G03 X3.302 Y26.300 I0.0000 J-0.7000
G01 X3.300 Y26.230
G01 Y20.145
G00 Z-1.750
G01 Y14.745
G00 Z-2.000
G01 Z-3.000 F200
G01 Y8.660 F500
G01 X3.288 Y8.641
G01 X3.117 Y8.616
G01 X3.030 Y8.597
G01 X2.669 Y8.507
G01 X2.584 Y8.480
G01 X2.233 Y8.355
G01 X2.152 Y8.320
G01 X1.815 Y8.160
G01 X1.737 Y8.118
G01 X1.418 Y7.926
G01 X1.345 Y7.876
G01 X1.045 Y7.654
G01 X0.978 Y7.597
G01 X0.701 Y7.347
G01 X0.639 Y7.284
G01 X0.389 Y7.008
G01 X0.334 Y6.938
G01 X0.112 Y6.639
G01 X0.063 Y6.565
G01 X-0.128 Y6.245
G01 X-0.169 Y6.167
G01 X-0.328 Y5.830
G01 X-0.361 Y5.748
G01 X-0.487 Y5.397
G01 X-0.512 Y5.312
G01 X-0.602 Y4.950
G01 X-0.618 Y4.863
G01 X-0.673 Y4.495
G01 X-0.681 Y4.406
G01 X-0.699 Y4.034
G01 X-0.698 Y3.946
G01 X-0.680 Y3.574
G01 X-0.670 Y3.485
G01 X-0.616 Y3.117
G01 X-0.597 Y3.030
G01 X-0.507 Y2.669
G01 X-0.480 Y2.584
G01 X-0.355 Y2.233
G01 X-0.320 Y2.152
G01 X-0.160 Y1.815
G01 X-0.118 Y1.737
G01 X0.074 Y1.418
G01 X0.124 Y1.345
G01 X0.346 Y1.045
G01 X0.403 Y0.978
G01 X0.653 Y0.701
G01 X0.716 Y0.639
G01 X0.992 Y0.389
G01 X1.062 Y0.334
G01 X1.361 Y0.112
G01 X1.435 Y0.063
G01 X1.755 Y-0.128
G01 X1.833 Y-0.169
G01 X2.170 Y-0.328
G01 X2.252 Y-0.361
G01 X2.603 Y-0.487
G01 X2.688 Y-0.512
G01 X3.050 Y-0.602
G01 X3.137 Y-0.618
G01 X3.505 Y-0.673
G01 X3.594 Y-0.681
G01 X3.966 Y-0.699
G01 X4.054 Y-0.698
G01 X4.426 Y-0.680
G01 X4.515 Y-0.670
G01 X4.883 Y-0.616
G01 X4.970 Y-0.597
G01 X5.331 Y-0.507
G01 X5.416 Y-0.480
G01 X5.767 Y-0.355
G01 X5.848 Y-0.320
G01 X6.185 Y-0.160
G01 X6.263 Y-0.118
G01 X6.582 Y0.074
G01 X6.655 Y0.124
G01 X6.955 Y0.346
G01 X7.022 Y0.403
G01 X7.299 Y0.653
G01 X7.361 Y0.716
G01 X7.611 Y0.992
G01 X7.666 Y1.062
G01 X7.888 Y1.361
G01 X7.937 Y1.435
G01 X8.128 Y1.755
G01 X8.169 Y1.833
G01 X8.328 Y2.170
G01 X8.361 Y2.252
G01 X8.487 Y2.603
G01 X8.512 Y2.688
G01 X8.602 Y3.050
G01 X8.618 Y3.137
G01 X8.641 Y3.288
G01 X8.666 Y3.300
G01 X17.363
G00 Z-1.750
G01 X22.763
G00 Z-2.000
G01 Z-3.000 F200
G01 X82.481 F500
G00 Z-1.750
G01 X87.881
G00 Z-2.000
G01 Z-3.000 F200
G01 X102.340 F500
G01 X102.359 Y3.288
G01 X102.384 Y3.117
G01 X102.403 Y3.030
G01 X102.493 Y2.669
G01 X102.520 Y2.584
G01 X102.645 Y2.233
G01 X102.680 Y2.152
G01 X102.840 Y1.815
G01 X102.882 Y1.737
G01 X103.074 Y1.418
G01 X103.124 Y1.345
G01 X103.346 Y1.045
G01 X103.403 Y0.978
G01 X103.653 Y0.701
G01 X103.716 Y0.639
G01 X103.992 Y0.389
G01 X104.062 Y0.334
G01 X104.361 Y0.112
G01 X104.435 Y0.063
G01 X104.755 Y-0.128
G01 X104.833 Y-0.169
G01 X105.170 Y-0.328
G01 X105.252 Y-0.361
G01 X105.603 Y-0.487
G01 X105.688 Y-0.512
G01 X106.050 Y-0.602
G01 X106.137 Y-0.618
G01 X106.505 Y-0.673
G01 X106.594 Y-0.681
G01 X106.966 Y-0.699
G01 X107.054 Y-0.698
G01 X107.426 Y-0.680
G01 X107.515 Y-0.670
G01 X107.883 Y-0.616
G01 X107.970 Y-0.597
G01 X108.331 Y-0.507
G01 X108.416 Y-0.480
G01 X108.767 Y-0.355
G01 X108.848 Y-0.320
G01 X109.185 Y-0.160
G01 X109.263 Y-0.118
G01 X109.582 Y0.074
G01 X109.655 Y0.124
G01 X109.955 Y0.346
G01 X110.022 Y0.403
G01 X110.299 Y0.653
G01 X110.361 Y0.716
G01 X110.611 Y0.992
G01 X110.666 Y1.062
G01 X110.888 Y1.361
G01 X110.937 Y1.435
G01 X111.128 Y1.755
G01 X111.169 Y1.833
G01 X111.328 Y2.170
G01 X111.361 Y2.252
G01 X111.487 Y2.603
G01 X111.512 Y2.688
G01 X111.602 Y3.050
G01 X111.618 Y3.137
G01 X111.673 Y3.505
G01 X111.681 Y3.594
G01 X111.699 Y3.966
G01 X111.698 Y4.054
G01 X111.680 Y4.426
G01 X111.670 Y4.515
G01 X111.616 Y4.883
G01 X111.597 Y4.970
G01 X111.507 Y5.331
G01 X111.480 Y5.416
G01 X111.355 Y5.767
G01 X111.320 Y5.848
G01 X111.160 Y6.185
G01 X111.118 Y6.263
G01 X110.926 Y6.582
G01 X110.876 Y6.655
G01 X110.654 Y6.955
G01 X110.597 Y7.022
G01 X110.347 Y7.299
G01 X110.284 Y7.361
G01 X110.008 Y7.611
G01 X109.938 Y7.666
G01 X109.639 Y7.888
G01 X109.565 Y7.937
G01 X109.245 Y8.128
G01 X109.167 Y8.169
G01 X108.830 Y8.328
G01 X108.748 Y8.361
G01 X108.397 Y8.487
G01 X108.312 Y8.512
G01 X107.950 Y8.602
G01 X107.863 Y8.618
G01 X107.712 Y8.641
G03 X107.254 Y9.402 I-0.7418 J0.0721
G03 X106.980 Y9.450 I-0.2556 J-0.6595
G01 X97.825
G01 Y30.300
G00 Z-1.750
G01 Y35.700
G00 Z-2.000
G01 Z-3.000 F200
G01 Y56.550 F500
G01 X107.000
G03 X107.712 Y57.359 I-0.0153 J0.7316
G01 X107.883 Y57.384
G01 X107.970 Y57.403
G01 X108.331 Y57.493
G01 X108.416 Y57.520
G01 X108.767 Y57.645
G01 X108.848 Y57.680
G01 X109.185 Y57.840
G01 X109.263 Y57.882
G01 X109.582 Y58.074
G01 X109.655 Y58.124
G01 X109.955 Y58.346
G01 X110.022 Y58.403
G01 X110.299 Y58.653
G01 X110.361 Y58.716
G01 X110.611 Y58.992
G01 X110.666 Y59.062
G01 X110.888 Y59.361
G01 X110.937 Y59.435
G01 X111.128 Y59.755
G01 X111.169 Y59.833
G01 X111.328 Y60.170
G01 X111.361 Y60.252
G01 X111.487 Y60.603
G01 X111.512 Y60.688
G01 X111.602 Y61.050
G01 X111.618 Y61.137
G01 X111.673 Y61.505
G01 X111.681 Y61.594
G01 X111.699 Y61.966
G01 X111.698 Y62.054
G01 X111.680 Y62.426
G01 X111.670 Y62.515
G01 X111.616 Y62.883
G01 X111.597 Y62.970
G01 X111.507 Y63.331
G01 X111.480 Y63.416
G01 X111.355 Y63.767
G01 X111.320 Y63.848
G01 X111.160 Y64.185
G01 X111.118 Y64.263
G01 X110.926 Y64.582
G01 X110.876 Y64.655
G01 X110.654 Y64.955
G01 X110.597 Y65.022
G01 X110.347 Y65.299
G01 X110.284 Y65.361
G01 X110.008 Y65.611
G01 X109.938 Y65.666
G01 X109.639 Y65.888
G01 X109.565 Y65.937
G01 X109.245 Y66.128
G01 X109.167 Y66.169
G01 X108.830 Y66.328
G01 X108.748 Y66.361
G01 X108.397 Y66.487
G01 X108.312 Y66.512
G01 X107.950 Y66.602
G01 X107.863 Y66.618
G01 X107.495 Y66.673
G01 X107.406 Y66.681
G01 X107.034 Y66.699
G01 X106.946 Y66.698
G01 X106.574 Y66.680
G01 X106.485 Y66.670
G01 X106.117 Y66.616
G01 X106.030 Y66.597
G01 X105.669 Y66.507
G01 X105.584 Y66.480
G01 X105.233 Y66.355
G01 X105.152 Y66.320
G01 X104.815 Y66.160
G01 X104.737 Y66.118
G01 X104.418 Y65.926
G01 X104.345 Y65.876
G01 X104.045 Y65.654
G01 X103.978 Y65.597
G01 X103.701 Y65.347
G01 X103.639 Y65.284
G01 X103.389 Y65.008
G01 X103.334 Y64.938
G01 X103.112 Y64.639
G01 X103.063 Y64.565
G01 X102.872 Y64.245
G01 X102.831 Y64.167
G01 X102.672 Y63.830
G01 X102.639 Y63.748
G01 X102.513 Y63.397
G01 X102.488 Y63.312
G01 X102.398 Y62.950
G01 X102.382 Y62.863
G01 X102.359 Y62.712
G01 X102.334 Y62.700
G01 X86.663
G00 Z-1.750
G01 X81.263
G00 Z-2.000
G01 Z-3.000 F200
G01 X23.538 F500
G00 Z-1.750
G01 X18.138
G00 Z-2.000
G01 Z-3.000 F200
G01 X8.620 F500
G01 X8.558 Y63.127
G01 X8.545 Y63.195
G01 X8.525 Y63.267
G01 X8.418 Y63.601
G01 X8.388 Y63.680
G01 X8.251 Y64.003
G01 X8.214 Y64.079
G01 X8.047 Y64.388
G01 X8.003 Y64.460
G01 X7.809 Y64.753
G01 X7.758 Y64.820
G01 X7.538 Y65.093
G01 X7.481 Y65.156
G01 X7.236 Y65.408
G01 X7.173 Y65.465
G01 X6.907 Y65.693
G01 X6.839 Y65.744
G01 X6.552 Y65.946
G01 X6.480 Y65.991
G01 X6.176 Y66.165
G01 X6.100 Y66.203
G01 X5.781 Y66.349
G01 X5.702 Y66.380
G01 X5.371 Y66.495
G01 X5.289 Y66.518
G01 X4.949 Y66.603
G01 X4.865 Y66.618
G01 X4.518 Y66.671
G01 X4.434 Y66.679
G01 X4.084 Y66.699
G01 X3.999
G01 X3.648 Y66.686
G01 X3.564 Y66.678
G01 X3.216 Y66.633
G01 X3.133 Y66.618
G01 X2.790 Y66.541
G01 X2.709 Y66.518
G01 X2.375 Y66.409
G01 X2.296 Y66.379
G01 X1.974 Y66.240
G01 X1.898 Y66.202
G01 X1.590 Y66.034
G01 X1.518 Y65.989
G01 X1.227 Y65.794
G01 X1.159 Y65.743
G01 X0.887 Y65.521
G01 X0.825 Y65.463
G01 X0.575 Y65.217
G01 X0.518 Y65.155
G01 X0.292 Y64.886
G01 X0.241 Y64.819
G01 X0.040 Y64.531
G01 X-0.004 Y64.458
G01 X-0.177 Y64.153
G01 X-0.215 Y64.077
G01 X-0.358 Y63.757
G01 X-0.389 Y63.678
G01 X-0.502 Y63.346
G01 X-0.525 Y63.264
G01 X-0.608 Y62.923
G01 X-0.623 Y62.840
G01 X-0.673 Y62.493
G01 X-0.681 Y62.408
G01 X-0.699 Y62.058
G01 Y61.973
G01 X-0.684 Y61.623
G01 X-0.676 Y61.538
G01 X-0.629 Y61.191
G01 X-0.613 Y61.107
G01 X-0.534 Y60.766
G01 X-0.511 Y60.684
G01 X-0.401 Y60.351
G01 X-0.369 Y60.272
G01 X-0.229 Y59.951
G01 X-0.191 Y59.875
G01 X-0.021 Y59.568
G01 X0.024 Y59.496
G01 X0.221 Y59.206
G01 X0.273 Y59.139
G01 X0.496 Y58.868
G01 X0.554 Y58.806
G01 X0.801 Y58.557
G01 X0.865 Y58.501
G01 X1.134 Y58.276
G01 X1.202 Y58.225
G01 X1.491 Y58.027
G01 X1.563 Y57.982
G01 X1.870 Y57.811
G01 X1.946 Y57.774
G01 X2.267 Y57.632
G01 X2.346 Y57.602
G01 X2.678 Y57.490
G01 X2.760 Y57.468
G01 X3.102 Y57.387
G01 X3.185 Y57.373
G01 X3.295 Y57.357
G01 X3.300 Y57.332
G01 Y51.241
G00 Z-1.750
G01 Y45.841
G00 Z-2.000
G01 Z-3.000 F200
G01 Y39.750 F500
G01 X3.303 Y39.680
G03 X4.020 Y39.050 I0.6970 J0.0702
G01 X11.125
G03 X11.825 Y39.770 I-0.0002 J0.7005
G01 Y55.550
G01 X35.992
G00 Z-1.750
G01 X41.392
G00 Z-2.000
G01 Z-3.000 F200
G01 X92.425 F500
G01 Y48.287
G00 Z-1.750
G01 Y42.887
G00 Z-2.000
G01 Z-3.000 F200
G01 Y23.480 F500
G00 Z-1.750
G01 Y18.080
G00 Z-2.000
G01 Z-3.000 F200
G01 Y10.450 F500
G01 X41.392
G00 Z-1.750
G01 X35.992
G00 Z-2.000
G01 Z-3.000 F200
G01 X11.825 F500
G01 Y26.250
G03 X11.105 Y26.950 I-0.7005 J-0.0002
G01 X4.000
G03 X3.302 Y26.300 I0.0000 J-0.7000
G01 X3.300 Y26.230
G01 Y20.145
G00 Z-1.750
G01 Y14.745
G00 Z-2.500
G01 Z-3.500 F200
G01 Y8.660 F500
G01 X3.288 Y8.641
G01 X3.117 Y8.616
G01 X3.030 Y8.597
G01 X2.669 Y8.507
G01 X2.584 Y8.480
G01 X2.233 Y8.355
G01 X2.152 Y8.320
G01 X1.815 Y8.160
G01 X1.737 Y8.118
G01 X1.418 Y7.926
G01 X1.345 Y7.876
G01 X1.045 Y7.654
G01 X0.978 Y7.597
G01 X0.701 Y7.347
G01 X0.639 Y7.284
G01 X0.389 Y7.008
G01 X0.334 Y6.938
G01 X0.112 Y6.639
G01 X0.063 Y6.565
G01 X-0.128 Y6.245
G01 X-0.169 Y6.167
G01 X-0.328 Y5.830
G01 X-0.361 Y5.748
G01 X-0.487 Y5.397
G01 X-0.512 Y5.312
G01 X-0.602 Y4.950
G01 X-0.618 Y4.863
G01 X-0.673 Y4.495
G01 X-0.681 Y4.406
G01 X-0.699 Y4.034
G01 X-0.698 Y3.946
G01 X-0.680 Y3.574
G01 X-0.670 Y3.485
G01 X-0.616 Y3.117
G01 X-0.597 Y3.030
G01 X-0.507 Y2.669
G01 X-0.480 Y2.584
G01 X-0.355 Y2.233
G01 X-0.320 Y2.152
G01 X-0.160 Y1.815
G01 X-0.118 Y1.737
G01 X0.074 Y1.418
G01 X0.124 Y1.345
G01 X0.346 Y1.045
G01 X0.403 Y0.978
G01 X0.653 Y0.701
G01 X0.716 Y0.639
G01 X0.992 Y0.389
G01 X1.062 Y0.334
G01 X1.361 Y0.112
G01 X1.435 Y0.063
G01 X1.755 Y-0.128
G01 X1.833 Y-0.169
G01 X2.170 Y-0.328
G01 X2.252 Y-0.361
G01 X2.603 Y-0.487
G01 X2.688 Y-0.512
G01 X3.050 Y-0.602
G01 X3.137 Y-0.618
G01 X3.505 Y-0.673
G01 X3.594 Y-0.681
G01 X3.966 Y-0.699
G01 X4.054 Y-0.698
G01 X4.426 Y-0.680
G01 X4.515 Y-0.670
G01 X4.883 Y-0.616
G01 X4.970 Y-0.597
G01 X5.331 Y-0.507
G01 X5.416 Y-0.480
G01 X5.767 Y-0.355
G01 X5.848 Y-0.320
G01 X6.185 Y-0.160
G01 X6.263 Y-0.118
G01 X6.582 Y0.074
G01 X6.655 Y0.124
G01 X6.955 Y0.346
G01 X7.022 Y0.403
G01 X7.299 Y0.653
G01 X7.361 Y0.716
G01 X7.611 Y0.992
G01 X7.666 Y1.062
G01 X7.888 Y1.361
G01 X7.937 Y1.435
G01 X8.128 Y1.755
G01 X8.169 Y1.833
G01 X8.328 Y2.170
G01 X8.361 Y2.252
G01 X8.487 Y2.603
G01 X8.512 Y2.688
G01 X8.602 Y3.050
G01 X8.618 Y3.137
G01 X8.641 Y3.288
G01 X8.666 Y3.300
G01 X17.363
G00 Z-1.750
G01 X22.763
G00 Z-2.500
G01 Z-3.500 F200
G01 X82.481 F500
G00 Z-1.750
G01 X87.881
G00 Z-2.500
G01 Z-3.500 F200
G01 X102.340 F500
G01 X102.359 Y3.288
G01 X102.384 Y3.117
G01 X102.403 Y3.030
G01 X102.493 Y2.669
G01 X102.520 Y2.584
G01 X102.645 Y2.233
G01 X102.680 Y2.152
G01 X102.840 Y1.815
G01 X102.882 Y1.737
G01 X103.074 Y1.418
G01 X103.124 Y1.345
G01 X103.346 Y1.045
G01 X103.403 Y0.978
G01 X103.653 Y0.701
G01 X103.716 Y0.639
G01 X103.992 Y0.389
G01 X104.062 Y0.334
G01 X104.361 Y0.112
G01 X104.435 Y0.063
G01 X104.755 Y-0.128
G01 X104.833 Y-0.169
G01 X105.170 Y-0.328
G01 X105.252 Y-0.361
G01 X105.603 Y-0.487
G01 X105.688 Y-0.512
G01 X106.050 Y-0.602
G01 X106.137 Y-0.618
G01 X106.505 Y-0.673
G01 X106.594 Y-0.681
G01 X106.966 Y-0.699
G01 X107.054 Y-0.698
G01 X107.426 Y-0.680
G01 X107.515 Y-0.670
G01 X107.883 Y-0.616
G01 X107.970 Y-0.597
G01 X108.331 Y-0.507
G01 X108.416 Y-0.480
G01 X108.767 Y-0.355
G01 X108.848 Y-0.320
G01 X109.185 Y-0.160
G01 X109.263 Y-0.118
G01 X109.582 Y0.074
G01 X109.655 Y0.124
G01 X109.955 Y0.346
G01 X110.022 Y0.403
G01 X110.299 Y0.653
G01 X110.361 Y0.716
G01 X110.611 Y0.992
G01 X110.666 Y1.062
G01 X110.888 Y1.361
G01 X110.937 Y1.435
G01 X111.128 Y1.755
G01 X111.169 Y1.833
G01 X111.328 Y2.170
G01 X111.361 Y2.252
G01 X111.487 Y2.603
G01 X111.512 Y2.688
G01 X111.602 Y3.050
G01 X111.618 Y3.137
G01 X111.673 Y3.505
G01 X111.681 Y3.594
G01 X111.699 Y3.966
G01 X111.698 Y4.054
G01 X111.680 Y4.426
G01 X111.670 Y4.515
G01 X111.616 Y4.883
G01 X111.597 Y4.970
G01 X111.507 Y5.331
G01 X111.480 Y5.416
G01 X111.355 Y5.767
G01 X111.320 Y5.848
G01 X111.160 Y6.185
G01 X111.118 Y6.263
G01 X110.926 Y6.582
G01 X110.876 Y6.655
G01 X110.654 Y6.955
G01 X110.597 Y7.022
G01 X110.347 Y7.299
G01 X110.284 Y7.361
G01 X110.008 Y7.611
G01 X109.938 Y7.666
G01 X109.639 Y7.888
G01 X109.565 Y7.937
G01 X109.245 Y8.128
G01 X109.167 Y8.169
G01 X108.830 Y8.328
G01 X108.748 Y8.361
G01 X108.397 Y8.487
G01 X108.312 Y8.512
G01 X107.950 Y8.602
G01 X107.863 Y8.618
G01 X107.712 Y8.641
G03 X107.254 Y9.402 I-0.7418 J0.0721
G03 X106.980 Y9.450 I-0.2556 J-0.6595
G01 X97.825
G01 Y30.300
G00 Z-1.750
G01 Y35.700
G00 Z-2.500
G01 Z-3.500 F200
G01 Y56.550 F500
G01 X107.000
G03 X107.712 Y57.359 I-0.0153 J0.7316
G01 X107.883 Y57.384
G01 X107.970 Y57.403
G01 X108.331 Y57.493
G01 X108.416 Y57.520
G01 X108.767 Y57.645
G01 X108.848 Y57.680
G01 X109.185 Y57.840
G01 X109.263 Y57.882
G01 X109.582 Y58.074
G01 X109.655 Y58.124
G01 X109.955 Y58.346
G01 X110.022 Y58.403
G01 X110.299 Y58.653
G01 X110.361 Y58.716
G01 X110.611 Y58.992
G01 X110.666 Y59.062
G01 X110.888 Y59.361
G01 X110.937 Y59.435
G01 X111.128 Y59.755
G01 X111.169 Y59.833
G01 X111.328 Y60.170
G01 X111.361 Y60.252
G01 X111.487 Y60.603
G01 X111.512 Y60.688
G01 X111.602 Y61.050
G01 X111.618 Y61.137
G01 X111.673 Y61.505
G01 X111.681 Y61.594
G01 X111.699 Y61.966
G01 X111.698 Y62.054
G01 X111.680 Y62.426
G01 X111.670 Y62.515
G01 X111.616 Y62.883
G01 X111.597 Y62.970
G01 X111.507 Y63.331
G01 X111.480 Y63.416
G01 X111.355 Y63.767
G01 X111.320 Y63.848
G01 X111.160 Y64.185
G01 X111.118 Y64.263
G01 X110.926 Y64.582
G01 X110.876 Y64.655
G01 X110.654 Y64.955
G01 X110.597 Y65.022
G01 X110.347 Y65.299
G01 X110.284 Y65.361
G01 X110.008 Y65.611
G01 X109.938 Y65.666
G01 X109.639 Y65.888
G01 X109.565 Y65.937
G01 X109.245 Y66.128
G01 X109.167 Y66.169
G01 X108.830 Y66.328
G01 X108.748 Y66.361
G01 X108.397 Y66.487
G01 X108.312 Y66.512
G01 X107.950 Y66.602
G01 X107.863 Y66.618
G01 X107.495 Y66.673
G01 X107.406 Y66.681
G01 X107.034 Y66.699
G01 X106.946 Y66.698
G01 X106.574 Y66.680
G01 X106.485 Y66.670
G01 X106.117 Y66.616
G01 X106.030 Y66.597
G01 X105.669 Y66.507
G01 X105.584 Y66.480
G01 X105.233 Y66.355
G01 X105.152 Y66.320
G01 X104.815 Y66.160
G01 X104.737 Y66.118
G01 X104.418 Y65.926
G01 X104.345 Y65.876
G01 X104.045 Y65.654
G01 X103.978 Y65.597
G01 X103.701 Y65.347
G01 X103.639 Y65.284
G01 X103.389 Y65.008
G01 X103.334 Y64.938
G01 X103.112 Y64.639
G01 X103.063 Y64.565
G01 X102.872 Y64.245
G01 X102.831 Y64.167
G01 X102.672 Y63.830
G01 X102.639 Y63.748
G01 X102.513 Y63.397
G01 X102.488 Y63.312
G01 X102.398 Y62.950
G01 X102.382 Y62.863
G01 X102.359 Y62.712
G01 X102.334 Y62.700
G01 X86.663
G00 Z-1.750
G01 X81.263
G00 Z-2.500
G01 Z-3.500 F200
G01 X23.538 F500
G00 Z-1.750
G01 X18.138
G00 Z-2.500
G01 Z-3.500 F200
G01 X8.620 F500
G01 X8.558 Y63.127
G01 X8.545 Y63.195
G01 X8.525 Y63.267
G01 X8.418 Y63.601
G01 X8.388 Y63.680
G01 X8.251 Y64.003
G01 X8.214 Y64.079
G01 X8.047 Y64.388
G01 X8.003 Y64.460
G01 X7.809 Y64.753
G01 X7.758 Y64.820
G01 X7.538 Y65.093
G01 X7.481 Y65.156
G01 X7.236 Y65.408
G01 X7.173 Y65.465
G01 X6.907 Y65.693
G01 X6.839 Y65.744
G01 X6.552 Y65.946
G01 X6.480 Y65.991
G01 X6.176 Y66.165
G01 X6.100 Y66.203
G01 X5.781 Y66.349
G01 X5.702 Y66.380
G01 X5.371 Y66.495
G01 X5.289 Y66.518
G01 X4.949 Y66.603
G01 X4.865 Y66.618
G01 X4.518 Y66.671
G01 X4.434 Y66.679
G01 X4.084 Y66.699
G01 X3.999
G01 X3.648 Y66.686
G01 X3.564 Y66.678
G01 X3.216 Y66.633
G01 X3.133 Y66.618
G01 X2.790 Y66.541
G01 X2.709 Y66.518
G01 X2.375 Y66.409
G01 X2.296 Y66.379
G01 X1.974 Y66.240
G01 X1.898 Y66.202
G01 X1.590 Y66.034
G01 X1.518 Y65.989
G01 X1.227 Y65.794
G01 X1.159 Y65.743
G01 X0.887 Y65.521
G01 X0.825 Y65.463
G01 X0.575 Y65.217
G01 X0.518 Y65.155
G01 X0.292 Y64.886
G01 X0.241 Y64.819
G01 X0.040 Y64.531
G01 X-0.004 Y64.458
G01 X-0.177 Y64.153
G01 X-0.215 Y64.077
G01 X-0.358 Y63.757
G01 X-0.389 Y63.678
G01 X-0.502 Y63.346
G01 X-0.525 Y63.264
G01 X-0.608 Y62.923
G01 X-0.623 Y62.840
G01 X-0.673 Y62.493
G01 X-0.681 Y62.408
G01 X-0.699 Y62.058
G01 Y61.973
G01 X-0.684 Y61.623
G01 X-0.676 Y61.538
G01 X-0.629 Y61.191
G01 X-0.613 Y61.107
G01 X-0.534 Y60.766
G01 X-0.511 Y60.684
G01 X-0.401 Y60.351
G01 X-0.369 Y60.272
G01 X-0.229 Y59.951
G01 X-0.191 Y59.875
G01 X-0.021 Y59.568
G01 X0.024 Y59.496
G01 X0.221 Y59.206
G01 X0.273 Y59.139
G01 X0.496 Y58.868
G01 X0.554 Y58.806
G01 X0.801 Y58.557
G01 X0.865 Y58.501
G01 X1.134 Y58.276
G01 X1.202 Y58.225
G01 X1.491 Y58.027
G01 X1.563 Y57.982
G01 X1.870 Y57.811
G01 X1.946 Y57.774
G01 X2.267 Y57.632
G01 X2.346 Y57.602
G01 X2.678 Y57.490
G01 X2.760 Y57.468
G01 X3.102 Y57.387
G01 X3.185 Y57.373
G01 X3.295 Y57.357
G01 X3.300 Y57.332
G01 Y51.241
G00 Z-1.750
G01 Y45.841
G00 Z-2.500
G01 Z-3.500 F200
G01 Y39.750 F500
G01 X3.303 Y39.680
G03 X4.020 Y39.050 I0.6970 J0.0702
G01 X11.125
G03 X11.825 Y39.770 I-0.0002 J0.7005
G01 Y55.550
G01 X35.992
G00 Z-1.750
G01 X41.392
G00 Z-2.500
G01 Z-3.500 F200
G01 X92.425 F500
G01 Y48.287
G00 Z-1.750
G01 Y42.887
G00 Z-2.500
G01 Z-3.500 F200
G01 Y23.480 F500
G00 Z-1.750
G01 Y18.080
G00 Z-2.500
G01 Z-3.500 F200
G01 Y10.450 F500
G01 X41.392
G00 Z-1.750
G01 X35.992
G00 Z-2.500
G01 Z-3.500 F200
G01 X11.825 F500
G01 Y26.250
G03 X11.105 Y26.950 I-0.7005 J-0.0002
G01 X4.000
G03 X3.302 Y26.300 I0.0000 J-0.7000
G01 X3.300 Y26.230
G01 Y20.145
G00 Z-1.750
G01 Y14.745
G00 Z-3.000
G01 Z-3.750 F200
G01 Y8.660 F500
G01 X3.288 Y8.641
G01 X3.117 Y8.616
G01 X3.030 Y8.597
G01 X2.669 Y8.507
G01 X2.584 Y8.480
G01 X2.233 Y8.355
G01 X2.152 Y8.320
G01 X1.815 Y8.160
G01 X1.737 Y8.118
G01 X1.418 Y7.926
G01 X1.345 Y7.876
G01 X1.045 Y7.654
G01 X0.978 Y7.597
G01 X0.701 Y7.347
G01 X0.639 Y7.284
G01 X0.389 Y7.008
G01 X0.334 Y6.938
G01 X0.112 Y6.639
G01 X0.063 Y6.565
G01 X-0.128 Y6.245
G01 X-0.169 Y6.167
G01 X-0.328 Y5.830
G01 X-0.361 Y5.748
G01 X-0.487 Y5.397
G01 X-0.512 Y5.312
G01 X-0.602 Y4.950
G01 X-0.618 Y4.863
G01 X-0.673 Y4.495
G01 X-0.681 Y4.406
G01 X-0.699 Y4.034
G01 X-0.698 Y3.946
G01 X-0.680 Y3.574
G01 X-0.670 Y3.485
G01 X-0.616 Y3.117
G01 X-0.597 Y3.030
G01 X-0.507 Y2.669
G01 X-0.480 Y2.584
G01 X-0.355 Y2.233
G01 X-0.320 Y2.152
G01 X-0.160 Y1.815
G01 X-0.118 Y1.737
G01 X0.074 Y1.418
G01 X0.124 Y1.345
G01 X0.346 Y1.045
G01 X0.403 Y0.978
G01 X0.653 Y0.701
G01 X0.716 Y0.639
G01 X0.992 Y0.389
G01 X1.062 Y0.334
G01 X1.361 Y0.112
G01 X1.435 Y0.063
G01 X1.755 Y-0.128
G01 X1.833 Y-0.169
G01 X2.170 Y-0.328
G01 X2.252 Y-0.361
G01 X2.603 Y-0.487
G01 X2.688 Y-0.512
G01 X3.050 Y-0.602
G01 X3.137 Y-0.618
G01 X3.505 Y-0.673
G01 X3.594 Y-0.681
G01 X3.966 Y-0.699
G01 X4.054 Y-0.698
G01 X4.426 Y-0.680
G01 X4.515 Y-0.670
G01 X4.883 Y-0.616
G01 X4.970 Y-0.597
G01 X5.331 Y-0.507
G01 X5.416 Y-0.480
G01 X5.767 Y-0.355
G01 X5.848 Y-0.320
G01 X6.185 Y-0.160
G01 X6.263 Y-0.118
G01 X6.582 Y0.074
G01 X6.655 Y0.124
G01 X6.955 Y0.346
G01 X7.022 Y0.403
G01 X7.299 Y0.653
G01 X7.361 Y0.716
G01 X7.611 Y0.992
G01 X7.666 Y1.062
G01 X7.888 Y1.361
G01 X7.937 Y1.435
G01 X8.128 Y1.755
G01 X8.169 Y1.833
G01 X8.328 Y2.170
G01 X8.361 Y2.252
G01 X8.487 Y2.603
G01 X8.512 Y2.688
G01 X8.602 Y3.050
G01 X8.618 Y3.137
G01 X8.641 Y3.288
G01 X8.666 Y3.300
G01 X17.363
G00 Z-1.750
G01 X22.763
G00 Z-3.000
G01 Z-3.750 F200
G01 X82.481 F500
G00 Z-1.750
G01 X87.881
G00 Z-3.000
G01 Z-3.750 F200
G01 X102.340 F500
G01 X102.359 Y3.288
G01 X102.384 Y3.117
G01 X102.403 Y3.030
G01 X102.493 Y2.669
G01 X102.520 Y2.584
G01 X102.645 Y2.233
G01 X102.680 Y2.152
G01 X102.840 Y1.815
G01 X102.882 Y1.737
G01 X103.074 Y1.418
G01 X103.124 Y1.345
G01 X103.346 Y1.045
G01 X103.403 Y0.978
G01 X103.653 Y0.701
G01 X103.716 Y0.639
G01 X103.992 Y0.389
G01 X104.062 Y0.334
G01 X104.361 Y0.112
G01 X104.435 Y0.063
G01 X104.755 Y-0.128
G01 X104.833 Y-0.169
G01 X105.170 Y-0.328
G01 X105.252 Y-0.361
G01 X105.603 Y-0.487
G01 X105.688 Y-0.512
G01 X106.050 Y-0.602
G01 X106.137 Y-0.618
G01 X106.505 Y-0.673
G01 X106.594 Y-0.681
G01 X106.966 Y-0.699
G01 X107.054 Y-0.698
G01 X107.426 Y-0.680
G01 X107.515 Y-0.670
G01 X107.883 Y-0.616
G01 X107.970 Y-0.597
G01 X108.331 Y-0.507
G01 X108.416 Y-0.480
G01 X108.767 Y-0.355
G01 X108.848 Y-0.320
G01 X109.185 Y-0.160
G01 X109.263 Y-0.118
G01 X109.582 Y0.074
G01 X109.655 Y0.124
G01 X109.955 Y0.346
G01 X110.022 Y0.403
G01 X110.299 Y0.653
G01 X110.361 Y0.716
G01 X110.611 Y0.992
G01 X110.666 Y1.062
G01 X110.888 Y1.361
G01 X110.937 Y1.435
G01 X111.128 Y1.755
G01 X111.169 Y1.833
G01 X111.328 Y2.170
G01 X111.361 Y2.252
G01 X111.487 Y2.603
G01 X111.512 Y2.688
G01 X111.602 Y3.050
G01 X111.618 Y3.137
G01 X111.673 Y3.505
G01 X111.681 Y3.594
G01 X111.699 Y3.966
G01 X111.698 Y4.054
G01 X111.680 Y4.426
G01 X111.670 Y4.515
G01 X111.616 Y4.883
G01 X111.597 Y4.970
G01 X111.507 Y5.331
G01 X111.480 Y5.416
G01 X111.355 Y5.767
G01 X111.320 Y5.848
G01 X111.160 Y6.185
G01 X111.118 Y6.263
G01 X110.926 Y6.582
G01 X110.876 Y6.655
G01 X110.654 Y6.955
G01 X110.597 Y7.022
G01 X110.347 Y7.299
G01 X110.284 Y7.361
G01 X110.008 Y7.611
G01 X109.938 Y7.666
G01 X109.639 Y7.888
G01 X109.565 Y7.937
G01 X109.245 Y8.128
G01 X109.167 Y8.169
G01 X108.830 Y8.328
G01 X108.748 Y8.361
G01 X108.397 Y8.487
G01 X108.312 Y8.512
G01 X107.950 Y8.602
G01 X107.863 Y8.618
G01 X107.712 Y8.641
G03 X107.254 Y9.402 I-0.7418 J0.0721
G03 X106.980 Y9.450 I-0.2556 J-0.6595
G01 X97.825
G01 Y30.300
G00 Z-1.750
G01 Y35.700
G00 Z-3.000
G01 Z-3.750 F200
G01 Y56.550 F500
G01 X107.000
G03 X107.712 Y57.359 I-0.0153 J0.7316
G01 X107.883 Y57.384
G01 X107.970 Y57.403
G01 X108.331 Y57.493
G01 X108.416 Y57.520
G01 X108.767 Y57.645
G01 X108.848 Y57.680
G01 X109.185 Y57.840
G01 X109.263 Y57.882
G01 X109.582 Y58.074
G01 X109.655 Y58.124
G01 X109.955 Y58.346
G01 X110.022 Y58.403
G01 X110.299 Y58.653
G01 X110.361 Y58.716
G01 X110.611 Y58.992
G01 X110.666 Y59.062
G01 X110.888 Y59.361
G01 X110.937 Y59.435
G01 X111.128 Y59.755
G01 X111.169 Y59.833
G01 X111.328 Y60.170
G01 X111.361 Y60.252
G01 X111.487 Y60.603
G01 X111.512 Y60.688
G01 X111.602 Y61.050
G01 X111.618 Y61.137
G01 X111.673 Y61.505
G01 X111.681 Y61.594
G01 X111.699 Y61.966
G01 X111.698 Y62.054
G01 X111.680 Y62.426
G01 X111.670 Y62.515
G01 X111.616 Y62.883
G01 X111.597 Y62.970
G01 X111.507 Y63.331
G01 X111.480 Y63.416
G01 X111.355 Y63.767
G01 X111.320 Y63.848
G01 X111.160 Y64.185
G01 X111.118 Y64.263
G01 X110.926 Y64.582
G01 X110.876 Y64.655
G01 X110.654 Y64.955
G01 X110.597 Y65.022
G01 X110.347 Y65.299
G01 X110.284 Y65.361
G01 X110.008 Y65.611
G01 X109.938 Y65.666
G01 X109.639 Y65.888
G01 X109.565 Y65.937
G01 X109.245 Y66.128
G01 X109.167 Y66.169
G01 X108.830 Y66.328
G01 X108.748 Y66.361
G01 X108.397 Y66.487
G01 X108.312 Y66.512
G01 X107.950 Y66.602
G01 X107.863 Y66.618
G01 X107.495 Y66.673
G01 X107.406 Y66.681
G01 X107.034 Y66.699
G01 X106.946 Y66.698
G01 X106.574 Y66.680
G01 X106.485 Y66.670
G01 X106.117 Y66.616
G01 X106.030 Y66.597
G01 X105.669 Y66.507
G01 X105.584 Y66.480
G01 X105.233 Y66.355
G01 X105.152 Y66.320
G01 X104.815 Y66.160
G01 X104.737 Y66.118
G01 X104.418 Y65.926
G01 X104.345 Y65.876
G01 X104.045 Y65.654
G01 X103.978 Y65.597
G01 X103.701 Y65.347
G01 X103.639 Y65.284
G01 X103.389 Y65.008
G01 X103.334 Y64.938
G01 X103.112 Y64.639
G01 X103.063 Y64.565
G01 X102.872 Y64.245
G01 X102.831 Y64.167
G01 X102.672 Y63.830
G01 X102.639 Y63.748
G01 X102.513 Y63.397
G01 X102.488 Y63.312
G01 X102.398 Y62.950
G01 X102.382 Y62.863
G01 X102.359 Y62.712
G01 X102.334 Y62.700
G01 X86.663
G00 Z-1.750
G01 X81.263
G00 Z-3.000
G01 Z-3.750 F200
G01 X23.538 F500
G00 Z-1.750
G01 X18.138
G00 Z-3.000
G01 Z-3.750 F200
G01 X8.620 F500
G01 X8.558 Y63.127
G01 X8.545 Y63.195
G01 X8.525 Y63.267
G01 X8.418 Y63.601
G01 X8.388 Y63.680
G01 X8.251 Y64.003
G01 X8.214 Y64.079
G01 X8.047 Y64.388
G01 X8.003 Y64.460
G01 X7.809 Y64.753
G01 X7.758 Y64.820
G01 X7.538 Y65.093
G01 X7.481 Y65.156
G01 X7.236 Y65.408
G01 X7.173 Y65.465
G01 X6.907 Y65.693
G01 X6.839 Y65.744
G01 X6.552 Y65.946
G01 X6.480 Y65.991
G01 X6.176 Y66.165
G01 X6.100 Y66.203
G01 X5.781 Y66.349
G01 X5.702 Y66.380
G01 X5.371 Y66.495
G01 X5.289 Y66.518
G01 X4.949 Y66.603
G01 X4.865 Y66.618
G01 X4.518 Y66.671
G01 X4.434 Y66.679
G01 X4.084 Y66.699
G01 X3.999
G01 X3.648 Y66.686
G01 X3.564 Y66.678
G01 X3.216 Y66.633
G01 X3.133 Y66.618
G01 X2.790 Y66.541
G01 X2.709 Y66.518
G01 X2.375 Y66.409
G01 X2.296 Y66.379
G01 X1.974 Y66.240
G01 X1.898 Y66.202
G01 X1.590 Y66.034
G01 X1.518 Y65.989
G01 X1.227 Y65.794
G01 X1.159 Y65.743
G01 X0.887 Y65.521
G01 X0.825 Y65.463
G01 X0.575 Y65.217
G01 X0.518 Y65.155
G01 X0.292 Y64.886
G01 X0.241 Y64.819
G01 X0.040 Y64.531
G01 X-0.004 Y64.458
G01 X-0.177 Y64.153
G01 X-0.215 Y64.077
G01 X-0.358 Y63.757
G01 X-0.389 Y63.678
G01 X-0.502 Y63.346
G01 X-0.525 Y63.264
G01 X-0.608 Y62.923
G01 X-0.623 Y62.840
G01 X-0.673 Y62.493
G01 X-0.681 Y62.408
G01 X-0.699 Y62.058
G01 Y61.973
G01 X-0.684 Y61.623
G01 X-0.676 Y61.538
G01 X-0.629 Y61.191
G01 X-0.613 Y61.107
G01 X-0.534 Y60.766
G01 X-0.511 Y60.684
G01 X-0.401 Y60.351
G01 X-0.369 Y60.272
G01 X-0.229 Y59.951
G01 X-0.191 Y59.875
G01 X-0.021 Y59.568
G01 X0.024 Y59.496
G01 X0.221 Y59.206
G01 X0.273 Y59.139
G01 X0.496 Y58.868
G01 X0.554 Y58.806
G01 X0.801 Y58.557
G01 X0.865 Y58.501
G01 X1.134 Y58.276
G01 X1.202 Y58.225
G01 X1.491 Y58.027
G01 X1.563 Y57.982
G01 X1.870 Y57.811
G01 X1.946 Y57.774
G01 X2.267 Y57.632
G01 X2.346 Y57.602
G01 X2.678 Y57.490
G01 X2.760 Y57.468
G01 X3.102 Y57.387
G01 X3.185 Y57.373
G01 X3.295 Y57.357
G01 X3.300 Y57.332
G01 Y51.241
G00 Z-1.750
G01 Y45.841
G00 Z-3.000
G01 Z-3.750 F200
G01 Y39.750 F500
G01 X3.303 Y39.680
G03 X4.020 Y39.050 I0.6970 J0.0702
G01 X11.125
G03 X11.825 Y39.770 I-0.0002 J0.7005
G01 Y55.550
G01 X35.992
G00 Z-1.750
G01 X41.392
G00 Z-3.000
G01 Z-3.750 F200
G01 X92.425 F500
G01 Y48.287
G00 Z-1.750
G01 Y42.887
G00 Z-3.000
G01 Z-3.750 F200
G01 Y23.480 F500
G00 Z-1.750
G01 Y18.080
G00 Z-3.000
G01 Z-3.750 F200
G01 Y10.450 F500
G01 X41.392
G00 Z-1.750
G01 X35.992
G00 Z-3.000
G01 Z-3.750 F200
G01 X11.825 F500
G01 Y26.250
G03 X11.105 Y26.950 I-0.7005 J-0.0002
G01 X4.000
G03 X3.302 Y26.300 I0.0000 J-0.7000
G01 X3.300 Y26.230
G01 Y20.145
G00 Z-1.750
G01 Y14.745
G00 Z20.000


(No. 6 Parallel pocket: Hole 5)
G00 X99.823 Y15.459 Z20.000
G00 Z0.500
G01 Z-0.500 F200
G01 Y50.537 F500
G01 X100.293
G01 Y15.459
G01 X99.823
G01 X99.251
G01 Y51.108
G01 X100.864
G01 Y14.888
G01 X99.251
G01 Y15.459
