(Project Case2-Inset-v2)
(Created by Estlcam version 11 build 11.109)
(Machining time about 00:28:54 hours)

(Required tools:)
(End 1.500mm)
G21
G90
G94
M03 S24000.0
G00 Z20.000


(No. 1 Hole: Hole 5)
G00 X92.425 Y30.300
G00 Z0.500
G01 Z-0.500 F200 S24000.0
G01 Y10.450 F500
G01 X54.820
G01 X49.420
G01 X11.825
G01 Y30.295
G01 Y35.695
G01 Y55.550
G01 X49.430
G01 X54.830
G01 X92.425
G01 Y35.700
G01 Y30.300
G01 Z-1.000 F200
G01 Y10.450 F500
G01 X54.820
G01 X49.420
G01 X11.825
G01 Y30.295
G01 Y35.695
G01 Y55.550
G01 X49.430
G01 X54.830
G01 X92.425
G01 Y35.700
G01 Y30.300
G01 Z-1.500 F200
G01 Y10.450 F500
G01 X54.820
G01 X49.420
G01 X11.825
G01 Y30.295
G01 Y35.695
G01 Y55.550
G01 X49.430
G01 X54.830
G01 X92.425
G01 Y35.700
G01 Y30.300
G01 Z-2.000 F200
G01 Y10.450 F500
G01 X54.820
G00 Z-1.750
G01 X49.420
G01 Z-2.000 F200
G01 X11.825 F500
G01 Y30.295
G00 Z-1.750
G01 Y35.695
G01 Z-2.000 F200
G01 Y55.550 F500
G01 X49.430
G00 Z-1.750
G01 X54.830
G01 Z-2.000 F200
G01 X92.425 F500
G01 Y35.700
G00 Z-1.750
G01 Y30.300
G01 Z-2.500 F200
G01 Y10.450 F500
G01 X54.820
G00 Z-1.750
G01 X49.420
G01 Z-2.500 F200
G01 X11.825 F500
G01 Y30.295
G00 Z-1.750
G01 Y35.695
G01 Z-2.500 F200
G01 Y55.550 F500
G01 X49.430
G00 Z-1.750
G01 X54.830
G01 Z-2.500 F200
G01 X92.425 F500
G01 Y35.700
G00 Z-1.750
G01 Y30.300
G00 Z-2.000
G01 Z-3.000 F200
G01 Y10.450 F500
G01 X54.820
G00 Z-1.750
G01 X49.420
G00 Z-2.000
G01 Z-3.000 F200
G01 X11.825 F500
G01 Y30.295
G00 Z-1.750
G01 Y35.695
G00 Z-2.000
G01 Z-3.000 F200
G01 Y55.550 F500
G01 X49.430
G00 Z-1.750
G01 X54.830
G00 Z-2.000
G01 Z-3.000 F200
G01 X92.425 F500
G01 Y35.700
G00 Z-1.750
G01 Y30.300
G00 Z-2.500
G01 Z-3.500 F200
G01 Y10.450 F500
G01 X54.820
G00 Z-1.750
G01 X49.420
G00 Z-2.500
G01 Z-3.500 F200
G01 X11.825 F500
G01 Y30.295
G00 Z-1.750
G01 Y35.695
G00 Z-2.500
G01 Z-3.500 F200
G01 Y55.550 F500
G01 X49.430
G00 Z-1.750
G01 X54.830
G00 Z-2.500
G01 Z-3.500 F200
G01 X92.425 F500
G01 Y35.700
G00 Z-1.750
G01 Y30.300
G00 Z-3.000
G01 Z-3.750 F200
G01 Y10.450 F500
G01 X54.820
G00 Z-1.750
G01 X49.420
G00 Z-3.000
G01 Z-3.750 F200
G01 X11.825 F500
G01 Y30.295
G00 Z-1.750
G01 Y35.695
G00 Z-3.000
G01 Z-3.750 F200
G01 Y55.550 F500
G01 X49.430
G00 Z-1.750
G01 X54.830
G00 Z-3.000
G01 Z-3.750 F200
G01 X92.425 F500
G01 Y35.700
G00 Z-1.750
G01 Y30.300
G00 Z20.000


(No. 2 Hole: Hole 6)
G00 X100.175 Y15.580 Z20.000
G00 Z0.500
G01 Z-0.500 F200
G01 Y10.450 F500
G01 X97.825
G01 Y30.300
G01 Y35.700
G01 Y55.550
G01 X100.175
G01 Y49.330
G01 Y43.930
G01 Y20.980
G01 Y15.580
G01 Z-1.000 F200
G01 Y10.450 F500
G01 X97.825
G01 Y30.300
G01 Y35.700
G01 Y55.550
G01 X100.175
G01 Y49.330
G01 Y43.930
G01 Y20.980
G01 Y15.580
G01 Z-1.500 F200
G01 Y10.450 F500
G01 X97.825
G01 Y30.300
G01 Y35.700
G01 Y55.550
G01 X100.175
G01 Y49.330
G01 Y43.930
G01 Y20.980
G01 Y15.580
G01 Z-2.000 F200
G01 Y10.450 F500
G01 X97.825
G01 Y30.300
G00 Z-1.750
G01 Y35.700
G01 Z-2.000 F200
G01 Y55.550 F500
G01 X100.175
G01 Y49.330
G00 Z-1.750
G01 Y43.930
G01 Z-2.000 F200
G01 Y20.980 F500
G00 Z-1.750
G01 Y15.580
G01 Z-2.500 F200
G01 Y10.450 F500
G01 X97.825
G01 Y30.300
G00 Z-1.750
G01 Y35.700
G01 Z-2.500 F200
G01 Y55.550 F500
G01 X100.175
G01 Y49.330
G00 Z-1.750
G01 Y43.930
G01 Z-2.500 F200
G01 Y20.980 F500
G00 Z-1.750
G01 Y15.580
G00 Z-2.000
G01 Z-3.000 F200
G01 Y10.450 F500
G01 X97.825
G01 Y30.300
G00 Z-1.750
G01 Y35.700
G00 Z-2.000
G01 Z-3.000 F200
G01 Y55.550 F500
G01 X100.175
G01 Y49.330
G00 Z-1.750
G01 Y43.930
G00 Z-2.000
G01 Z-3.000 F200
G01 Y20.980 F500
G00 Z-1.750
G01 Y15.580
G00 Z-2.500
G01 Z-3.500 F200
G01 Y10.450 F500
G01 X97.825
G01 Y30.300
G00 Z-1.750
G01 Y35.700
G00 Z-2.500
G01 Z-3.500 F200
G01 Y55.550 F500
G01 X100.175
G01 Y49.330
G00 Z-1.750
G01 Y43.930
G00 Z-2.500
G01 Z-3.500 F200
G01 Y20.980 F500
G00 Z-1.750
G01 Y15.580
G00 Z-3.000
G01 Z-3.750 F200
G01 Y10.450 F500
G01 X97.825
G01 Y30.300
G00 Z-1.750
G01 Y35.700
G00 Z-3.000
G01 Z-3.750 F200
G01 Y55.550 F500
G01 X100.175
G01 Y49.330
G00 Z-1.750
G01 Y43.930
G00 Z-3.000
G01 Z-3.750 F200
G01 Y20.980 F500
G00 Z-1.750
G01 Y15.580
G00 Z20.000


(No. 3 Parallel pocket: Hole 9)
G00 X95.173 Y15.580 Z20.000
G00 Z0.500
G01 Z-0.500 F200
G01 Y11.700 F500
G01 X95.075
G01 Y54.281
G01 X95.173
G01 Y15.580
G01 X95.673
G01 Y11.200
G01 X94.575
G01 Y54.781
G01 X95.673
G01 Y15.580
G01 X96.173
G01 Y10.701
G01 X94.076
G01 Y55.281
G01 X96.173
G01 Y15.580
G00 Z20.000
G00 Z0.000
G01 Z-0.500 F200
G01 X96.425 F500
G01 Y10.450
G01 X96.630 Y10.245
G01 X96.425 Y10.450
G01 X93.825
G01 X93.620 Y10.245
G01 X93.825 Y10.450
G01 Y55.550
G01 X93.620 Y55.755
G01 X93.825 Y55.550
G01 X96.425
G01 X96.630 Y55.755
G01 X96.425 Y55.550
G01 Y15.580
G00 Z20.000
G00 X95.173
G00 Z0.000
G01 Z-1.000 F200
G01 Y11.700 F500
G01 X95.075
G01 Y54.281
G01 X95.173
G01 Y15.580
G01 X95.673
G01 Y11.200
G01 X94.575
G01 Y54.781
G01 X95.673
G01 Y15.580
G01 X96.173
G01 Y10.701
G01 X94.076
G01 Y55.281
G01 X96.173
G01 Y15.580
G00 Z20.000
G00 Z-0.500
G01 Z-1.000 F200
G01 X96.425 F500
G01 Y10.450
G01 X96.630 Y10.245
G01 X96.425 Y10.450
G01 X93.825
G01 X93.620 Y10.245
G01 X93.825 Y10.450
G01 Y55.550
G01 X93.620 Y55.755
G01 X93.825 Y55.550
G01 X96.425
G01 X96.630 Y55.755
G01 X96.425 Y55.550
G01 Y15.580
G00 Z20.000


(No. 4 Parallel pocket: Hole 10)
G00 X104.825 Y15.580 Z20.000
G00 Z0.500
G01 Z-0.500 F200
G01 Y55.790 F500
G01 X105.541
G01 Y10.200
G01 X104.825
G01 Y15.580
G01 X104.326
G01 Y56.290
G01 X106.041
G01 Y9.701
G01 X104.326
G01 Y15.580
G00 Z20.000
G00 Z0.000
G01 Z-0.500 F200
G01 X104.075 F500
G01 Y56.550
G01 X103.870 Y56.755
G01 X104.075 Y56.550
G01 X106.300
G01 X106.505 Y56.755
G01 X106.300 Y56.550
G01 Y9.450
G01 X106.505 Y9.245
G01 X106.300 Y9.450
G01 X104.075
G01 X103.870 Y9.245
G01 X104.075 Y9.450
G01 Y15.580
G00 Z20.000
G00 X104.825
G00 Z0.000
G01 Z-1.000 F200
G01 Y55.790 F500
G01 X105.541
G01 Y10.200
G01 X104.825
G01 Y15.580
G01 X104.326
G01 Y56.290
G01 X106.041
G01 Y9.701
G01 X104.326
G01 Y15.580
G00 Z20.000
G00 Z-0.500
G01 Z-1.000 F200
G01 X104.075 F500
G01 Y56.550
G01 X103.870 Y56.755
G01 X104.075 Y56.550
G01 X106.300
G01 X106.505 Y56.755
G01 X106.300 Y56.550
G01 Y9.450
G01 X106.505 Y9.245
G01 X106.300 Y9.450
G01 X104.075
G01 X103.870 Y9.245
G01 X104.075 Y9.450
G01 Y15.580
G00 Z20.000


(No. 5 Hole: Hole 7)
G00 X101.175 Y9.450 Z20.000
G00 Z0.500
G01 Z-0.500 F200
G01 X9.825 F500
G01 X9.620 Y9.245
G01 X9.825 Y9.450
G01 Y56.550
G01 X9.620 Y56.755
G01 X9.825 Y56.550
G01 X101.175
G01 X101.380 Y56.755
G01 X101.175 Y56.550
G01 Y9.450
G01 X101.380 Y9.245
G01 X101.175 Y9.450
G01 Z-1.000 F200
G01 X9.825 F500
G01 X9.620 Y9.245
G01 X9.825 Y9.450
G01 Y56.550
G01 X9.620 Y56.755
G01 X9.825 Y56.550
G01 X101.175
G01 X101.380 Y56.755
G01 X101.175 Y56.550
G01 Y9.450
G01 X101.380 Y9.245
G01 X101.175 Y9.450
G00 Z20.000


(No. 6 Parallel pocket: Hole 8)
G00 X10.164 Y10.338 Z20.000
G00 Z0.500
G01 Z-0.500 F200
G01 X10.076 Y10.298 F500
G01 X10.085 Y55.682
G01 X10.115
G01 X10.174 Y55.653
G01 X10.164 Y10.338
G00 Z20.000
G00 Z0.000
G01 Z-0.500 F200
G01 X10.275 Y10.109 F500
G01 X9.825 Y9.890
G01 X9.832 Y56.114
G01 X10.418 Y55.821
G01 X10.425 Y55.810
G01 X10.418 Y10.179
G01 X10.275 Y10.109
G00 Z20.000
G00 X10.164 Y10.338
G00 Z0.000
G01 Z-1.000 F200
G01 X10.076 Y10.298 F500
G01 X10.085 Y55.682
G01 X10.115
G01 X10.174 Y55.653
G01 X10.164 Y10.338
G00 Z20.000
G00 Z-0.500
G01 Z-1.000 F200
G01 X10.275 Y10.109 F500
G01 X9.825 Y9.890
G01 X9.832 Y56.114
G01 X10.418 Y55.821
G01 X10.425 Y55.810
G01 X10.418 Y10.179
G01 X10.275 Y10.109
G00 Z20.000


(No. 7 Helical drill: Helical drill 1)
G00 X4.630 Y62.000 Z20.000
G00 Z0.500
G02 X3.685 Y61.454 Z0.333 I-0.6300 J0.0000 F200
G02 Y62.546 Z0.167 I0.3150 J0.5456
G02 X4.630 Y62.000 Z0.000 I0.3150 J-0.5456
G02 X3.685 Y61.454 I-0.6300 J0.0000
G02 Y62.546 I0.3150 J0.5456
G02 X4.630 Y62.000 I0.3150 J-0.5456
G02 X3.685 Y61.454 Z-0.167 I-0.6300 J0.0000
G02 Y62.546 Z-0.333 I0.3150 J0.5456
G02 X4.630 Y62.000 Z-0.500 I0.3150 J-0.5456
G02 X3.685 Y61.454 I-0.6300 J0.0000
G02 Y62.546 I0.3150 J0.5456
G02 X4.630 Y62.000 I0.3150 J-0.5456
G02 X4.610 Y61.747 I-0.6361 J-0.0777 F500
G02 X4.489 Y61.511 I-0.6461 J0.1835
G02 X4.276 Y61.333 I-0.5486 J0.4387
G02 X4.000 Y61.248 I-0.3508 J0.6438
G02 X3.700 Y61.276 I-0.0777 J0.7600
G02 X3.425 Y61.425 I0.2309 J0.7605
G02 X3.220 Y61.677 I0.5262 J0.6361
G02 X3.125 Y62.000 I0.7581 J0.3981
G02 X3.163 Y62.347 I0.8836 J0.0777
G02 X3.338 Y62.662 I0.8746 J-0.2781
G02 X3.630 Y62.893 I0.7233 J-0.6134
G02 X4.000 Y62.998 I0.4453 J-0.8720
G02 X4.393 Y62.950 I0.0777 J-1.0069
G02 X4.742 Y62.742 I-0.3453 J-0.9784
G02 X4.970 Y62.402 I-0.7425 J-0.7425
G02 X5.050 Y62.000 I-0.9701 J-0.4018
G02 X3.475 Y61.091 I-1.0500 J0.0000
G02 Y62.909 I0.5250 J0.9093
G02 X5.050 Y62.000 I0.5250 J-0.9093
G02 X3.370 I-0.8400 J0.0000
G02 X4.630 I0.6300 J0.0000
G02 X3.685 Y61.454 Z-0.667 I-0.6300 J0.0000 F200
G02 Y62.546 Z-0.833 I0.3150 J0.5456
G02 X4.630 Y62.000 Z-1.000 I0.3150 J-0.5456
G02 X3.685 Y61.454 I-0.6300 J0.0000
G02 Y62.546 I0.3150 J0.5456
G02 X4.630 Y62.000 I0.3150 J-0.5456
G02 X4.610 Y61.747 I-0.6361 J-0.0777 F500
G02 X4.489 Y61.511 I-0.6461 J0.1835
G02 X4.276 Y61.333 I-0.5486 J0.4387
G02 X4.000 Y61.248 I-0.3508 J0.6438
G02 X3.700 Y61.276 I-0.0777 J0.7600
G02 X3.425 Y61.425 I0.2309 J0.7605
G02 X3.220 Y61.677 I0.5262 J0.6361
G02 X3.125 Y62.000 I0.7581 J0.3981
G02 X3.163 Y62.347 I0.8836 J0.0777
G02 X3.338 Y62.662 I0.8746 J-0.2781
G02 X3.630 Y62.893 I0.7233 J-0.6134
G02 X4.000 Y62.998 I0.4453 J-0.8720
G02 X4.393 Y62.950 I0.0777 J-1.0069
G02 X4.742 Y62.742 I-0.3453 J-0.9784
G02 X4.970 Y62.402 I-0.7425 J-0.7425
G02 X5.050 Y62.000 I-0.9701 J-0.4018
G02 X3.475 Y61.091 I-1.0500 J0.0000
G02 Y62.909 I0.5250 J0.9093
G02 X5.050 Y62.000 I0.5250 J-0.9093
G02 X3.370 I-0.8400 J0.0000
G02 X4.630 I0.6300 J0.0000
G02 X3.685 Y61.454 Z-1.167 I-0.6300 J0.0000 F200
G02 Y62.546 Z-1.333 I0.3150 J0.5456
G02 X4.630 Y62.000 Z-1.500 I0.3150 J-0.5456
G02 X3.685 Y61.454 I-0.6300 J0.0000
G02 Y62.546 I0.3150 J0.5456
G02 X4.630 Y62.000 I0.3150 J-0.5456
G02 X4.610 Y61.747 I-0.6361 J-0.0777 F500
G02 X4.489 Y61.511 I-0.6461 J0.1835
G02 X4.276 Y61.333 I-0.5486 J0.4387
G02 X4.000 Y61.248 I-0.3508 J0.6438
G02 X3.700 Y61.276 I-0.0777 J0.7600
G02 X3.425 Y61.425 I0.2309 J0.7605
G02 X3.220 Y61.677 I0.5262 J0.6361
G02 X3.125 Y62.000 I0.7581 J0.3981
G02 X3.163 Y62.347 I0.8836 J0.0777
G02 X3.338 Y62.662 I0.8746 J-0.2781
G02 X3.630 Y62.893 I0.7233 J-0.6134
G02 X4.000 Y62.998 I0.4453 J-0.8720
G02 X4.393 Y62.950 I0.0777 J-1.0069
G02 X4.742 Y62.742 I-0.3453 J-0.9784
G02 X4.970 Y62.402 I-0.7425 J-0.7425
G02 X5.050 Y62.000 I-0.9701 J-0.4018
G02 X3.475 Y61.091 I-1.0500 J0.0000
G02 Y62.909 I0.5250 J0.9093
G02 X5.050 Y62.000 I0.5250 J-0.9093
G02 X3.370 I-0.8400 J0.0000
G02 X4.630 I0.6300 J0.0000
G02 X3.685 Y61.454 Z-1.667 I-0.6300 J0.0000 F200
G02 Y62.546 Z-1.833 I0.3150 J0.5456
G02 X4.630 Y62.000 Z-2.000 I0.3150 J-0.5456
G02 X3.685 Y61.454 I-0.6300 J0.0000
G02 Y62.546 I0.3150 J0.5456
G02 X4.630 Y62.000 I0.3150 J-0.5456
G02 X4.610 Y61.747 I-0.6361 J-0.0777 F500
G02 X4.489 Y61.511 I-0.6461 J0.1835
G02 X4.276 Y61.333 I-0.5486 J0.4387
G02 X4.000 Y61.248 I-0.3508 J0.6438
G02 X3.700 Y61.276 I-0.0777 J0.7600
G02 X3.425 Y61.425 I0.2309 J0.7605
G02 X3.220 Y61.677 I0.5262 J0.6361
G02 X3.125 Y62.000 I0.7581 J0.3981
G02 X3.163 Y62.347 I0.8836 J0.0777
G02 X3.338 Y62.662 I0.8746 J-0.2781
G02 X3.630 Y62.893 I0.7233 J-0.6134
G02 X4.000 Y62.998 I0.4453 J-0.8720
G02 X4.393 Y62.950 I0.0777 J-1.0069
G02 X4.742 Y62.742 I-0.3453 J-0.9784
G02 X4.970 Y62.402 I-0.7425 J-0.7425
G02 X5.050 Y62.000 I-0.9701 J-0.4018
G02 X3.475 Y61.091 I-1.0500 J0.0000
G02 Y62.909 I0.5250 J0.9093
G02 X5.050 Y62.000 I0.5250 J-0.9093
G02 X3.370 I-0.8400 J0.0000
G02 X4.630 I0.6300 J0.0000
G02 X3.685 Y61.454 Z-2.167 I-0.6300 J0.0000 F200
G02 Y62.546 Z-2.333 I0.3150 J0.5456
G02 X4.630 Y62.000 Z-2.500 I0.3150 J-0.5456
G02 X3.685 Y61.454 I-0.6300 J0.0000
G02 Y62.546 I0.3150 J0.5456
G02 X4.630 Y62.000 I0.3150 J-0.5456
G02 X4.610 Y61.747 I-0.6361 J-0.0777 F500
G02 X4.489 Y61.511 I-0.6461 J0.1835
G02 X4.276 Y61.333 I-0.5486 J0.4387
G02 X4.000 Y61.248 I-0.3508 J0.6438
G02 X3.700 Y61.276 I-0.0777 J0.7600
G02 X3.425 Y61.425 I0.2309 J0.7605
G02 X3.220 Y61.677 I0.5262 J0.6361
G02 X3.125 Y62.000 I0.7581 J0.3981
G02 X3.163 Y62.347 I0.8836 J0.0777
G02 X3.338 Y62.662 I0.8746 J-0.2781
G02 X3.630 Y62.893 I0.7233 J-0.6134
G02 X4.000 Y62.998 I0.4453 J-0.8720
G02 X4.393 Y62.950 I0.0777 J-1.0069
G02 X4.742 Y62.742 I-0.3453 J-0.9784
G02 X4.970 Y62.402 I-0.7425 J-0.7425
G02 X5.050 Y62.000 I-0.9701 J-0.4018
G02 X3.475 Y61.091 I-1.0500 J0.0000
G02 Y62.909 I0.5250 J0.9093
G02 X5.050 Y62.000 I0.5250 J-0.9093
G02 X3.370 I-0.8400 J0.0000
G02 X4.630 I0.6300 J0.0000
G02 X3.685 Y61.454 Z-2.667 I-0.6300 J0.0000 F200
G02 Y62.546 Z-2.833 I0.3150 J0.5456
G02 X4.630 Y62.000 Z-3.000 I0.3150 J-0.5456
G02 X3.685 Y61.454 I-0.6300 J0.0000
G02 Y62.546 I0.3150 J0.5456
G02 X4.630 Y62.000 I0.3150 J-0.5456
G02 X4.610 Y61.747 I-0.6361 J-0.0777 F500
G02 X4.489 Y61.511 I-0.6461 J0.1835
G02 X4.276 Y61.333 I-0.5486 J0.4387
G02 X4.000 Y61.248 I-0.3508 J0.6438
G02 X3.700 Y61.276 I-0.0777 J0.7600
G02 X3.425 Y61.425 I0.2309 J0.7605
G02 X3.220 Y61.677 I0.5262 J0.6361
G02 X3.125 Y62.000 I0.7581 J0.3981
G02 X3.163 Y62.347 I0.8836 J0.0777
G02 X3.338 Y62.662 I0.8746 J-0.2781
G02 X3.630 Y62.893 I0.7233 J-0.6134
G02 X4.000 Y62.998 I0.4453 J-0.8720
G02 X4.393 Y62.950 I0.0777 J-1.0069
G02 X4.742 Y62.742 I-0.3453 J-0.9784
G02 X4.970 Y62.402 I-0.7425 J-0.7425
G02 X5.050 Y62.000 I-0.9701 J-0.4018
G02 X3.475 Y61.091 I-1.0500 J0.0000
G02 Y62.909 I0.5250 J0.9093
G02 X5.050 Y62.000 I0.5250 J-0.9093
G02 X3.370 I-0.8400 J0.0000
G02 X4.630 I0.6300 J0.0000
G02 X3.685 Y61.454 Z-3.167 I-0.6300 J0.0000 F200
G02 Y62.546 Z-3.333 I0.3150 J0.5456
G02 X4.630 Y62.000 Z-3.500 I0.3150 J-0.5456
G02 X3.685 Y61.454 I-0.6300 J0.0000
G02 Y62.546 I0.3150 J0.5456
G02 X4.630 Y62.000 I0.3150 J-0.5456
G02 X4.610 Y61.747 I-0.6361 J-0.0777 F500
G02 X4.489 Y61.511 I-0.6461 J0.1835
G02 X4.276 Y61.333 I-0.5486 J0.4387
G02 X4.000 Y61.248 I-0.3508 J0.6438
G02 X3.700 Y61.276 I-0.0777 J0.7600
G02 X3.425 Y61.425 I0.2309 J0.7605
G02 X3.220 Y61.677 I0.5262 J0.6361
G02 X3.125 Y62.000 I0.7581 J0.3981
G02 X3.163 Y62.347 I0.8836 J0.0777
G02 X3.338 Y62.662 I0.8746 J-0.2781
G02 X3.630 Y62.893 I0.7233 J-0.6134
G02 X4.000 Y62.998 I0.4453 J-0.8720
G02 X4.393 Y62.950 I0.0777 J-1.0069
G02 X4.742 Y62.742 I-0.3453 J-0.9784
G02 X4.970 Y62.402 I-0.7425 J-0.7425
G02 X5.050 Y62.000 I-0.9701 J-0.4018
G02 X3.475 Y61.091 I-1.0500 J0.0000
G02 Y62.909 I0.5250 J0.9093
G02 X5.050 Y62.000 I0.5250 J-0.9093
G02 X3.370 I-0.8400 J0.0000
G02 X4.630 I0.6300 J0.0000
G02 X3.685 Y61.454 Z-3.583 I-0.6300 J0.0000 F200
G02 Y62.546 Z-3.667 I0.3150 J0.5456
G02 X4.630 Y62.000 Z-3.750 I0.3150 J-0.5456
G02 X3.685 Y61.454 I-0.6300 J0.0000
G02 Y62.546 I0.3150 J0.5456
G02 X4.630 Y62.000 I0.3150 J-0.5456
G02 X4.610 Y61.747 I-0.6361 J-0.0777 F500
G02 X4.489 Y61.511 I-0.6461 J0.1835
G02 X4.276 Y61.333 I-0.5486 J0.4387
G02 X4.000 Y61.248 I-0.3508 J0.6438
G02 X3.700 Y61.276 I-0.0777 J0.7600
G02 X3.425 Y61.425 I0.2309 J0.7605
G02 X3.220 Y61.677 I0.5262 J0.6361
G02 X3.125 Y62.000 I0.7581 J0.3981
G02 X3.163 Y62.347 I0.8836 J0.0777
G02 X3.338 Y62.662 I0.8746 J-0.2781
G02 X3.630 Y62.893 I0.7233 J-0.6134
G02 X4.000 Y62.998 I0.4453 J-0.8720
G02 X4.393 Y62.950 I0.0777 J-1.0069
G02 X4.742 Y62.742 I-0.3453 J-0.9784
G02 X4.970 Y62.402 I-0.7425 J-0.7425
G02 X5.050 Y62.000 I-0.9701 J-0.4018
G02 X3.475 Y61.091 I-1.0500 J0.0000
G02 Y62.909 I0.5250 J0.9093
G02 X5.050 Y62.000 I0.5250 J-0.9093
G02 X4.350 Y61.300 Z-3.250 I-0.7000 J0.0000 F200
G00 Z20.000


(No. 8 Helical drill: Helical drill 2)
G00 X107.630 Y62.000 Z20.000
G00 Z0.500
G02 X106.685 Y61.454 Z0.333 I-0.6300 J0.0000 F200
G02 Y62.546 Z0.167 I0.3150 J0.5456
G02 X107.630 Y62.000 Z0.000 I0.3150 J-0.5456
G02 X106.685 Y61.454 I-0.6300 J0.0000
G02 Y62.546 I0.3150 J0.5456
G02 X107.630 Y62.000 I0.3150 J-0.5456
G02 X106.685 Y61.454 Z-0.167 I-0.6300 J0.0000
G02 Y62.546 Z-0.333 I0.3150 J0.5456
G02 X107.630 Y62.000 Z-0.500 I0.3150 J-0.5456
G02 X106.685 Y61.454 I-0.6300 J0.0000
G02 Y62.546 I0.3150 J0.5456
G02 X107.630 Y62.000 I0.3150 J-0.5456
G02 X107.610 Y61.747 I-0.6361 J-0.0777 F500
G02 X107.489 Y61.511 I-0.6461 J0.1835
G02 X107.276 Y61.333 I-0.5486 J0.4387
G02 X107.000 Y61.247 I-0.3508 J0.6438
G02 X106.700 Y61.276 I-0.0777 J0.7600
G02 X106.425 Y61.425 I0.2309 J0.7605
G02 X106.220 Y61.677 I0.5262 J0.6361
G02 X106.125 Y62.000 I0.7581 J0.3981
G02 X106.163 Y62.347 I0.8836 J0.0777
G02 X106.338 Y62.662 I0.8746 J-0.2781
G02 X106.630 Y62.893 I0.7233 J-0.6134
G02 X107.000 Y62.997 I0.4453 J-0.8720
G02 X107.393 Y62.950 I0.0777 J-1.0069
G02 X107.742 Y62.742 I-0.3453 J-0.9784
G02 X107.970 Y62.402 I-0.7425 J-0.7425
G02 X108.050 Y62.000 I-0.9701 J-0.4018
G02 X106.475 Y61.091 I-1.0500 J0.0000
G02 Y62.909 I0.5250 J0.9093
G02 X108.050 Y62.000 I0.5250 J-0.9093
G02 X106.370 I-0.8400 J0.0000
G02 X107.630 I0.6300 J0.0000
G02 X106.685 Y61.454 Z-0.667 I-0.6300 J0.0000 F200
G02 Y62.546 Z-0.833 I0.3150 J0.5456
G02 X107.630 Y62.000 Z-1.000 I0.3150 J-0.5456
G02 X106.685 Y61.454 I-0.6300 J0.0000
G02 Y62.546 I0.3150 J0.5456
G02 X107.630 Y62.000 I0.3150 J-0.5456
G02 X107.610 Y61.747 I-0.6361 J-0.0777 F500
G02 X107.489 Y61.511 I-0.6461 J0.1835
G02 X107.276 Y61.333 I-0.5486 J0.4387
G02 X107.000 Y61.247 I-0.3508 J0.6438
G02 X106.700 Y61.276 I-0.0777 J0.7600
G02 X106.425 Y61.425 I0.2309 J0.7605
G02 X106.220 Y61.677 I0.5262 J0.6361
G02 X106.125 Y62.000 I0.7581 J0.3981
G02 X106.163 Y62.347 I0.8836 J0.0777
G02 X106.338 Y62.662 I0.8746 J-0.2781
G02 X106.630 Y62.893 I0.7233 J-0.6134
G02 X107.000 Y62.997 I0.4453 J-0.8720
G02 X107.393 Y62.950 I0.0777 J-1.0069
G02 X107.742 Y62.742 I-0.3453 J-0.9784
G02 X107.970 Y62.402 I-0.7425 J-0.7425
G02 X108.050 Y62.000 I-0.9701 J-0.4018
G02 X106.475 Y61.091 I-1.0500 J0.0000
G02 Y62.909 I0.5250 J0.9093
G02 X108.050 Y62.000 I0.5250 J-0.9093
G02 X106.370 I-0.8400 J0.0000
G02 X107.630 I0.6300 J0.0000
G02 X106.685 Y61.454 Z-1.167 I-0.6300 J0.0000 F200
G02 Y62.546 Z-1.333 I0.3150 J0.5456
G02 X107.630 Y62.000 Z-1.500 I0.3150 J-0.5456
G02 X106.685 Y61.454 I-0.6300 J0.0000
G02 Y62.546 I0.3150 J0.5456
G02 X107.630 Y62.000 I0.3150 J-0.5456
G02 X107.610 Y61.747 I-0.6361 J-0.0777 F500
G02 X107.489 Y61.511 I-0.6461 J0.1835
G02 X107.276 Y61.333 I-0.5486 J0.4387
G02 X107.000 Y61.247 I-0.3508 J0.6438
G02 X106.700 Y61.276 I-0.0777 J0.7600
G02 X106.425 Y61.425 I0.2309 J0.7605
G02 X106.220 Y61.677 I0.5262 J0.6361
G02 X106.125 Y62.000 I0.7581 J0.3981
G02 X106.163 Y62.347 I0.8836 J0.0777
G02 X106.338 Y62.662 I0.8746 J-0.2781
G02 X106.630 Y62.893 I0.7233 J-0.6134
G02 X107.000 Y62.997 I0.4453 J-0.8720
G02 X107.393 Y62.950 I0.0777 J-1.0069
G02 X107.742 Y62.742 I-0.3453 J-0.9784
G02 X107.970 Y62.402 I-0.7425 J-0.7425
G02 X108.050 Y62.000 I-0.9701 J-0.4018
G02 X106.475 Y61.091 I-1.0500 J0.0000
G02 Y62.909 I0.5250 J0.9093
G02 X108.050 Y62.000 I0.5250 J-0.9093
G02 X106.370 I-0.8400 J0.0000
G02 X107.630 I0.6300 J0.0000
G02 X106.685 Y61.454 Z-1.667 I-0.6300 J0.0000 F200
G02 Y62.546 Z-1.833 I0.3150 J0.5456
G02 X107.630 Y62.000 Z-2.000 I0.3150 J-0.5456
G02 X106.685 Y61.454 I-0.6300 J0.0000
G02 Y62.546 I0.3150 J0.5456
G02 X107.630 Y62.000 I0.3150 J-0.5456
G02 X107.610 Y61.747 I-0.6361 J-0.0777 F500
G02 X107.489 Y61.511 I-0.6461 J0.1835
G02 X107.276 Y61.333 I-0.5486 J0.4387
G02 X107.000 Y61.247 I-0.3508 J0.6438
G02 X106.700 Y61.276 I-0.0777 J0.7600
G02 X106.425 Y61.425 I0.2309 J0.7605
G02 X106.220 Y61.677 I0.5262 J0.6361
G02 X106.125 Y62.000 I0.7581 J0.3981
G02 X106.163 Y62.347 I0.8836 J0.0777
G02 X106.338 Y62.662 I0.8746 J-0.2781
G02 X106.630 Y62.893 I0.7233 J-0.6134
G02 X107.000 Y62.997 I0.4453 J-0.8720
G02 X107.393 Y62.950 I0.0777 J-1.0069
G02 X107.742 Y62.742 I-0.3453 J-0.9784
G02 X107.970 Y62.402 I-0.7425 J-0.7425
G02 X108.050 Y62.000 I-0.9701 J-0.4018
G02 X106.475 Y61.091 I-1.0500 J0.0000
G02 Y62.909 I0.5250 J0.9093
G02 X108.050 Y62.000 I0.5250 J-0.9093
G02 X106.370 I-0.8400 J0.0000
G02 X107.630 I0.6300 J0.0000
G02 X106.685 Y61.454 Z-2.167 I-0.6300 J0.0000 F200
G02 Y62.546 Z-2.333 I0.3150 J0.5456
G02 X107.630 Y62.000 Z-2.500 I0.3150 J-0.5456
G02 X106.685 Y61.454 I-0.6300 J0.0000
G02 Y62.546 I0.3150 J0.5456
G02 X107.630 Y62.000 I0.3150 J-0.5456
G02 X107.610 Y61.747 I-0.6361 J-0.0777 F500
G02 X107.489 Y61.511 I-0.6461 J0.1835
G02 X107.276 Y61.333 I-0.5486 J0.4387
G02 X107.000 Y61.247 I-0.3508 J0.6438
G02 X106.700 Y61.276 I-0.0777 J0.7600
G02 X106.425 Y61.425 I0.2309 J0.7605
G02 X106.220 Y61.677 I0.5262 J0.6361
G02 X106.125 Y62.000 I0.7581 J0.3981
G02 X106.163 Y62.347 I0.8836 J0.0777
G02 X106.338 Y62.662 I0.8746 J-0.2781
G02 X106.630 Y62.893 I0.7233 J-0.6134
G02 X107.000 Y62.997 I0.4453 J-0.8720
G02 X107.393 Y62.950 I0.0777 J-1.0069
G02 X107.742 Y62.742 I-0.3453 J-0.9784
G02 X107.970 Y62.402 I-0.7425 J-0.7425
G02 X108.050 Y62.000 I-0.9701 J-0.4018
G02 X106.475 Y61.091 I-1.0500 J0.0000
G02 Y62.909 I0.5250 J0.9093
G02 X108.050 Y62.000 I0.5250 J-0.9093
G02 X106.370 I-0.8400 J0.0000
G02 X107.630 I0.6300 J0.0000
G02 X106.685 Y61.454 Z-2.667 I-0.6300 J0.0000 F200
G02 Y62.546 Z-2.833 I0.3150 J0.5456
G02 X107.630 Y62.000 Z-3.000 I0.3150 J-0.5456
G02 X106.685 Y61.454 I-0.6300 J0.0000
G02 Y62.546 I0.3150 J0.5456
G02 X107.630 Y62.000 I0.3150 J-0.5456
G02 X107.610 Y61.747 I-0.6361 J-0.0777 F500
G02 X107.489 Y61.511 I-0.6461 J0.1835
G02 X107.276 Y61.333 I-0.5486 J0.4387
G02 X107.000 Y61.247 I-0.3508 J0.6438
G02 X106.700 Y61.276 I-0.0777 J0.7600
G02 X106.425 Y61.425 I0.2309 J0.7605
G02 X106.220 Y61.677 I0.5262 J0.6361
G02 X106.125 Y62.000 I0.7581 J0.3981
G02 X106.163 Y62.347 I0.8836 J0.0777
G02 X106.338 Y62.662 I0.8746 J-0.2781
G02 X106.630 Y62.893 I0.7233 J-0.6134
G02 X107.000 Y62.997 I0.4453 J-0.8720
G02 X107.393 Y62.950 I0.0777 J-1.0069
G02 X107.742 Y62.742 I-0.3453 J-0.9784
G02 X107.970 Y62.402 I-0.7425 J-0.7425
G02 X108.050 Y62.000 I-0.9701 J-0.4018
G02 X106.475 Y61.091 I-1.0500 J0.0000
G02 Y62.909 I0.5250 J0.9093
G02 X108.050 Y62.000 I0.5250 J-0.9093
G02 X106.370 I-0.8400 J0.0000
G02 X107.630 I0.6300 J0.0000
G02 X106.685 Y61.454 Z-3.167 I-0.6300 J0.0000 F200
G02 Y62.546 Z-3.333 I0.3150 J0.5456
G02 X107.630 Y62.000 Z-3.500 I0.3150 J-0.5456
G02 X106.685 Y61.454 I-0.6300 J0.0000
G02 Y62.546 I0.3150 J0.5456
G02 X107.630 Y62.000 I0.3150 J-0.5456
G02 X107.610 Y61.747 I-0.6361 J-0.0777 F500
G02 X107.489 Y61.511 I-0.6461 J0.1835
G02 X107.276 Y61.333 I-0.5486 J0.4387
G02 X107.000 Y61.247 I-0.3508 J0.6438
G02 X106.700 Y61.276 I-0.0777 J0.7600
G02 X106.425 Y61.425 I0.2309 J0.7605
G02 X106.220 Y61.677 I0.5262 J0.6361
G02 X106.125 Y62.000 I0.7581 J0.3981
G02 X106.163 Y62.347 I0.8836 J0.0777
G02 X106.338 Y62.662 I0.8746 J-0.2781
G02 X106.630 Y62.893 I0.7233 J-0.6134
G02 X107.000 Y62.997 I0.4453 J-0.8720
G02 X107.393 Y62.950 I0.0777 J-1.0069
G02 X107.742 Y62.742 I-0.3453 J-0.9784
G02 X107.970 Y62.402 I-0.7425 J-0.7425
G02 X108.050 Y62.000 I-0.9701 J-0.4018
G02 X106.475 Y61.091 I-1.0500 J0.0000
G02 Y62.909 I0.5250 J0.9093
G02 X108.050 Y62.000 I0.5250 J-0.9093
G02 X106.370 I-0.8400 J0.0000
G02 X107.630 I0.6300 J0.0000
G02 X106.685 Y61.454 Z-3.583 I-0.6300 J0.0000 F200
G02 Y62.546 Z-3.667 I0.3150 J0.5456
G02 X107.630 Y62.000 Z-3.750 I0.3150 J-0.5456
G02 X106.685 Y61.454 I-0.6300 J0.0000
G02 Y62.546 I0.3150 J0.5456
G02 X107.630 Y62.000 I0.3150 J-0.5456
G02 X107.610 Y61.747 I-0.6361 J-0.0777 F500
G02 X107.489 Y61.511 I-0.6461 J0.1835
G02 X107.276 Y61.333 I-0.5486 J0.4387
G02 X107.000 Y61.247 I-0.3508 J0.6438
G02 X106.700 Y61.276 I-0.0777 J0.7600
G02 X106.425 Y61.425 I0.2309 J0.7605
G02 X106.220 Y61.677 I0.5262 J0.6361
G02 X106.125 Y62.000 I0.7581 J0.3981
G02 X106.163 Y62.347 I0.8836 J0.0777
G02 X106.338 Y62.662 I0.8746 J-0.2781
G02 X106.630 Y62.893 I0.7233 J-0.6134
G02 X107.000 Y62.997 I0.4453 J-0.8720
G02 X107.393 Y62.950 I0.0777 J-1.0069
G02 X107.742 Y62.742 I-0.3453 J-0.9784
G02 X107.970 Y62.402 I-0.7425 J-0.7425
G02 X108.050 Y62.000 I-0.9701 J-0.4018
G02 X106.475 Y61.091 I-1.0500 J0.0000
G02 Y62.909 I0.5250 J0.9093
G02 X108.050 Y62.000 I0.5250 J-0.9093
G02 X107.350 Y61.300 Z-3.250 I-0.7000 J0.0000 F200
G00 Z20.000


(No. 9 Helical drill: Helical drill 3)
G00 X107.630 Y4.000 Z20.000
G00 Z0.500
G02 X106.685 Y3.454 Z0.333 I-0.6300 J0.0000 F200
G02 Y4.546 Z0.167 I0.3150 J0.5456
G02 X107.630 Y4.000 Z0.000 I0.3150 J-0.5456
G02 X106.685 Y3.454 I-0.6300 J0.0000
G02 Y4.546 I0.3150 J0.5456
G02 X107.630 Y4.000 I0.3150 J-0.5456
G02 X106.685 Y3.454 Z-0.167 I-0.6300 J0.0000
G02 Y4.546 Z-0.333 I0.3150 J0.5456
G02 X107.630 Y4.000 Z-0.500 I0.3150 J-0.5456
G02 X106.685 Y3.454 I-0.6300 J0.0000
G02 Y4.546 I0.3150 J0.5456
G02 X107.630 Y4.000 I0.3150 J-0.5456
G02 X107.610 Y3.747 I-0.6361 J-0.0777 F500
G02 X107.489 Y3.511 I-0.6461 J0.1835
G02 X107.276 Y3.333 I-0.5486 J0.4387
G02 X107.000 Y3.248 I-0.3508 J0.6438
G02 X106.700 Y3.276 I-0.0777 J0.7600
G02 X106.425 Y3.425 I0.2309 J0.7605
G02 X106.220 Y3.677 I0.5262 J0.6361
G02 X106.125 Y4.000 I0.7581 J0.3981
G02 X106.163 Y4.347 I0.8836 J0.0777
G02 X106.338 Y4.662 I0.8746 J-0.2781
G02 X106.630 Y4.893 I0.7233 J-0.6134
G02 X107.000 Y4.998 I0.4453 J-0.8720
G02 X107.393 Y4.950 I0.0777 J-1.0069
G02 X107.742 Y4.742 I-0.3453 J-0.9784
G02 X107.970 Y4.402 I-0.7425 J-0.7425
G02 X108.050 Y4.000 I-0.9701 J-0.4018
G02 X106.475 Y3.091 I-1.0500 J0.0000
G02 Y4.909 I0.5250 J0.9093
G02 X108.050 Y4.000 I0.5250 J-0.9093
G02 X106.370 I-0.8400 J0.0000
G02 X107.630 I0.6300 J0.0000
G02 X106.685 Y3.454 Z-0.667 I-0.6300 J0.0000 F200
G02 Y4.546 Z-0.833 I0.3150 J0.5456
G02 X107.630 Y4.000 Z-1.000 I0.3150 J-0.5456
G02 X106.685 Y3.454 I-0.6300 J0.0000
G02 Y4.546 I0.3150 J0.5456
G02 X107.630 Y4.000 I0.3150 J-0.5456
G02 X107.610 Y3.747 I-0.6361 J-0.0777 F500
G02 X107.489 Y3.511 I-0.6461 J0.1835
G02 X107.276 Y3.333 I-0.5486 J0.4387
G02 X107.000 Y3.248 I-0.3508 J0.6438
G02 X106.700 Y3.276 I-0.0777 J0.7600
G02 X106.425 Y3.425 I0.2309 J0.7605
G02 X106.220 Y3.677 I0.5262 J0.6361
G02 X106.125 Y4.000 I0.7581 J0.3981
G02 X106.163 Y4.347 I0.8836 J0.0777
G02 X106.338 Y4.662 I0.8746 J-0.2781
G02 X106.630 Y4.893 I0.7233 J-0.6134
G02 X107.000 Y4.998 I0.4453 J-0.8720
G02 X107.393 Y4.950 I0.0777 J-1.0069
G02 X107.742 Y4.742 I-0.3453 J-0.9784
G02 X107.970 Y4.402 I-0.7425 J-0.7425
G02 X108.050 Y4.000 I-0.9701 J-0.4018
G02 X106.475 Y3.091 I-1.0500 J0.0000
G02 Y4.909 I0.5250 J0.9093
G02 X108.050 Y4.000 I0.5250 J-0.9093
G02 X106.370 I-0.8400 J0.0000
G02 X107.630 I0.6300 J0.0000
G02 X106.685 Y3.454 Z-1.167 I-0.6300 J0.0000 F200
G02 Y4.546 Z-1.333 I0.3150 J0.5456
G02 X107.630 Y4.000 Z-1.500 I0.3150 J-0.5456
G02 X106.685 Y3.454 I-0.6300 J0.0000
G02 Y4.546 I0.3150 J0.5456
G02 X107.630 Y4.000 I0.3150 J-0.5456
G02 X107.610 Y3.747 I-0.6361 J-0.0777 F500
G02 X107.489 Y3.511 I-0.6461 J0.1835
G02 X107.276 Y3.333 I-0.5486 J0.4387
G02 X107.000 Y3.248 I-0.3508 J0.6438
G02 X106.700 Y3.276 I-0.0777 J0.7600
G02 X106.425 Y3.425 I0.2309 J0.7605
G02 X106.220 Y3.677 I0.5262 J0.6361
G02 X106.125 Y4.000 I0.7581 J0.3981
G02 X106.163 Y4.347 I0.8836 J0.0777
G02 X106.338 Y4.662 I0.8746 J-0.2781
G02 X106.630 Y4.893 I0.7233 J-0.6134
G02 X107.000 Y4.998 I0.4453 J-0.8720
G02 X107.393 Y4.950 I0.0777 J-1.0069
G02 X107.742 Y4.742 I-0.3453 J-0.9784
G02 X107.970 Y4.402 I-0.7425 J-0.7425
G02 X108.050 Y4.000 I-0.9701 J-0.4018
G02 X106.475 Y3.091 I-1.0500 J0.0000
G02 Y4.909 I0.5250 J0.9093
G02 X108.050 Y4.000 I0.5250 J-0.9093
G02 X106.370 I-0.8400 J0.0000
G02 X107.630 I0.6300 J0.0000
G02 X106.685 Y3.454 Z-1.667 I-0.6300 J0.0000 F200
G02 Y4.546 Z-1.833 I0.3150 J0.5456
G02 X107.630 Y4.000 Z-2.000 I0.3150 J-0.5456
G02 X106.685 Y3.454 I-0.6300 J0.0000
G02 Y4.546 I0.3150 J0.5456
G02 X107.630 Y4.000 I0.3150 J-0.5456
G02 X107.610 Y3.747 I-0.6361 J-0.0777 F500
G02 X107.489 Y3.511 I-0.6461 J0.1835
G02 X107.276 Y3.333 I-0.5486 J0.4387
G02 X107.000 Y3.248 I-0.3508 J0.6438
G02 X106.700 Y3.276 I-0.0777 J0.7600
G02 X106.425 Y3.425 I0.2309 J0.7605
G02 X106.220 Y3.677 I0.5262 J0.6361
G02 X106.125 Y4.000 I0.7581 J0.3981
G02 X106.163 Y4.347 I0.8836 J0.0777
G02 X106.338 Y4.662 I0.8746 J-0.2781
G02 X106.630 Y4.893 I0.7233 J-0.6134
G02 X107.000 Y4.998 I0.4453 J-0.8720
G02 X107.393 Y4.950 I0.0777 J-1.0069
G02 X107.742 Y4.742 I-0.3453 J-0.9784
G02 X107.970 Y4.402 I-0.7425 J-0.7425
G02 X108.050 Y4.000 I-0.9701 J-0.4018
G02 X106.475 Y3.091 I-1.0500 J0.0000
G02 Y4.909 I0.5250 J0.9093
G02 X108.050 Y4.000 I0.5250 J-0.9093
G02 X106.370 I-0.8400 J0.0000
G02 X107.630 I0.6300 J0.0000
G02 X106.685 Y3.454 Z-2.167 I-0.6300 J0.0000 F200
G02 Y4.546 Z-2.333 I0.3150 J0.5456
G02 X107.630 Y4.000 Z-2.500 I0.3150 J-0.5456
G02 X106.685 Y3.454 I-0.6300 J0.0000
G02 Y4.546 I0.3150 J0.5456
G02 X107.630 Y4.000 I0.3150 J-0.5456
G02 X107.610 Y3.747 I-0.6361 J-0.0777 F500
G02 X107.489 Y3.511 I-0.6461 J0.1835
G02 X107.276 Y3.333 I-0.5486 J0.4387
G02 X107.000 Y3.248 I-0.3508 J0.6438
G02 X106.700 Y3.276 I-0.0777 J0.7600
G02 X106.425 Y3.425 I0.2309 J0.7605
G02 X106.220 Y3.677 I0.5262 J0.6361
G02 X106.125 Y4.000 I0.7581 J0.3981
G02 X106.163 Y4.347 I0.8836 J0.0777
G02 X106.338 Y4.662 I0.8746 J-0.2781
G02 X106.630 Y4.893 I0.7233 J-0.6134
G02 X107.000 Y4.998 I0.4453 J-0.8720
G02 X107.393 Y4.950 I0.0777 J-1.0069
G02 X107.742 Y4.742 I-0.3453 J-0.9784
G02 X107.970 Y4.402 I-0.7425 J-0.7425
G02 X108.050 Y4.000 I-0.9701 J-0.4018
G02 X106.475 Y3.091 I-1.0500 J0.0000
G02 Y4.909 I0.5250 J0.9093
G02 X108.050 Y4.000 I0.5250 J-0.9093
G02 X106.370 I-0.8400 J0.0000
G02 X107.630 I0.6300 J0.0000
G02 X106.685 Y3.454 Z-2.667 I-0.6300 J0.0000 F200
G02 Y4.546 Z-2.833 I0.3150 J0.5456
G02 X107.630 Y4.000 Z-3.000 I0.3150 J-0.5456
G02 X106.685 Y3.454 I-0.6300 J0.0000
G02 Y4.546 I0.3150 J0.5456
G02 X107.630 Y4.000 I0.3150 J-0.5456
G02 X107.610 Y3.747 I-0.6361 J-0.0777 F500
G02 X107.489 Y3.511 I-0.6461 J0.1835
G02 X107.276 Y3.333 I-0.5486 J0.4387
G02 X107.000 Y3.248 I-0.3508 J0.6438
G02 X106.700 Y3.276 I-0.0777 J0.7600
G02 X106.425 Y3.425 I0.2309 J0.7605
G02 X106.220 Y3.677 I0.5262 J0.6361
G02 X106.125 Y4.000 I0.7581 J0.3981
G02 X106.163 Y4.347 I0.8836 J0.0777
G02 X106.338 Y4.662 I0.8746 J-0.2781
G02 X106.630 Y4.893 I0.7233 J-0.6134
G02 X107.000 Y4.998 I0.4453 J-0.8720
G02 X107.393 Y4.950 I0.0777 J-1.0069
G02 X107.742 Y4.742 I-0.3453 J-0.9784
G02 X107.970 Y4.402 I-0.7425 J-0.7425
G02 X108.050 Y4.000 I-0.9701 J-0.4018
G02 X106.475 Y3.091 I-1.0500 J0.0000
G02 Y4.909 I0.5250 J0.9093
G02 X108.050 Y4.000 I0.5250 J-0.9093
G02 X106.370 I-0.8400 J0.0000
G02 X107.630 I0.6300 J0.0000
G02 X106.685 Y3.454 Z-3.167 I-0.6300 J0.0000 F200
G02 Y4.546 Z-3.333 I0.3150 J0.5456
G02 X107.630 Y4.000 Z-3.500 I0.3150 J-0.5456
G02 X106.685 Y3.454 I-0.6300 J0.0000
G02 Y4.546 I0.3150 J0.5456
G02 X107.630 Y4.000 I0.3150 J-0.5456
G02 X107.610 Y3.747 I-0.6361 J-0.0777 F500
G02 X107.489 Y3.511 I-0.6461 J0.1835
G02 X107.276 Y3.333 I-0.5486 J0.4387
G02 X107.000 Y3.248 I-0.3508 J0.6438
G02 X106.700 Y3.276 I-0.0777 J0.7600
G02 X106.425 Y3.425 I0.2309 J0.7605
G02 X106.220 Y3.677 I0.5262 J0.6361
G02 X106.125 Y4.000 I0.7581 J0.3981
G02 X106.163 Y4.347 I0.8836 J0.0777
G02 X106.338 Y4.662 I0.8746 J-0.2781
G02 X106.630 Y4.893 I0.7233 J-0.6134
G02 X107.000 Y4.998 I0.4453 J-0.8720
G02 X107.393 Y4.950 I0.0777 J-1.0069
G02 X107.742 Y4.742 I-0.3453 J-0.9784
G02 X107.970 Y4.402 I-0.7425 J-0.7425
G02 X108.050 Y4.000 I-0.9701 J-0.4018
G02 X106.475 Y3.091 I-1.0500 J0.0000
G02 Y4.909 I0.5250 J0.9093
G02 X108.050 Y4.000 I0.5250 J-0.9093
G02 X106.370 I-0.8400 J0.0000
G02 X107.630 I0.6300 J0.0000
G02 X106.685 Y3.454 Z-3.583 I-0.6300 J0.0000 F200
G02 Y4.546 Z-3.667 I0.3150 J0.5456
G02 X107.630 Y4.000 Z-3.750 I0.3150 J-0.5456
G02 X106.685 Y3.454 I-0.6300 J0.0000
G02 Y4.546 I0.3150 J0.5456
G02 X107.630 Y4.000 I0.3150 J-0.5456
G02 X107.610 Y3.747 I-0.6361 J-0.0777 F500
G02 X107.489 Y3.511 I-0.6461 J0.1835
G02 X107.276 Y3.333 I-0.5486 J0.4387
G02 X107.000 Y3.248 I-0.3508 J0.6438
G02 X106.700 Y3.276 I-0.0777 J0.7600
G02 X106.425 Y3.425 I0.2309 J0.7605
G02 X106.220 Y3.677 I0.5262 J0.6361
G02 X106.125 Y4.000 I0.7581 J0.3981
G02 X106.163 Y4.347 I0.8836 J0.0777
G02 X106.338 Y4.662 I0.8746 J-0.2781
G02 X106.630 Y4.893 I0.7233 J-0.6134
G02 X107.000 Y4.998 I0.4453 J-0.8720
G02 X107.393 Y4.950 I0.0777 J-1.0069
G02 X107.742 Y4.742 I-0.3453 J-0.9784
G02 X107.970 Y4.402 I-0.7425 J-0.7425
G02 X108.050 Y4.000 I-0.9701 J-0.4018
G02 X106.475 Y3.091 I-1.0500 J0.0000
G02 Y4.909 I0.5250 J0.9093
G02 X108.050 Y4.000 I0.5250 J-0.9093
G02 X107.350 Y3.300 Z-3.250 I-0.7000 J0.0000 F200
G00 Z20.000


(No. 10 Helical drill: Helical drill 4)
G00 X4.630 Y4.000 Z20.000
G00 Z0.500
G02 X3.685 Y3.454 Z0.333 I-0.6300 J0.0000 F200
G02 Y4.546 Z0.167 I0.3150 J0.5456
G02 X4.630 Y4.000 Z0.000 I0.3150 J-0.5456
G02 X3.685 Y3.454 I-0.6300 J0.0000
G02 Y4.546 I0.3150 J0.5456
G02 X4.630 Y4.000 I0.3150 J-0.5456
G02 X3.685 Y3.454 Z-0.167 I-0.6300 J0.0000
G02 Y4.546 Z-0.333 I0.3150 J0.5456
G02 X4.630 Y4.000 Z-0.500 I0.3150 J-0.5456
G02 X3.685 Y3.454 I-0.6300 J0.0000
G02 Y4.546 I0.3150 J0.5456
G02 X4.630 Y4.000 I0.3150 J-0.5456
G02 X4.610 Y3.747 I-0.6361 J-0.0777 F500
G02 X4.489 Y3.511 I-0.6461 J0.1835
G02 X4.276 Y3.333 I-0.5486 J0.4387
G02 X4.000 Y3.248 I-0.3508 J0.6438
G02 X3.700 Y3.276 I-0.0777 J0.7600
G02 X3.425 Y3.425 I0.2309 J0.7605
G02 X3.220 Y3.677 I0.5262 J0.6361
G02 X3.125 Y4.000 I0.7581 J0.3981
G02 X3.163 Y4.347 I0.8836 J0.0777
G02 X3.338 Y4.662 I0.8746 J-0.2781
G02 X3.630 Y4.893 I0.7233 J-0.6134
G02 X4.000 Y4.998 I0.4453 J-0.8720
G02 X4.393 Y4.950 I0.0777 J-1.0069
G02 X4.742 Y4.742 I-0.3453 J-0.9784
G02 X4.970 Y4.402 I-0.7425 J-0.7425
G02 X5.050 Y4.000 I-0.9701 J-0.4018
G02 X3.475 Y3.091 I-1.0500 J0.0000
G02 Y4.909 I0.5250 J0.9093
G02 X5.050 Y4.000 I0.5250 J-0.9093
G02 X3.370 I-0.8400 J0.0000
G02 X4.630 I0.6300 J0.0000
G02 X3.685 Y3.454 Z-0.667 I-0.6300 J0.0000 F200
G02 Y4.546 Z-0.833 I0.3150 J0.5456
G02 X4.630 Y4.000 Z-1.000 I0.3150 J-0.5456
G02 X3.685 Y3.454 I-0.6300 J0.0000
G02 Y4.546 I0.3150 J0.5456
G02 X4.630 Y4.000 I0.3150 J-0.5456
G02 X4.610 Y3.747 I-0.6361 J-0.0777 F500
G02 X4.489 Y3.511 I-0.6461 J0.1835
G02 X4.276 Y3.333 I-0.5486 J0.4387
G02 X4.000 Y3.248 I-0.3508 J0.6438
G02 X3.700 Y3.276 I-0.0777 J0.7600
G02 X3.425 Y3.425 I0.2309 J0.7605
G02 X3.220 Y3.677 I0.5262 J0.6361
G02 X3.125 Y4.000 I0.7581 J0.3981
G02 X3.163 Y4.347 I0.8836 J0.0777
G02 X3.338 Y4.662 I0.8746 J-0.2781
G02 X3.630 Y4.893 I0.7233 J-0.6134
G02 X4.000 Y4.998 I0.4453 J-0.8720
G02 X4.393 Y4.950 I0.0777 J-1.0069
G02 X4.742 Y4.742 I-0.3453 J-0.9784
G02 X4.970 Y4.402 I-0.7425 J-0.7425
G02 X5.050 Y4.000 I-0.9701 J-0.4018
G02 X3.475 Y3.091 I-1.0500 J0.0000
G02 Y4.909 I0.5250 J0.9093
G02 X5.050 Y4.000 I0.5250 J-0.9093
G02 X3.370 I-0.8400 J0.0000
G02 X4.630 I0.6300 J0.0000
G02 X3.685 Y3.454 Z-1.167 I-0.6300 J0.0000 F200
G02 Y4.546 Z-1.333 I0.3150 J0.5456
G02 X4.630 Y4.000 Z-1.500 I0.3150 J-0.5456
G02 X3.685 Y3.454 I-0.6300 J0.0000
G02 Y4.546 I0.3150 J0.5456
G02 X4.630 Y4.000 I0.3150 J-0.5456
G02 X4.610 Y3.747 I-0.6361 J-0.0777 F500
G02 X4.489 Y3.511 I-0.6461 J0.1835
G02 X4.276 Y3.333 I-0.5486 J0.4387
G02 X4.000 Y3.248 I-0.3508 J0.6438
G02 X3.700 Y3.276 I-0.0777 J0.7600
G02 X3.425 Y3.425 I0.2309 J0.7605
G02 X3.220 Y3.677 I0.5262 J0.6361
G02 X3.125 Y4.000 I0.7581 J0.3981
G02 X3.163 Y4.347 I0.8836 J0.0777
G02 X3.338 Y4.662 I0.8746 J-0.2781
G02 X3.630 Y4.893 I0.7233 J-0.6134
G02 X4.000 Y4.998 I0.4453 J-0.8720
G02 X4.393 Y4.950 I0.0777 J-1.0069
G02 X4.742 Y4.742 I-0.3453 J-0.9784
G02 X4.970 Y4.402 I-0.7425 J-0.7425
G02 X5.050 Y4.000 I-0.9701 J-0.4018
G02 X3.475 Y3.091 I-1.0500 J0.0000
G02 Y4.909 I0.5250 J0.9093
G02 X5.050 Y4.000 I0.5250 J-0.9093
G02 X3.370 I-0.8400 J0.0000
G02 X4.630 I0.6300 J0.0000
G02 X3.685 Y3.454 Z-1.667 I-0.6300 J0.0000 F200
G02 Y4.546 Z-1.833 I0.3150 J0.5456
G02 X4.630 Y4.000 Z-2.000 I0.3150 J-0.5456
G02 X3.685 Y3.454 I-0.6300 J0.0000
G02 Y4.546 I0.3150 J0.5456
G02 X4.630 Y4.000 I0.3150 J-0.5456
G02 X4.610 Y3.747 I-0.6361 J-0.0777 F500
G02 X4.489 Y3.511 I-0.6461 J0.1835
G02 X4.276 Y3.333 I-0.5486 J0.4387
G02 X4.000 Y3.248 I-0.3508 J0.6438
G02 X3.700 Y3.276 I-0.0777 J0.7600
G02 X3.425 Y3.425 I0.2309 J0.7605
G02 X3.220 Y3.677 I0.5262 J0.6361
G02 X3.125 Y4.000 I0.7581 J0.3981
G02 X3.163 Y4.347 I0.8836 J0.0777
G02 X3.338 Y4.662 I0.8746 J-0.2781
G02 X3.630 Y4.893 I0.7233 J-0.6134
G02 X4.000 Y4.998 I0.4453 J-0.8720
G02 X4.393 Y4.950 I0.0777 J-1.0069
G02 X4.742 Y4.742 I-0.3453 J-0.9784
G02 X4.970 Y4.402 I-0.7425 J-0.7425
G02 X5.050 Y4.000 I-0.9701 J-0.4018
G02 X3.475 Y3.091 I-1.0500 J0.0000
G02 Y4.909 I0.5250 J0.9093
G02 X5.050 Y4.000 I0.5250 J-0.9093
G02 X3.370 I-0.8400 J0.0000
G02 X4.630 I0.6300 J0.0000
G02 X3.685 Y3.454 Z-2.167 I-0.6300 J0.0000 F200
G02 Y4.546 Z-2.333 I0.3150 J0.5456
G02 X4.630 Y4.000 Z-2.500 I0.3150 J-0.5456
G02 X3.685 Y3.454 I-0.6300 J0.0000
G02 Y4.546 I0.3150 J0.5456
G02 X4.630 Y4.000 I0.3150 J-0.5456
G02 X4.610 Y3.747 I-0.6361 J-0.0777 F500
G02 X4.489 Y3.511 I-0.6461 J0.1835
G02 X4.276 Y3.333 I-0.5486 J0.4387
G02 X4.000 Y3.248 I-0.3508 J0.6438
G02 X3.700 Y3.276 I-0.0777 J0.7600
G02 X3.425 Y3.425 I0.2309 J0.7605
G02 X3.220 Y3.677 I0.5262 J0.6361
G02 X3.125 Y4.000 I0.7581 J0.3981
G02 X3.163 Y4.347 I0.8836 J0.0777
G02 X3.338 Y4.662 I0.8746 J-0.2781
G02 X3.630 Y4.893 I0.7233 J-0.6134
G02 X4.000 Y4.998 I0.4453 J-0.8720
G02 X4.393 Y4.950 I0.0777 J-1.0069
G02 X4.742 Y4.742 I-0.3453 J-0.9784
G02 X4.970 Y4.402 I-0.7425 J-0.7425
G02 X5.050 Y4.000 I-0.9701 J-0.4018
G02 X3.475 Y3.091 I-1.0500 J0.0000
G02 Y4.909 I0.5250 J0.9093
G02 X5.050 Y4.000 I0.5250 J-0.9093
G02 X3.370 I-0.8400 J0.0000
G02 X4.630 I0.6300 J0.0000
G02 X3.685 Y3.454 Z-2.667 I-0.6300 J0.0000 F200
G02 Y4.546 Z-2.833 I0.3150 J0.5456
G02 X4.630 Y4.000 Z-3.000 I0.3150 J-0.5456
G02 X3.685 Y3.454 I-0.6300 J0.0000
G02 Y4.546 I0.3150 J0.5456
G02 X4.630 Y4.000 I0.3150 J-0.5456
G02 X4.610 Y3.747 I-0.6361 J-0.0777 F500
G02 X4.489 Y3.511 I-0.6461 J0.1835
G02 X4.276 Y3.333 I-0.5486 J0.4387
G02 X4.000 Y3.248 I-0.3508 J0.6438
G02 X3.700 Y3.276 I-0.0777 J0.7600
G02 X3.425 Y3.425 I0.2309 J0.7605
G02 X3.220 Y3.677 I0.5262 J0.6361
G02 X3.125 Y4.000 I0.7581 J0.3981
G02 X3.163 Y4.347 I0.8836 J0.0777
G02 X3.338 Y4.662 I0.8746 J-0.2781
G02 X3.630 Y4.893 I0.7233 J-0.6134
G02 X4.000 Y4.998 I0.4453 J-0.8720
G02 X4.393 Y4.950 I0.0777 J-1.0069
G02 X4.742 Y4.742 I-0.3453 J-0.9784
G02 X4.970 Y4.402 I-0.7425 J-0.7425
G02 X5.050 Y4.000 I-0.9701 J-0.4018
G02 X3.475 Y3.091 I-1.0500 J0.0000
G02 Y4.909 I0.5250 J0.9093
G02 X5.050 Y4.000 I0.5250 J-0.9093
G02 X3.370 I-0.8400 J0.0000
G02 X4.630 I0.6300 J0.0000
G02 X3.685 Y3.454 Z-3.167 I-0.6300 J0.0000 F200
G02 Y4.546 Z-3.333 I0.3150 J0.5456
G02 X4.630 Y4.000 Z-3.500 I0.3150 J-0.5456
G02 X3.685 Y3.454 I-0.6300 J0.0000
G02 Y4.546 I0.3150 J0.5456
G02 X4.630 Y4.000 I0.3150 J-0.5456
G02 X4.610 Y3.747 I-0.6361 J-0.0777 F500
G02 X4.489 Y3.511 I-0.6461 J0.1835
G02 X4.276 Y3.333 I-0.5486 J0.4387
G02 X4.000 Y3.248 I-0.3508 J0.6438
G02 X3.700 Y3.276 I-0.0777 J0.7600
G02 X3.425 Y3.425 I0.2309 J0.7605
G02 X3.220 Y3.677 I0.5262 J0.6361
G02 X3.125 Y4.000 I0.7581 J0.3981
G02 X3.163 Y4.347 I0.8836 J0.0777
G02 X3.338 Y4.662 I0.8746 J-0.2781
G02 X3.630 Y4.893 I0.7233 J-0.6134
G02 X4.000 Y4.998 I0.4453 J-0.8720
G02 X4.393 Y4.950 I0.0777 J-1.0069
G02 X4.742 Y4.742 I-0.3453 J-0.9784
G02 X4.970 Y4.402 I-0.7425 J-0.7425
G02 X5.050 Y4.000 I-0.9701 J-0.4018
G02 X3.475 Y3.091 I-1.0500 J0.0000
G02 Y4.909 I0.5250 J0.9093
G02 X5.050 Y4.000 I0.5250 J-0.9093
G02 X3.370 I-0.8400 J0.0000
G02 X4.630 I0.6300 J0.0000
G02 X3.685 Y3.454 Z-3.583 I-0.6300 J0.0000 F200
G02 Y4.546 Z-3.667 I0.3150 J0.5456
G02 X4.630 Y4.000 Z-3.750 I0.3150 J-0.5456
G02 X3.685 Y3.454 I-0.6300 J0.0000
G02 Y4.546 I0.3150 J0.5456
G02 X4.630 Y4.000 I0.3150 J-0.5456
G02 X4.610 Y3.747 I-0.6361 J-0.0777 F500
G02 X4.489 Y3.511 I-0.6461 J0.1835
G02 X4.276 Y3.333 I-0.5486 J0.4387
G02 X4.000 Y3.248 I-0.3508 J0.6438
G02 X3.700 Y3.276 I-0.0777 J0.7600
G02 X3.425 Y3.425 I0.2309 J0.7605
G02 X3.220 Y3.677 I0.5262 J0.6361
G02 X3.125 Y4.000 I0.7581 J0.3981
G02 X3.163 Y4.347 I0.8836 J0.0777
G02 X3.338 Y4.662 I0.8746 J-0.2781
G02 X3.630 Y4.893 I0.7233 J-0.6134
G02 X4.000 Y4.998 I0.4453 J-0.8720
G02 X4.393 Y4.950 I0.0777 J-1.0069
G02 X4.742 Y4.742 I-0.3453 J-0.9784
G02 X4.970 Y4.402 I-0.7425 J-0.7425
G02 X5.050 Y4.000 I-0.9701 J-0.4018
G02 X3.475 Y3.091 I-1.0500 J0.0000
G02 Y4.909 I0.5250 J0.9093
G02 X5.050 Y4.000 I0.5250 J-0.9093
G02 X4.350 Y3.300 Z-3.250 I-0.7000 J0.0000 F200
G00 Z20.000


(No. 11 Part: Part 2)
G00 X3.300 Y14.765 Z20.000
G00 Z0.500
G01 Z-0.500 F200
G01 Y8.660 F500
G01 X3.288 Y8.641
G01 X3.117 Y8.616
G01 X3.030 Y8.597
G01 X2.669 Y8.507
G01 X2.584 Y8.480
G01 X2.233 Y8.355
G01 X2.152 Y8.320
G01 X1.815 Y8.160
G01 X1.737 Y8.118
G01 X1.418 Y7.926
G01 X1.345 Y7.876
G01 X1.045 Y7.654
G01 X0.978 Y7.597
G01 X0.701 Y7.347
G01 X0.639 Y7.284
G01 X0.389 Y7.008
G01 X0.334 Y6.938
G01 X0.112 Y6.639
G01 X0.063 Y6.565
G01 X-0.128 Y6.245
G01 X-0.169 Y6.167
G01 X-0.328 Y5.830
G01 X-0.361 Y5.748
G01 X-0.487 Y5.397
G01 X-0.512 Y5.312
G01 X-0.602 Y4.950
G01 X-0.618 Y4.863
G01 X-0.673 Y4.495
G01 X-0.681 Y4.406
G01 X-0.699 Y4.034
G01 X-0.698 Y3.946
G01 X-0.680 Y3.574
G01 X-0.670 Y3.485
G01 X-0.616 Y3.117
G01 X-0.597 Y3.030
G01 X-0.507 Y2.669
G01 X-0.480 Y2.584
G01 X-0.355 Y2.233
G01 X-0.320 Y2.152
G01 X-0.160 Y1.815
G01 X-0.118 Y1.737
G01 X0.074 Y1.418
G01 X0.124 Y1.345
G01 X0.346 Y1.045
G01 X0.403 Y0.978
G01 X0.653 Y0.701
G01 X0.716 Y0.639
G01 X0.992 Y0.389
G01 X1.062 Y0.334
G01 X1.361 Y0.112
G01 X1.435 Y0.063
G01 X1.755 Y-0.128
G01 X1.833 Y-0.169
G01 X2.170 Y-0.328
G01 X2.252 Y-0.361
G01 X2.603 Y-0.487
G01 X2.688 Y-0.512
G01 X3.050 Y-0.602
G01 X3.137 Y-0.618
G01 X3.505 Y-0.673
G01 X3.594 Y-0.681
G01 X3.966 Y-0.699
G01 X4.054 Y-0.698
G01 X4.426 Y-0.680
G01 X4.515 Y-0.670
G01 X4.883 Y-0.616
G01 X4.970 Y-0.597
G01 X5.331 Y-0.507
G01 X5.416 Y-0.480
G01 X5.767 Y-0.355
G01 X5.848 Y-0.320
G01 X6.185 Y-0.160
G01 X6.263 Y-0.118
G01 X6.582 Y0.074
G01 X6.655 Y0.124
G01 X6.955 Y0.346
G01 X7.022 Y0.403
G01 X7.299 Y0.653
G01 X7.361 Y0.716
G01 X7.611 Y0.992
G01 X7.666 Y1.062
G01 X7.888 Y1.361
G01 X7.937 Y1.435
G01 X8.128 Y1.755
G01 X8.169 Y1.833
G01 X8.328 Y2.170
G01 X8.361 Y2.252
G01 X8.487 Y2.603
G01 X8.512 Y2.688
G01 X8.602 Y3.050
G01 X8.618 Y3.137
G01 X8.641 Y3.288
G01 X8.666 Y3.300
G01 X26.144
G01 X31.544
G01 X82.735
G01 X88.135
G01 X102.340
G01 X102.359 Y3.288
G01 X102.384 Y3.117
G01 X102.403 Y3.030
G01 X102.493 Y2.669
G01 X102.520 Y2.584
G01 X102.645 Y2.233
G01 X102.680 Y2.152
G01 X102.840 Y1.815
G01 X102.882 Y1.737
G01 X103.074 Y1.418
G01 X103.124 Y1.345
G01 X103.346 Y1.045
G01 X103.403 Y0.978
G01 X103.653 Y0.701
G01 X103.716 Y0.639
G01 X103.992 Y0.389
G01 X104.062 Y0.334
G01 X104.361 Y0.112
G01 X104.435 Y0.063
G01 X104.755 Y-0.128
G01 X104.833 Y-0.169
G01 X105.170 Y-0.328
G01 X105.252 Y-0.361
G01 X105.603 Y-0.487
G01 X105.688 Y-0.512
G01 X106.050 Y-0.602
G01 X106.137 Y-0.618
G01 X106.505 Y-0.673
G01 X106.594 Y-0.681
G01 X106.966 Y-0.699
G01 X107.054 Y-0.698
G01 X107.426 Y-0.680
G01 X107.515 Y-0.670
G01 X107.883 Y-0.616
G01 X107.970 Y-0.597
G01 X108.331 Y-0.507
G01 X108.416 Y-0.480
G01 X108.767 Y-0.355
G01 X108.848 Y-0.320
G01 X109.185 Y-0.160
G01 X109.263 Y-0.118
G01 X109.582 Y0.074
G01 X109.655 Y0.124
G01 X109.955 Y0.346
G01 X110.022 Y0.403
G01 X110.299 Y0.653
G01 X110.361 Y0.716
G01 X110.611 Y0.992
G01 X110.666 Y1.062
G01 X110.888 Y1.361
G01 X110.937 Y1.435
G01 X111.128 Y1.755
G01 X111.169 Y1.833
G01 X111.328 Y2.170
G01 X111.361 Y2.252
G01 X111.487 Y2.603
G01 X111.512 Y2.688
G01 X111.602 Y3.050
G01 X111.618 Y3.137
G01 X111.673 Y3.505
G01 X111.681 Y3.594
G01 X111.699 Y3.966
G01 X111.698 Y4.054
G01 X111.680 Y4.426
G01 X111.670 Y4.515
G01 X111.616 Y4.883
G01 X111.597 Y4.970
G01 X111.507 Y5.331
G01 X111.480 Y5.416
G01 X111.355 Y5.767
G01 X111.320 Y5.848
G01 X111.160 Y6.185
G01 X111.118 Y6.263
G01 X110.926 Y6.582
G01 X110.876 Y6.655
G01 X110.654 Y6.955
G01 X110.597 Y7.022
G01 X110.347 Y7.299
G01 X110.284 Y7.361
G01 X110.008 Y7.611
G01 X109.938 Y7.666
G01 X109.639 Y7.888
G01 X109.565 Y7.937
G01 X109.245 Y8.128
G01 X109.167 Y8.169
G01 X108.830 Y8.328
G01 X108.748 Y8.361
G01 X108.397 Y8.487
G01 X108.312 Y8.512
G01 X107.950 Y8.602
G01 X107.863 Y8.618
G01 X107.712 Y8.641
G01 X107.700 Y8.666
G01 Y30.300
G01 Y35.700
G01 Y57.340
G01 X107.712 Y57.359
G01 X107.883 Y57.384
G01 X107.970 Y57.403
G01 X108.331 Y57.493
G01 X108.416 Y57.520
G01 X108.767 Y57.645
G01 X108.848 Y57.680
G01 X109.185 Y57.840
G01 X109.263 Y57.882
G01 X109.582 Y58.074
G01 X109.655 Y58.124
G01 X109.955 Y58.346
G01 X110.022 Y58.403
G01 X110.299 Y58.653
G01 X110.361 Y58.716
G01 X110.611 Y58.992
G01 X110.666 Y59.062
G01 X110.888 Y59.361
G01 X110.937 Y59.435
G01 X111.128 Y59.755
G01 X111.169 Y59.833
G01 X111.328 Y60.170
G01 X111.361 Y60.252
G01 X111.487 Y60.603
G01 X111.512 Y60.688
G01 X111.602 Y61.050
G01 X111.618 Y61.137
G01 X111.673 Y61.505
G01 X111.681 Y61.594
G01 X111.699 Y61.966
G01 X111.698 Y62.054
G01 X111.680 Y62.426
G01 X111.670 Y62.515
G01 X111.616 Y62.883
G01 X111.597 Y62.970
G01 X111.507 Y63.331
G01 X111.480 Y63.416
G01 X111.355 Y63.767
G01 X111.320 Y63.848
G01 X111.160 Y64.185
G01 X111.118 Y64.263
G01 X110.926 Y64.582
G01 X110.876 Y64.655
G01 X110.654 Y64.955
G01 X110.597 Y65.022
G01 X110.347 Y65.299
G01 X110.284 Y65.361
G01 X110.008 Y65.611
G01 X109.938 Y65.666
G01 X109.639 Y65.888
G01 X109.565 Y65.937
G01 X109.245 Y66.128
G01 X109.167 Y66.169
G01 X108.830 Y66.328
G01 X108.748 Y66.361
G01 X108.397 Y66.487
G01 X108.312 Y66.512
G01 X107.950 Y66.602
G01 X107.863 Y66.618
G01 X107.495 Y66.673
G01 X107.406 Y66.681
G01 X107.034 Y66.699
G01 X106.946 Y66.698
G01 X106.574 Y66.680
G01 X106.485 Y66.670
G01 X106.117 Y66.616
G01 X106.030 Y66.597
G01 X105.669 Y66.507
G01 X105.584 Y66.480
G01 X105.233 Y66.355
G01 X105.152 Y66.320
G01 X104.815 Y66.160
G01 X104.737 Y66.118
G01 X104.418 Y65.926
G01 X104.345 Y65.876
G01 X104.045 Y65.654
G01 X103.978 Y65.597
G01 X103.701 Y65.347
G01 X103.639 Y65.284
G01 X103.389 Y65.008
G01 X103.334 Y64.938
G01 X103.112 Y64.639
G01 X103.063 Y64.565
G01 X102.872 Y64.245
G01 X102.831 Y64.167
G01 X102.672 Y63.830
G01 X102.639 Y63.748
G01 X102.513 Y63.397
G01 X102.488 Y63.312
G01 X102.398 Y62.950
G01 X102.382 Y62.863
G01 X102.359 Y62.712
G01 X102.334 Y62.700
G01 X89.796
G01 X84.396
G01 X31.655
G01 X26.255
G01 X8.540
G01 X8.140 Y64.181
G03 X8.057 Y64.373 I-0.6761 J-0.1812
G01 X7.867 Y64.670
G01 X7.820 Y64.736
G01 X7.620 Y64.997
G01 X7.567 Y65.059
G01 X7.345 Y65.301
G01 X7.287 Y65.358
G01 X7.044 Y65.580
G01 X6.981 Y65.632
G01 X6.720 Y65.832
G01 X6.654 Y65.878
G01 X6.376 Y66.054
G01 X6.305 Y66.094
G01 X6.014 Y66.246
G01 X5.940 Y66.280
G01 X5.636 Y66.405
G01 X5.560 Y66.432
G01 X5.246 Y66.531
G01 X5.167 Y66.551
G01 X4.846 Y66.623
G01 X4.766 Y66.636
G01 X4.440 Y66.679
G01 X4.359 Y66.685
G01 X4.031 Y66.699
G01 X3.951
G01 X3.644 Y66.686
G01 X3.568 Y66.679
G01 X3.263 Y66.641
G01 X3.187 Y66.628
G01 X2.886 Y66.566
G01 X2.811 Y66.546
G01 X2.517 Y66.459
G01 X2.444 Y66.434
G01 X2.157 Y66.323
G01 X2.087 Y66.292
G01 X1.810 Y66.158
G01 X1.742 Y66.121
G01 X1.477 Y65.965
G01 X1.413 Y65.923
G01 X1.162 Y65.746
G01 X1.101 Y65.698
G01 X0.865 Y65.501
G01 X0.809 Y65.449
G01 X0.590 Y65.233
G01 X0.537 Y65.176
G01 X0.337 Y64.944
G01 X0.289 Y64.883
G01 X0.108 Y64.635
G01 X0.066 Y64.570
G01 X-0.094 Y64.308
G01 X-0.131 Y64.240
G01 X-0.269 Y63.966
G01 X-0.300 Y63.895
G01 X-0.415 Y63.610
G01 X-0.440 Y63.537
G01 X-0.532 Y63.244
G01 X-0.552 Y63.166
G01 X-0.626 Y62.827
G01 X-0.639 Y62.744
G01 X-0.682 Y62.401
G01 X-0.688 Y62.317
G01 X-0.699 Y61.971
G01 X-0.697 Y61.886
G01 X-0.677 Y61.541
G01 X-0.667 Y61.457
G01 X-0.615 Y61.115
G01 X-0.598 Y61.032
G01 X-0.515 Y60.696
G01 X-0.490 Y60.616
G01 X-0.377 Y60.288
G01 X-0.345 Y60.211
G01 X-0.202 Y59.895
G01 X-0.163 Y59.821
G01 X0.009 Y59.520
G01 X0.054 Y59.449
G01 X0.252 Y59.165
G01 X0.304 Y59.099
G01 X0.527 Y58.834
G01 X0.585 Y58.773
G01 X0.832 Y58.529
G01 X0.895 Y58.474
G01 X1.163 Y58.254
G01 X1.231 Y58.204
G01 X1.517 Y58.010
G01 X1.589 Y57.967
G01 X1.893 Y57.800
G01 X1.969 Y57.763
G01 X2.286 Y57.624
G01 X2.365 Y57.595
G01 X2.694 Y57.486
G01 X2.775 Y57.464
G01 X3.112 Y57.385
G01 X3.195 Y57.371
G01 X3.281 Y57.359
G01 X3.300 Y57.331
G01 Y51.225
G01 Y45.825
G01 Y39.750
G01 X3.303 Y39.680
G03 X4.020 Y39.050 I0.6970 J0.0702
G01 X8.425
G01 Y26.950
G01 X4.000
G03 X3.302 Y26.300 I0.0000 J-0.7000
G01 X3.300 Y26.230
G01 Y20.165
G01 Y14.765
G01 Z-1.000 F200
G01 Y8.660 F500
G01 X3.288 Y8.641
G01 X3.117 Y8.616
G01 X3.030 Y8.597
G01 X2.669 Y8.507
G01 X2.584 Y8.480
G01 X2.233 Y8.355
G01 X2.152 Y8.320
G01 X1.815 Y8.160
G01 X1.737 Y8.118
G01 X1.418 Y7.926
G01 X1.345 Y7.876
G01 X1.045 Y7.654
G01 X0.978 Y7.597
G01 X0.701 Y7.347
G01 X0.639 Y7.284
G01 X0.389 Y7.008
G01 X0.334 Y6.938
G01 X0.112 Y6.639
G01 X0.063 Y6.565
G01 X-0.128 Y6.245
G01 X-0.169 Y6.167
G01 X-0.328 Y5.830
G01 X-0.361 Y5.748
G01 X-0.487 Y5.397
G01 X-0.512 Y5.312
G01 X-0.602 Y4.950
G01 X-0.618 Y4.863
G01 X-0.673 Y4.495
G01 X-0.681 Y4.406
G01 X-0.699 Y4.034
G01 X-0.698 Y3.946
G01 X-0.680 Y3.574
G01 X-0.670 Y3.485
G01 X-0.616 Y3.117
G01 X-0.597 Y3.030
G01 X-0.507 Y2.669
G01 X-0.480 Y2.584
G01 X-0.355 Y2.233
G01 X-0.320 Y2.152
G01 X-0.160 Y1.815
G01 X-0.118 Y1.737
G01 X0.074 Y1.418
G01 X0.124 Y1.345
G01 X0.346 Y1.045
G01 X0.403 Y0.978
G01 X0.653 Y0.701
G01 X0.716 Y0.639
G01 X0.992 Y0.389
G01 X1.062 Y0.334
G01 X1.361 Y0.112
G01 X1.435 Y0.063
G01 X1.755 Y-0.128
G01 X1.833 Y-0.169
G01 X2.170 Y-0.328
G01 X2.252 Y-0.361
G01 X2.603 Y-0.487
G01 X2.688 Y-0.512
G01 X3.050 Y-0.602
G01 X3.137 Y-0.618
G01 X3.505 Y-0.673
G01 X3.594 Y-0.681
G01 X3.966 Y-0.699
G01 X4.054 Y-0.698
G01 X4.426 Y-0.680
G01 X4.515 Y-0.670
G01 X4.883 Y-0.616
G01 X4.970 Y-0.597
G01 X5.331 Y-0.507
G01 X5.416 Y-0.480
G01 X5.767 Y-0.355
G01 X5.848 Y-0.320
G01 X6.185 Y-0.160
G01 X6.263 Y-0.118
G01 X6.582 Y0.074
G01 X6.655 Y0.124
G01 X6.955 Y0.346
G01 X7.022 Y0.403
G01 X7.299 Y0.653
G01 X7.361 Y0.716
G01 X7.611 Y0.992
G01 X7.666 Y1.062
G01 X7.888 Y1.361
G01 X7.937 Y1.435
G01 X8.128 Y1.755
G01 X8.169 Y1.833
G01 X8.328 Y2.170
G01 X8.361 Y2.252
G01 X8.487 Y2.603
G01 X8.512 Y2.688
G01 X8.602 Y3.050
G01 X8.618 Y3.137
G01 X8.641 Y3.288
G01 X8.666 Y3.300
G01 X26.144
G01 X31.544
G01 X82.735
G01 X88.135
G01 X102.340
G01 X102.359 Y3.288
G01 X102.384 Y3.117
G01 X102.403 Y3.030
G01 X102.493 Y2.669
G01 X102.520 Y2.584
G01 X102.645 Y2.233
G01 X102.680 Y2.152
G01 X102.840 Y1.815
G01 X102.882 Y1.737
G01 X103.074 Y1.418
G01 X103.124 Y1.345
G01 X103.346 Y1.045
G01 X103.403 Y0.978
G01 X103.653 Y0.701
G01 X103.716 Y0.639
G01 X103.992 Y0.389
G01 X104.062 Y0.334
G01 X104.361 Y0.112
G01 X104.435 Y0.063
G01 X104.755 Y-0.128
G01 X104.833 Y-0.169
G01 X105.170 Y-0.328
G01 X105.252 Y-0.361
G01 X105.603 Y-0.487
G01 X105.688 Y-0.512
G01 X106.050 Y-0.602
G01 X106.137 Y-0.618
G01 X106.505 Y-0.673
G01 X106.594 Y-0.681
G01 X106.966 Y-0.699
G01 X107.054 Y-0.698
G01 X107.426 Y-0.680
G01 X107.515 Y-0.670
G01 X107.883 Y-0.616
G01 X107.970 Y-0.597
G01 X108.331 Y-0.507
G01 X108.416 Y-0.480
G01 X108.767 Y-0.355
G01 X108.848 Y-0.320
G01 X109.185 Y-0.160
G01 X109.263 Y-0.118
G01 X109.582 Y0.074
G01 X109.655 Y0.124
G01 X109.955 Y0.346
G01 X110.022 Y0.403
G01 X110.299 Y0.653
G01 X110.361 Y0.716
G01 X110.611 Y0.992
G01 X110.666 Y1.062
G01 X110.888 Y1.361
G01 X110.937 Y1.435
G01 X111.128 Y1.755
G01 X111.169 Y1.833
G01 X111.328 Y2.170
G01 X111.361 Y2.252
G01 X111.487 Y2.603
G01 X111.512 Y2.688
G01 X111.602 Y3.050
G01 X111.618 Y3.137
G01 X111.673 Y3.505
G01 X111.681 Y3.594
G01 X111.699 Y3.966
G01 X111.698 Y4.054
G01 X111.680 Y4.426
G01 X111.670 Y4.515
G01 X111.616 Y4.883
G01 X111.597 Y4.970
G01 X111.507 Y5.331
G01 X111.480 Y5.416
G01 X111.355 Y5.767
G01 X111.320 Y5.848
G01 X111.160 Y6.185
G01 X111.118 Y6.263
G01 X110.926 Y6.582
G01 X110.876 Y6.655
G01 X110.654 Y6.955
G01 X110.597 Y7.022
G01 X110.347 Y7.299
G01 X110.284 Y7.361
G01 X110.008 Y7.611
G01 X109.938 Y7.666
G01 X109.639 Y7.888
G01 X109.565 Y7.937
G01 X109.245 Y8.128
G01 X109.167 Y8.169
G01 X108.830 Y8.328
G01 X108.748 Y8.361
G01 X108.397 Y8.487
G01 X108.312 Y8.512
G01 X107.950 Y8.602
G01 X107.863 Y8.618
G01 X107.712 Y8.641
G01 X107.700 Y8.666
G01 Y30.300
G01 Y35.700
G01 Y57.340
G01 X107.712 Y57.359
G01 X107.883 Y57.384
G01 X107.970 Y57.403
G01 X108.331 Y57.493
G01 X108.416 Y57.520
G01 X108.767 Y57.645
G01 X108.848 Y57.680
G01 X109.185 Y57.840
G01 X109.263 Y57.882
G01 X109.582 Y58.074
G01 X109.655 Y58.124
G01 X109.955 Y58.346
G01 X110.022 Y58.403
G01 X110.299 Y58.653
G01 X110.361 Y58.716
G01 X110.611 Y58.992
G01 X110.666 Y59.062
G01 X110.888 Y59.361
G01 X110.937 Y59.435
G01 X111.128 Y59.755
G01 X111.169 Y59.833
G01 X111.328 Y60.170
G01 X111.361 Y60.252
G01 X111.487 Y60.603
G01 X111.512 Y60.688
G01 X111.602 Y61.050
G01 X111.618 Y61.137
G01 X111.673 Y61.505
G01 X111.681 Y61.594
G01 X111.699 Y61.966
G01 X111.698 Y62.054
G01 X111.680 Y62.426
G01 X111.670 Y62.515
G01 X111.616 Y62.883
G01 X111.597 Y62.970
G01 X111.507 Y63.331
G01 X111.480 Y63.416
G01 X111.355 Y63.767
G01 X111.320 Y63.848
G01 X111.160 Y64.185
G01 X111.118 Y64.263
G01 X110.926 Y64.582
G01 X110.876 Y64.655
G01 X110.654 Y64.955
G01 X110.597 Y65.022
G01 X110.347 Y65.299
G01 X110.284 Y65.361
G01 X110.008 Y65.611
G01 X109.938 Y65.666
G01 X109.639 Y65.888
G01 X109.565 Y65.937
G01 X109.245 Y66.128
G01 X109.167 Y66.169
G01 X108.830 Y66.328
G01 X108.748 Y66.361
G01 X108.397 Y66.487
G01 X108.312 Y66.512
G01 X107.950 Y66.602
G01 X107.863 Y66.618
G01 X107.495 Y66.673
G01 X107.406 Y66.681
G01 X107.034 Y66.699
G01 X106.946 Y66.698
G01 X106.574 Y66.680
G01 X106.485 Y66.670
G01 X106.117 Y66.616
G01 X106.030 Y66.597
G01 X105.669 Y66.507
G01 X105.584 Y66.480
G01 X105.233 Y66.355
G01 X105.152 Y66.320
G01 X104.815 Y66.160
G01 X104.737 Y66.118
G01 X104.418 Y65.926
G01 X104.345 Y65.876
G01 X104.045 Y65.654
G01 X103.978 Y65.597
G01 X103.701 Y65.347
G01 X103.639 Y65.284
G01 X103.389 Y65.008
G01 X103.334 Y64.938
G01 X103.112 Y64.639
G01 X103.063 Y64.565
G01 X102.872 Y64.245
G01 X102.831 Y64.167
G01 X102.672 Y63.830
G01 X102.639 Y63.748
G01 X102.513 Y63.397
G01 X102.488 Y63.312
G01 X102.398 Y62.950
G01 X102.382 Y62.863
G01 X102.359 Y62.712
G01 X102.334 Y62.700
G01 X89.796
G01 X84.396
G01 X31.655
G01 X26.255
G01 X8.540
G01 X8.140 Y64.181
G03 X8.057 Y64.373 I-0.6761 J-0.1812
G01 X7.867 Y64.670
G01 X7.820 Y64.736
G01 X7.620 Y64.997
G01 X7.567 Y65.059
G01 X7.345 Y65.301
G01 X7.287 Y65.358
G01 X7.044 Y65.580
G01 X6.981 Y65.632
G01 X6.720 Y65.832
G01 X6.654 Y65.878
G01 X6.376 Y66.054
G01 X6.305 Y66.094
G01 X6.014 Y66.246
G01 X5.940 Y66.280
G01 X5.636 Y66.405
G01 X5.560 Y66.432
G01 X5.246 Y66.531
G01 X5.167 Y66.551
G01 X4.846 Y66.623
G01 X4.766 Y66.636
G01 X4.440 Y66.679
G01 X4.359 Y66.685
G01 X4.031 Y66.699
G01 X3.951
G01 X3.644 Y66.686
G01 X3.568 Y66.679
G01 X3.263 Y66.641
G01 X3.187 Y66.628
G01 X2.886 Y66.566
G01 X2.811 Y66.546
G01 X2.517 Y66.459
G01 X2.444 Y66.434
G01 X2.157 Y66.323
G01 X2.087 Y66.292
G01 X1.810 Y66.158
G01 X1.742 Y66.121
G01 X1.477 Y65.965
G01 X1.413 Y65.923
G01 X1.162 Y65.746
G01 X1.101 Y65.698
G01 X0.865 Y65.501
G01 X0.809 Y65.449
G01 X0.590 Y65.233
G01 X0.537 Y65.176
G01 X0.337 Y64.944
G01 X0.289 Y64.883
G01 X0.108 Y64.635
G01 X0.066 Y64.570
G01 X-0.094 Y64.308
G01 X-0.131 Y64.240
G01 X-0.269 Y63.966
G01 X-0.300 Y63.895
G01 X-0.415 Y63.610
G01 X-0.440 Y63.537
G01 X-0.532 Y63.244
G01 X-0.552 Y63.166
G01 X-0.626 Y62.827
G01 X-0.639 Y62.744
G01 X-0.682 Y62.401
G01 X-0.688 Y62.317
G01 X-0.699 Y61.971
G01 X-0.697 Y61.886
G01 X-0.677 Y61.541
G01 X-0.667 Y61.457
G01 X-0.615 Y61.115
G01 X-0.598 Y61.032
G01 X-0.515 Y60.696
G01 X-0.490 Y60.616
G01 X-0.377 Y60.288
G01 X-0.345 Y60.211
G01 X-0.202 Y59.895
G01 X-0.163 Y59.821
G01 X0.009 Y59.520
G01 X0.054 Y59.449
G01 X0.252 Y59.165
G01 X0.304 Y59.099
G01 X0.527 Y58.834
G01 X0.585 Y58.773
G01 X0.832 Y58.529
G01 X0.895 Y58.474
G01 X1.163 Y58.254
G01 X1.231 Y58.204
G01 X1.517 Y58.010
G01 X1.589 Y57.967
G01 X1.893 Y57.800
G01 X1.969 Y57.763
G01 X2.286 Y57.624
G01 X2.365 Y57.595
G01 X2.694 Y57.486
G01 X2.775 Y57.464
G01 X3.112 Y57.385
G01 X3.195 Y57.371
G01 X3.281 Y57.359
G01 X3.300 Y57.331
G01 Y51.225
G01 Y45.825
G01 Y39.750
G01 X3.303 Y39.680
G03 X4.020 Y39.050 I0.6970 J0.0702
G01 X8.425
G01 Y26.950
G01 X4.000
G03 X3.302 Y26.300 I0.0000 J-0.7000
G01 X3.300 Y26.230
G01 Y20.165
G01 Y14.765
G01 Z-1.500 F200
G01 Y8.660 F500
G01 X3.288 Y8.641
G01 X3.117 Y8.616
G01 X3.030 Y8.597
G01 X2.669 Y8.507
G01 X2.584 Y8.480
G01 X2.233 Y8.355
G01 X2.152 Y8.320
G01 X1.815 Y8.160
G01 X1.737 Y8.118
G01 X1.418 Y7.926
G01 X1.345 Y7.876
G01 X1.045 Y7.654
G01 X0.978 Y7.597
G01 X0.701 Y7.347
G01 X0.639 Y7.284
G01 X0.389 Y7.008
G01 X0.334 Y6.938
G01 X0.112 Y6.639
G01 X0.063 Y6.565
G01 X-0.128 Y6.245
G01 X-0.169 Y6.167
G01 X-0.328 Y5.830
G01 X-0.361 Y5.748
G01 X-0.487 Y5.397
G01 X-0.512 Y5.312
G01 X-0.602 Y4.950
G01 X-0.618 Y4.863
G01 X-0.673 Y4.495
G01 X-0.681 Y4.406
G01 X-0.699 Y4.034
G01 X-0.698 Y3.946
G01 X-0.680 Y3.574
G01 X-0.670 Y3.485
G01 X-0.616 Y3.117
G01 X-0.597 Y3.030
G01 X-0.507 Y2.669
G01 X-0.480 Y2.584
G01 X-0.355 Y2.233
G01 X-0.320 Y2.152
G01 X-0.160 Y1.815
G01 X-0.118 Y1.737
G01 X0.074 Y1.418
G01 X0.124 Y1.345
G01 X0.346 Y1.045
G01 X0.403 Y0.978
G01 X0.653 Y0.701
G01 X0.716 Y0.639
G01 X0.992 Y0.389
G01 X1.062 Y0.334
G01 X1.361 Y0.112
G01 X1.435 Y0.063
G01 X1.755 Y-0.128
G01 X1.833 Y-0.169
G01 X2.170 Y-0.328
G01 X2.252 Y-0.361
G01 X2.603 Y-0.487
G01 X2.688 Y-0.512
G01 X3.050 Y-0.602
G01 X3.137 Y-0.618
G01 X3.505 Y-0.673
G01 X3.594 Y-0.681
G01 X3.966 Y-0.699
G01 X4.054 Y-0.698
G01 X4.426 Y-0.680
G01 X4.515 Y-0.670
G01 X4.883 Y-0.616
G01 X4.970 Y-0.597
G01 X5.331 Y-0.507
G01 X5.416 Y-0.480
G01 X5.767 Y-0.355
G01 X5.848 Y-0.320
G01 X6.185 Y-0.160
G01 X6.263 Y-0.118
G01 X6.582 Y0.074
G01 X6.655 Y0.124
G01 X6.955 Y0.346
G01 X7.022 Y0.403
G01 X7.299 Y0.653
G01 X7.361 Y0.716
G01 X7.611 Y0.992
G01 X7.666 Y1.062
G01 X7.888 Y1.361
G01 X7.937 Y1.435
G01 X8.128 Y1.755
G01 X8.169 Y1.833
G01 X8.328 Y2.170
G01 X8.361 Y2.252
G01 X8.487 Y2.603
G01 X8.512 Y2.688
G01 X8.602 Y3.050
G01 X8.618 Y3.137
G01 X8.641 Y3.288
G01 X8.666 Y3.300
G01 X26.144
G01 X31.544
G01 X82.735
G01 X88.135
G01 X102.340
G01 X102.359 Y3.288
G01 X102.384 Y3.117
G01 X102.403 Y3.030
G01 X102.493 Y2.669
G01 X102.520 Y2.584
G01 X102.645 Y2.233
G01 X102.680 Y2.152
G01 X102.840 Y1.815
G01 X102.882 Y1.737
G01 X103.074 Y1.418
G01 X103.124 Y1.345
G01 X103.346 Y1.045
G01 X103.403 Y0.978
G01 X103.653 Y0.701
G01 X103.716 Y0.639
G01 X103.992 Y0.389
G01 X104.062 Y0.334
G01 X104.361 Y0.112
G01 X104.435 Y0.063
G01 X104.755 Y-0.128
G01 X104.833 Y-0.169
G01 X105.170 Y-0.328
G01 X105.252 Y-0.361
G01 X105.603 Y-0.487
G01 X105.688 Y-0.512
G01 X106.050 Y-0.602
G01 X106.137 Y-0.618
G01 X106.505 Y-0.673
G01 X106.594 Y-0.681
G01 X106.966 Y-0.699
G01 X107.054 Y-0.698
G01 X107.426 Y-0.680
G01 X107.515 Y-0.670
G01 X107.883 Y-0.616
G01 X107.970 Y-0.597
G01 X108.331 Y-0.507
G01 X108.416 Y-0.480
G01 X108.767 Y-0.355
G01 X108.848 Y-0.320
G01 X109.185 Y-0.160
G01 X109.263 Y-0.118
G01 X109.582 Y0.074
G01 X109.655 Y0.124
G01 X109.955 Y0.346
G01 X110.022 Y0.403
G01 X110.299 Y0.653
G01 X110.361 Y0.716
G01 X110.611 Y0.992
G01 X110.666 Y1.062
G01 X110.888 Y1.361
G01 X110.937 Y1.435
G01 X111.128 Y1.755
G01 X111.169 Y1.833
G01 X111.328 Y2.170
G01 X111.361 Y2.252
G01 X111.487 Y2.603
G01 X111.512 Y2.688
G01 X111.602 Y3.050
G01 X111.618 Y3.137
G01 X111.673 Y3.505
G01 X111.681 Y3.594
G01 X111.699 Y3.966
G01 X111.698 Y4.054
G01 X111.680 Y4.426
G01 X111.670 Y4.515
G01 X111.616 Y4.883
G01 X111.597 Y4.970
G01 X111.507 Y5.331
G01 X111.480 Y5.416
G01 X111.355 Y5.767
G01 X111.320 Y5.848
G01 X111.160 Y6.185
G01 X111.118 Y6.263
G01 X110.926 Y6.582
G01 X110.876 Y6.655
G01 X110.654 Y6.955
G01 X110.597 Y7.022
G01 X110.347 Y7.299
G01 X110.284 Y7.361
G01 X110.008 Y7.611
G01 X109.938 Y7.666
G01 X109.639 Y7.888
G01 X109.565 Y7.937
G01 X109.245 Y8.128
G01 X109.167 Y8.169
G01 X108.830 Y8.328
G01 X108.748 Y8.361
G01 X108.397 Y8.487
G01 X108.312 Y8.512
G01 X107.950 Y8.602
G01 X107.863 Y8.618
G01 X107.712 Y8.641
G01 X107.700 Y8.666
G01 Y30.300
G01 Y35.700
G01 Y57.340
G01 X107.712 Y57.359
G01 X107.883 Y57.384
G01 X107.970 Y57.403
G01 X108.331 Y57.493
G01 X108.416 Y57.520
G01 X108.767 Y57.645
G01 X108.848 Y57.680
G01 X109.185 Y57.840
G01 X109.263 Y57.882
G01 X109.582 Y58.074
G01 X109.655 Y58.124
G01 X109.955 Y58.346
G01 X110.022 Y58.403
G01 X110.299 Y58.653
G01 X110.361 Y58.716
G01 X110.611 Y58.992
G01 X110.666 Y59.062
G01 X110.888 Y59.361
G01 X110.937 Y59.435
G01 X111.128 Y59.755
G01 X111.169 Y59.833
G01 X111.328 Y60.170
G01 X111.361 Y60.252
G01 X111.487 Y60.603
G01 X111.512 Y60.688
G01 X111.602 Y61.050
G01 X111.618 Y61.137
G01 X111.673 Y61.505
G01 X111.681 Y61.594
G01 X111.699 Y61.966
G01 X111.698 Y62.054
G01 X111.680 Y62.426
G01 X111.670 Y62.515
G01 X111.616 Y62.883
G01 X111.597 Y62.970
G01 X111.507 Y63.331
G01 X111.480 Y63.416
G01 X111.355 Y63.767
G01 X111.320 Y63.848
G01 X111.160 Y64.185
G01 X111.118 Y64.263
G01 X110.926 Y64.582
G01 X110.876 Y64.655
G01 X110.654 Y64.955
G01 X110.597 Y65.022
G01 X110.347 Y65.299
G01 X110.284 Y65.361
G01 X110.008 Y65.611
G01 X109.938 Y65.666
G01 X109.639 Y65.888
G01 X109.565 Y65.937
G01 X109.245 Y66.128
G01 X109.167 Y66.169
G01 X108.830 Y66.328
G01 X108.748 Y66.361
G01 X108.397 Y66.487
G01 X108.312 Y66.512
G01 X107.950 Y66.602
G01 X107.863 Y66.618
G01 X107.495 Y66.673
G01 X107.406 Y66.681
G01 X107.034 Y66.699
G01 X106.946 Y66.698
G01 X106.574 Y66.680
G01 X106.485 Y66.670
G01 X106.117 Y66.616
G01 X106.030 Y66.597
G01 X105.669 Y66.507
G01 X105.584 Y66.480
G01 X105.233 Y66.355
G01 X105.152 Y66.320
G01 X104.815 Y66.160
G01 X104.737 Y66.118
G01 X104.418 Y65.926
G01 X104.345 Y65.876
G01 X104.045 Y65.654
G01 X103.978 Y65.597
G01 X103.701 Y65.347
G01 X103.639 Y65.284
G01 X103.389 Y65.008
G01 X103.334 Y64.938
G01 X103.112 Y64.639
G01 X103.063 Y64.565
G01 X102.872 Y64.245
G01 X102.831 Y64.167
G01 X102.672 Y63.830
G01 X102.639 Y63.748
G01 X102.513 Y63.397
G01 X102.488 Y63.312
G01 X102.398 Y62.950
G01 X102.382 Y62.863
G01 X102.359 Y62.712
G01 X102.334 Y62.700
G01 X89.796
G01 X84.396
G01 X31.655
G01 X26.255
G01 X8.540
G01 X8.140 Y64.181
G03 X8.057 Y64.373 I-0.6761 J-0.1812
G01 X7.867 Y64.670
G01 X7.820 Y64.736
G01 X7.620 Y64.997
G01 X7.567 Y65.059
G01 X7.345 Y65.301
G01 X7.287 Y65.358
G01 X7.044 Y65.580
G01 X6.981 Y65.632
G01 X6.720 Y65.832
G01 X6.654 Y65.878
G01 X6.376 Y66.054
G01 X6.305 Y66.094
G01 X6.014 Y66.246
G01 X5.940 Y66.280
G01 X5.636 Y66.405
G01 X5.560 Y66.432
G01 X5.246 Y66.531
G01 X5.167 Y66.551
G01 X4.846 Y66.623
G01 X4.766 Y66.636
G01 X4.440 Y66.679
G01 X4.359 Y66.685
G01 X4.031 Y66.699
G01 X3.951
G01 X3.644 Y66.686
G01 X3.568 Y66.679
G01 X3.263 Y66.641
G01 X3.187 Y66.628
G01 X2.886 Y66.566
G01 X2.811 Y66.546
G01 X2.517 Y66.459
G01 X2.444 Y66.434
G01 X2.157 Y66.323
G01 X2.087 Y66.292
G01 X1.810 Y66.158
G01 X1.742 Y66.121
G01 X1.477 Y65.965
G01 X1.413 Y65.923
G01 X1.162 Y65.746
G01 X1.101 Y65.698
G01 X0.865 Y65.501
G01 X0.809 Y65.449
G01 X0.590 Y65.233
G01 X0.537 Y65.176
G01 X0.337 Y64.944
G01 X0.289 Y64.883
G01 X0.108 Y64.635
G01 X0.066 Y64.570
G01 X-0.094 Y64.308
G01 X-0.131 Y64.240
G01 X-0.269 Y63.966
G01 X-0.300 Y63.895
G01 X-0.415 Y63.610
G01 X-0.440 Y63.537
G01 X-0.532 Y63.244
G01 X-0.552 Y63.166
G01 X-0.626 Y62.827
G01 X-0.639 Y62.744
G01 X-0.682 Y62.401
G01 X-0.688 Y62.317
G01 X-0.699 Y61.971
G01 X-0.697 Y61.886
G01 X-0.677 Y61.541
G01 X-0.667 Y61.457
G01 X-0.615 Y61.115
G01 X-0.598 Y61.032
G01 X-0.515 Y60.696
G01 X-0.490 Y60.616
G01 X-0.377 Y60.288
G01 X-0.345 Y60.211
G01 X-0.202 Y59.895
G01 X-0.163 Y59.821
G01 X0.009 Y59.520
G01 X0.054 Y59.449
G01 X0.252 Y59.165
G01 X0.304 Y59.099
G01 X0.527 Y58.834
G01 X0.585 Y58.773
G01 X0.832 Y58.529
G01 X0.895 Y58.474
G01 X1.163 Y58.254
G01 X1.231 Y58.204
G01 X1.517 Y58.010
G01 X1.589 Y57.967
G01 X1.893 Y57.800
G01 X1.969 Y57.763
G01 X2.286 Y57.624
G01 X2.365 Y57.595
G01 X2.694 Y57.486
G01 X2.775 Y57.464
G01 X3.112 Y57.385
G01 X3.195 Y57.371
G01 X3.281 Y57.359
G01 X3.300 Y57.331
G01 Y51.225
G01 Y45.825
G01 Y39.750
G01 X3.303 Y39.680
G03 X4.020 Y39.050 I0.6970 J0.0702
G01 X8.425
G01 Y26.950
G01 X4.000
G03 X3.302 Y26.300 I0.0000 J-0.7000
G01 X3.300 Y26.230
G01 Y20.165
G01 Y14.765
G01 Z-2.000 F200
G01 Y8.660 F500
G01 X3.288 Y8.641
G01 X3.117 Y8.616
G01 X3.030 Y8.597
G01 X2.669 Y8.507
G01 X2.584 Y8.480
G01 X2.233 Y8.355
G01 X2.152 Y8.320
G01 X1.815 Y8.160
G01 X1.737 Y8.118
G01 X1.418 Y7.926
G01 X1.345 Y7.876
G01 X1.045 Y7.654
G01 X0.978 Y7.597
G01 X0.701 Y7.347
G01 X0.639 Y7.284
G01 X0.389 Y7.008
G01 X0.334 Y6.938
G01 X0.112 Y6.639
G01 X0.063 Y6.565
G01 X-0.128 Y6.245
G01 X-0.169 Y6.167
G01 X-0.328 Y5.830
G01 X-0.361 Y5.748
G01 X-0.487 Y5.397
G01 X-0.512 Y5.312
G01 X-0.602 Y4.950
G01 X-0.618 Y4.863
G01 X-0.673 Y4.495
G01 X-0.681 Y4.406
G01 X-0.699 Y4.034
G01 X-0.698 Y3.946
G01 X-0.680 Y3.574
G01 X-0.670 Y3.485
G01 X-0.616 Y3.117
G01 X-0.597 Y3.030
G01 X-0.507 Y2.669
G01 X-0.480 Y2.584
G01 X-0.355 Y2.233
G01 X-0.320 Y2.152
G01 X-0.160 Y1.815
G01 X-0.118 Y1.737
G01 X0.074 Y1.418
G01 X0.124 Y1.345
G01 X0.346 Y1.045
G01 X0.403 Y0.978
G01 X0.653 Y0.701
G01 X0.716 Y0.639
G01 X0.992 Y0.389
G01 X1.062 Y0.334
G01 X1.361 Y0.112
G01 X1.435 Y0.063
G01 X1.755 Y-0.128
G01 X1.833 Y-0.169
G01 X2.170 Y-0.328
G01 X2.252 Y-0.361
G01 X2.603 Y-0.487
G01 X2.688 Y-0.512
G01 X3.050 Y-0.602
G01 X3.137 Y-0.618
G01 X3.505 Y-0.673
G01 X3.594 Y-0.681
G01 X3.966 Y-0.699
G01 X4.054 Y-0.698
G01 X4.426 Y-0.680
G01 X4.515 Y-0.670
G01 X4.883 Y-0.616
G01 X4.970 Y-0.597
G01 X5.331 Y-0.507
G01 X5.416 Y-0.480
G01 X5.767 Y-0.355
G01 X5.848 Y-0.320
G01 X6.185 Y-0.160
G01 X6.263 Y-0.118
G01 X6.582 Y0.074
G01 X6.655 Y0.124
G01 X6.955 Y0.346
G01 X7.022 Y0.403
G01 X7.299 Y0.653
G01 X7.361 Y0.716
G01 X7.611 Y0.992
G01 X7.666 Y1.062
G01 X7.888 Y1.361
G01 X7.937 Y1.435
G01 X8.128 Y1.755
G01 X8.169 Y1.833
G01 X8.328 Y2.170
G01 X8.361 Y2.252
G01 X8.487 Y2.603
G01 X8.512 Y2.688
G01 X8.602 Y3.050
G01 X8.618 Y3.137
G01 X8.641 Y3.288
G01 X8.666 Y3.300
G01 X26.144
G00 Z-1.750
G01 X31.544
G01 Z-2.000 F200
G01 X82.735 F500
G00 Z-1.750
G01 X88.135
G01 Z-2.000 F200
G01 X102.340 F500
G01 X102.359 Y3.288
G01 X102.384 Y3.117
G01 X102.403 Y3.030
G01 X102.493 Y2.669
G01 X102.520 Y2.584
G01 X102.645 Y2.233
G01 X102.680 Y2.152
G01 X102.840 Y1.815
G01 X102.882 Y1.737
G01 X103.074 Y1.418
G01 X103.124 Y1.345
G01 X103.346 Y1.045
G01 X103.403 Y0.978
G01 X103.653 Y0.701
G01 X103.716 Y0.639
G01 X103.992 Y0.389
G01 X104.062 Y0.334
G01 X104.361 Y0.112
G01 X104.435 Y0.063
G01 X104.755 Y-0.128
G01 X104.833 Y-0.169
G01 X105.170 Y-0.328
G01 X105.252 Y-0.361
G01 X105.603 Y-0.487
G01 X105.688 Y-0.512
G01 X106.050 Y-0.602
G01 X106.137 Y-0.618
G01 X106.505 Y-0.673
G01 X106.594 Y-0.681
G01 X106.966 Y-0.699
G01 X107.054 Y-0.698
G01 X107.426 Y-0.680
G01 X107.515 Y-0.670
G01 X107.883 Y-0.616
G01 X107.970 Y-0.597
G01 X108.331 Y-0.507
G01 X108.416 Y-0.480
G01 X108.767 Y-0.355
G01 X108.848 Y-0.320
G01 X109.185 Y-0.160
G01 X109.263 Y-0.118
G01 X109.582 Y0.074
G01 X109.655 Y0.124
G01 X109.955 Y0.346
G01 X110.022 Y0.403
G01 X110.299 Y0.653
G01 X110.361 Y0.716
G01 X110.611 Y0.992
G01 X110.666 Y1.062
G01 X110.888 Y1.361
G01 X110.937 Y1.435
G01 X111.128 Y1.755
G01 X111.169 Y1.833
G01 X111.328 Y2.170
G01 X111.361 Y2.252
G01 X111.487 Y2.603
G01 X111.512 Y2.688
G01 X111.602 Y3.050
G01 X111.618 Y3.137
G01 X111.673 Y3.505
G01 X111.681 Y3.594
G01 X111.699 Y3.966
G01 X111.698 Y4.054
G01 X111.680 Y4.426
G01 X111.670 Y4.515
G01 X111.616 Y4.883
G01 X111.597 Y4.970
G01 X111.507 Y5.331
G01 X111.480 Y5.416
G01 X111.355 Y5.767
G01 X111.320 Y5.848
G01 X111.160 Y6.185
G01 X111.118 Y6.263
G01 X110.926 Y6.582
G01 X110.876 Y6.655
G01 X110.654 Y6.955
G01 X110.597 Y7.022
G01 X110.347 Y7.299
G01 X110.284 Y7.361
G01 X110.008 Y7.611
G01 X109.938 Y7.666
G01 X109.639 Y7.888
G01 X109.565 Y7.937
G01 X109.245 Y8.128
G01 X109.167 Y8.169
G01 X108.830 Y8.328
G01 X108.748 Y8.361
G01 X108.397 Y8.487
G01 X108.312 Y8.512
G01 X107.950 Y8.602
G01 X107.863 Y8.618
G01 X107.712 Y8.641
G01 X107.700 Y8.666
G01 Y30.300
G00 Z-1.750
G01 Y35.700
G01 Z-2.000 F200
G01 Y57.340 F500
G01 X107.712 Y57.359
G01 X107.883 Y57.384
G01 X107.970 Y57.403
G01 X108.331 Y57.493
G01 X108.416 Y57.520
G01 X108.767 Y57.645
G01 X108.848 Y57.680
G01 X109.185 Y57.840
G01 X109.263 Y57.882
G01 X109.582 Y58.074
G01 X109.655 Y58.124
G01 X109.955 Y58.346
G01 X110.022 Y58.403
G01 X110.299 Y58.653
G01 X110.361 Y58.716
G01 X110.611 Y58.992
G01 X110.666 Y59.062
G01 X110.888 Y59.361
G01 X110.937 Y59.435
G01 X111.128 Y59.755
G01 X111.169 Y59.833
G01 X111.328 Y60.170
G01 X111.361 Y60.252
G01 X111.487 Y60.603
G01 X111.512 Y60.688
G01 X111.602 Y61.050
G01 X111.618 Y61.137
G01 X111.673 Y61.505
G01 X111.681 Y61.594
G01 X111.699 Y61.966
G01 X111.698 Y62.054
G01 X111.680 Y62.426
G01 X111.670 Y62.515
G01 X111.616 Y62.883
G01 X111.597 Y62.970
G01 X111.507 Y63.331
G01 X111.480 Y63.416
G01 X111.355 Y63.767
G01 X111.320 Y63.848
G01 X111.160 Y64.185
G01 X111.118 Y64.263
G01 X110.926 Y64.582
G01 X110.876 Y64.655
G01 X110.654 Y64.955
G01 X110.597 Y65.022
G01 X110.347 Y65.299
G01 X110.284 Y65.361
G01 X110.008 Y65.611
G01 X109.938 Y65.666
G01 X109.639 Y65.888
G01 X109.565 Y65.937
G01 X109.245 Y66.128
G01 X109.167 Y66.169
G01 X108.830 Y66.328
G01 X108.748 Y66.361
G01 X108.397 Y66.487
G01 X108.312 Y66.512
G01 X107.950 Y66.602
G01 X107.863 Y66.618
G01 X107.495 Y66.673
G01 X107.406 Y66.681
G01 X107.034 Y66.699
G01 X106.946 Y66.698
G01 X106.574 Y66.680
G01 X106.485 Y66.670
G01 X106.117 Y66.616
G01 X106.030 Y66.597
G01 X105.669 Y66.507
G01 X105.584 Y66.480
G01 X105.233 Y66.355
G01 X105.152 Y66.320
G01 X104.815 Y66.160
G01 X104.737 Y66.118
G01 X104.418 Y65.926
G01 X104.345 Y65.876
G01 X104.045 Y65.654
G01 X103.978 Y65.597
G01 X103.701 Y65.347
G01 X103.639 Y65.284
G01 X103.389 Y65.008
G01 X103.334 Y64.938
G01 X103.112 Y64.639
G01 X103.063 Y64.565
G01 X102.872 Y64.245
G01 X102.831 Y64.167
G01 X102.672 Y63.830
G01 X102.639 Y63.748
G01 X102.513 Y63.397
G01 X102.488 Y63.312
G01 X102.398 Y62.950
G01 X102.382 Y62.863
G01 X102.359 Y62.712
G01 X102.334 Y62.700
G01 X89.796
G00 Z-1.750
G01 X84.396
G01 Z-2.000 F200
G01 X31.655 F500
G00 Z-1.750
G01 X26.255
G01 Z-2.000 F200
G01 X8.540 F500
G01 X8.140 Y64.181
G03 X8.057 Y64.373 I-0.6761 J-0.1812
G01 X7.867 Y64.670
G01 X7.820 Y64.736
G01 X7.620 Y64.997
G01 X7.567 Y65.059
G01 X7.345 Y65.301
G01 X7.287 Y65.358
G01 X7.044 Y65.580
G01 X6.981 Y65.632
G01 X6.720 Y65.832
G01 X6.654 Y65.878
G01 X6.376 Y66.054
G01 X6.305 Y66.094
G01 X6.014 Y66.246
G01 X5.940 Y66.280
G01 X5.636 Y66.405
G01 X5.560 Y66.432
G01 X5.246 Y66.531
G01 X5.167 Y66.551
G01 X4.846 Y66.623
G01 X4.766 Y66.636
G01 X4.440 Y66.679
G01 X4.359 Y66.685
G01 X4.031 Y66.699
G01 X3.951
G01 X3.644 Y66.686
G01 X3.568 Y66.679
G01 X3.263 Y66.641
G01 X3.187 Y66.628
G01 X2.886 Y66.566
G01 X2.811 Y66.546
G01 X2.517 Y66.459
G01 X2.444 Y66.434
G01 X2.157 Y66.323
G01 X2.087 Y66.292
G01 X1.810 Y66.158
G01 X1.742 Y66.121
G01 X1.477 Y65.965
G01 X1.413 Y65.923
G01 X1.162 Y65.746
G01 X1.101 Y65.698
G01 X0.865 Y65.501
G01 X0.809 Y65.449
G01 X0.590 Y65.233
G01 X0.537 Y65.176
G01 X0.337 Y64.944
G01 X0.289 Y64.883
G01 X0.108 Y64.635
G01 X0.066 Y64.570
G01 X-0.094 Y64.308
G01 X-0.131 Y64.240
G01 X-0.269 Y63.966
G01 X-0.300 Y63.895
G01 X-0.415 Y63.610
G01 X-0.440 Y63.537
G01 X-0.532 Y63.244
G01 X-0.552 Y63.166
G01 X-0.626 Y62.827
G01 X-0.639 Y62.744
G01 X-0.682 Y62.401
G01 X-0.688 Y62.317
G01 X-0.699 Y61.971
G01 X-0.697 Y61.886
G01 X-0.677 Y61.541
G01 X-0.667 Y61.457
G01 X-0.615 Y61.115
G01 X-0.598 Y61.032
G01 X-0.515 Y60.696
G01 X-0.490 Y60.616
G01 X-0.377 Y60.288
G01 X-0.345 Y60.211
G01 X-0.202 Y59.895
G01 X-0.163 Y59.821
G01 X0.009 Y59.520
G01 X0.054 Y59.449
G01 X0.252 Y59.165
G01 X0.304 Y59.099
G01 X0.527 Y58.834
G01 X0.585 Y58.773
G01 X0.832 Y58.529
G01 X0.895 Y58.474
G01 X1.163 Y58.254
G01 X1.231 Y58.204
G01 X1.517 Y58.010
G01 X1.589 Y57.967
G01 X1.893 Y57.800
G01 X1.969 Y57.763
G01 X2.286 Y57.624
G01 X2.365 Y57.595
G01 X2.694 Y57.486
G01 X2.775 Y57.464
G01 X3.112 Y57.385
G01 X3.195 Y57.371
G01 X3.281 Y57.359
G01 X3.300 Y57.331
G01 Y51.225
G00 Z-1.750
G01 Y45.825
G01 Z-2.000 F200
G01 Y39.750 F500
G01 X3.303 Y39.680
G03 X4.020 Y39.050 I0.6970 J0.0702
G01 X8.425
G01 Y26.950
G01 X4.000
G03 X3.302 Y26.300 I0.0000 J-0.7000
G01 X3.300 Y26.230
G01 Y20.165
G00 Z-1.750
G01 Y14.765
G01 Z-2.500 F200
G01 Y8.660 F500
G01 X3.288 Y8.641
G01 X3.117 Y8.616
G01 X3.030 Y8.597
G01 X2.669 Y8.507
G01 X2.584 Y8.480
G01 X2.233 Y8.355
G01 X2.152 Y8.320
G01 X1.815 Y8.160
G01 X1.737 Y8.118
G01 X1.418 Y7.926
G01 X1.345 Y7.876
G01 X1.045 Y7.654
G01 X0.978 Y7.597
G01 X0.701 Y7.347
G01 X0.639 Y7.284
G01 X0.389 Y7.008
G01 X0.334 Y6.938
G01 X0.112 Y6.639
G01 X0.063 Y6.565
G01 X-0.128 Y6.245
G01 X-0.169 Y6.167
G01 X-0.328 Y5.830
G01 X-0.361 Y5.748
G01 X-0.487 Y5.397
G01 X-0.512 Y5.312
G01 X-0.602 Y4.950
G01 X-0.618 Y4.863
G01 X-0.673 Y4.495
G01 X-0.681 Y4.406
G01 X-0.699 Y4.034
G01 X-0.698 Y3.946
G01 X-0.680 Y3.574
G01 X-0.670 Y3.485
G01 X-0.616 Y3.117
G01 X-0.597 Y3.030
G01 X-0.507 Y2.669
G01 X-0.480 Y2.584
G01 X-0.355 Y2.233
G01 X-0.320 Y2.152
G01 X-0.160 Y1.815
G01 X-0.118 Y1.737
G01 X0.074 Y1.418
G01 X0.124 Y1.345
G01 X0.346 Y1.045
G01 X0.403 Y0.978
G01 X0.653 Y0.701
G01 X0.716 Y0.639
G01 X0.992 Y0.389
G01 X1.062 Y0.334
G01 X1.361 Y0.112
G01 X1.435 Y0.063
G01 X1.755 Y-0.128
G01 X1.833 Y-0.169
G01 X2.170 Y-0.328
G01 X2.252 Y-0.361
G01 X2.603 Y-0.487
G01 X2.688 Y-0.512
G01 X3.050 Y-0.602
G01 X3.137 Y-0.618
G01 X3.505 Y-0.673
G01 X3.594 Y-0.681
G01 X3.966 Y-0.699
G01 X4.054 Y-0.698
G01 X4.426 Y-0.680
G01 X4.515 Y-0.670
G01 X4.883 Y-0.616
G01 X4.970 Y-0.597
G01 X5.331 Y-0.507
G01 X5.416 Y-0.480
G01 X5.767 Y-0.355
G01 X5.848 Y-0.320
G01 X6.185 Y-0.160
G01 X6.263 Y-0.118
G01 X6.582 Y0.074
G01 X6.655 Y0.124
G01 X6.955 Y0.346
G01 X7.022 Y0.403
G01 X7.299 Y0.653
G01 X7.361 Y0.716
G01 X7.611 Y0.992
G01 X7.666 Y1.062
G01 X7.888 Y1.361
G01 X7.937 Y1.435
G01 X8.128 Y1.755
G01 X8.169 Y1.833
G01 X8.328 Y2.170
G01 X8.361 Y2.252
G01 X8.487 Y2.603
G01 X8.512 Y2.688
G01 X8.602 Y3.050
G01 X8.618 Y3.137
G01 X8.641 Y3.288
G01 X8.666 Y3.300
G01 X26.144
G00 Z-1.750
G01 X31.544
G01 Z-2.500 F200
G01 X82.735 F500
G00 Z-1.750
G01 X88.135
G01 Z-2.500 F200
G01 X102.340 F500
G01 X102.359 Y3.288
G01 X102.384 Y3.117
G01 X102.403 Y3.030
G01 X102.493 Y2.669
G01 X102.520 Y2.584
G01 X102.645 Y2.233
G01 X102.680 Y2.152
G01 X102.840 Y1.815
G01 X102.882 Y1.737
G01 X103.074 Y1.418
G01 X103.124 Y1.345
G01 X103.346 Y1.045
G01 X103.403 Y0.978
G01 X103.653 Y0.701
G01 X103.716 Y0.639
G01 X103.992 Y0.389
G01 X104.062 Y0.334
G01 X104.361 Y0.112
G01 X104.435 Y0.063
G01 X104.755 Y-0.128
G01 X104.833 Y-0.169
G01 X105.170 Y-0.328
G01 X105.252 Y-0.361
G01 X105.603 Y-0.487
G01 X105.688 Y-0.512
G01 X106.050 Y-0.602
G01 X106.137 Y-0.618
G01 X106.505 Y-0.673
G01 X106.594 Y-0.681
G01 X106.966 Y-0.699
G01 X107.054 Y-0.698
G01 X107.426 Y-0.680
G01 X107.515 Y-0.670
G01 X107.883 Y-0.616
G01 X107.970 Y-0.597
G01 X108.331 Y-0.507
G01 X108.416 Y-0.480
G01 X108.767 Y-0.355
G01 X108.848 Y-0.320
G01 X109.185 Y-0.160
G01 X109.263 Y-0.118
G01 X109.582 Y0.074
G01 X109.655 Y0.124
G01 X109.955 Y0.346
G01 X110.022 Y0.403
G01 X110.299 Y0.653
G01 X110.361 Y0.716
G01 X110.611 Y0.992
G01 X110.666 Y1.062
G01 X110.888 Y1.361
G01 X110.937 Y1.435
G01 X111.128 Y1.755
G01 X111.169 Y1.833
G01 X111.328 Y2.170
G01 X111.361 Y2.252
G01 X111.487 Y2.603
G01 X111.512 Y2.688
G01 X111.602 Y3.050
G01 X111.618 Y3.137
G01 X111.673 Y3.505
G01 X111.681 Y3.594
G01 X111.699 Y3.966
G01 X111.698 Y4.054
G01 X111.680 Y4.426
G01 X111.670 Y4.515
G01 X111.616 Y4.883
G01 X111.597 Y4.970
G01 X111.507 Y5.331
G01 X111.480 Y5.416
G01 X111.355 Y5.767
G01 X111.320 Y5.848
G01 X111.160 Y6.185
G01 X111.118 Y6.263
G01 X110.926 Y6.582
G01 X110.876 Y6.655
G01 X110.654 Y6.955
G01 X110.597 Y7.022
G01 X110.347 Y7.299
G01 X110.284 Y7.361
G01 X110.008 Y7.611
G01 X109.938 Y7.666
G01 X109.639 Y7.888
G01 X109.565 Y7.937
G01 X109.245 Y8.128
G01 X109.167 Y8.169
G01 X108.830 Y8.328
G01 X108.748 Y8.361
G01 X108.397 Y8.487
G01 X108.312 Y8.512
G01 X107.950 Y8.602
G01 X107.863 Y8.618
G01 X107.712 Y8.641
G01 X107.700 Y8.666
G01 Y30.300
G00 Z-1.750
G01 Y35.700
G01 Z-2.500 F200
G01 Y57.340 F500
G01 X107.712 Y57.359
G01 X107.883 Y57.384
G01 X107.970 Y57.403
G01 X108.331 Y57.493
G01 X108.416 Y57.520
G01 X108.767 Y57.645
G01 X108.848 Y57.680
G01 X109.185 Y57.840
G01 X109.263 Y57.882
G01 X109.582 Y58.074
G01 X109.655 Y58.124
G01 X109.955 Y58.346
G01 X110.022 Y58.403
G01 X110.299 Y58.653
G01 X110.361 Y58.716
G01 X110.611 Y58.992
G01 X110.666 Y59.062
G01 X110.888 Y59.361
G01 X110.937 Y59.435
G01 X111.128 Y59.755
G01 X111.169 Y59.833
G01 X111.328 Y60.170
G01 X111.361 Y60.252
G01 X111.487 Y60.603
G01 X111.512 Y60.688
G01 X111.602 Y61.050
G01 X111.618 Y61.137
G01 X111.673 Y61.505
G01 X111.681 Y61.594
G01 X111.699 Y61.966
G01 X111.698 Y62.054
G01 X111.680 Y62.426
G01 X111.670 Y62.515
G01 X111.616 Y62.883
G01 X111.597 Y62.970
G01 X111.507 Y63.331
G01 X111.480 Y63.416
G01 X111.355 Y63.767
G01 X111.320 Y63.848
G01 X111.160 Y64.185
G01 X111.118 Y64.263
G01 X110.926 Y64.582
G01 X110.876 Y64.655
G01 X110.654 Y64.955
G01 X110.597 Y65.022
G01 X110.347 Y65.299
G01 X110.284 Y65.361
G01 X110.008 Y65.611
G01 X109.938 Y65.666
G01 X109.639 Y65.888
G01 X109.565 Y65.937
G01 X109.245 Y66.128
G01 X109.167 Y66.169
G01 X108.830 Y66.328
G01 X108.748 Y66.361
G01 X108.397 Y66.487
G01 X108.312 Y66.512
G01 X107.950 Y66.602
G01 X107.863 Y66.618
G01 X107.495 Y66.673
G01 X107.406 Y66.681
G01 X107.034 Y66.699
G01 X106.946 Y66.698
G01 X106.574 Y66.680
G01 X106.485 Y66.670
G01 X106.117 Y66.616
G01 X106.030 Y66.597
G01 X105.669 Y66.507
G01 X105.584 Y66.480
G01 X105.233 Y66.355
G01 X105.152 Y66.320
G01 X104.815 Y66.160
G01 X104.737 Y66.118
G01 X104.418 Y65.926
G01 X104.345 Y65.876
G01 X104.045 Y65.654
G01 X103.978 Y65.597
G01 X103.701 Y65.347
G01 X103.639 Y65.284
G01 X103.389 Y65.008
G01 X103.334 Y64.938
G01 X103.112 Y64.639
G01 X103.063 Y64.565
G01 X102.872 Y64.245
G01 X102.831 Y64.167
G01 X102.672 Y63.830
G01 X102.639 Y63.748
G01 X102.513 Y63.397
G01 X102.488 Y63.312
G01 X102.398 Y62.950
G01 X102.382 Y62.863
G01 X102.359 Y62.712
G01 X102.334 Y62.700
G01 X89.796
G00 Z-1.750
G01 X84.396
G01 Z-2.500 F200
G01 X31.655 F500
G00 Z-1.750
G01 X26.255
G01 Z-2.500 F200
G01 X8.540 F500
G01 X8.140 Y64.181
G03 X8.057 Y64.373 I-0.6761 J-0.1812
G01 X7.867 Y64.670
G01 X7.820 Y64.736
G01 X7.620 Y64.997
G01 X7.567 Y65.059
G01 X7.345 Y65.301
G01 X7.287 Y65.358
G01 X7.044 Y65.580
G01 X6.981 Y65.632
G01 X6.720 Y65.832
G01 X6.654 Y65.878
G01 X6.376 Y66.054
G01 X6.305 Y66.094
G01 X6.014 Y66.246
G01 X5.940 Y66.280
G01 X5.636 Y66.405
G01 X5.560 Y66.432
G01 X5.246 Y66.531
G01 X5.167 Y66.551
G01 X4.846 Y66.623
G01 X4.766 Y66.636
G01 X4.440 Y66.679
G01 X4.359 Y66.685
G01 X4.031 Y66.699
G01 X3.951
G01 X3.644 Y66.686
G01 X3.568 Y66.679
G01 X3.263 Y66.641
G01 X3.187 Y66.628
G01 X2.886 Y66.566
G01 X2.811 Y66.546
G01 X2.517 Y66.459
G01 X2.444 Y66.434
G01 X2.157 Y66.323
G01 X2.087 Y66.292
G01 X1.810 Y66.158
G01 X1.742 Y66.121
G01 X1.477 Y65.965
G01 X1.413 Y65.923
G01 X1.162 Y65.746
G01 X1.101 Y65.698
G01 X0.865 Y65.501
G01 X0.809 Y65.449
G01 X0.590 Y65.233
G01 X0.537 Y65.176
G01 X0.337 Y64.944
G01 X0.289 Y64.883
G01 X0.108 Y64.635
G01 X0.066 Y64.570
G01 X-0.094 Y64.308
G01 X-0.131 Y64.240
G01 X-0.269 Y63.966
G01 X-0.300 Y63.895
G01 X-0.415 Y63.610
G01 X-0.440 Y63.537
G01 X-0.532 Y63.244
G01 X-0.552 Y63.166
G01 X-0.626 Y62.827
G01 X-0.639 Y62.744
G01 X-0.682 Y62.401
G01 X-0.688 Y62.317
G01 X-0.699 Y61.971
G01 X-0.697 Y61.886
G01 X-0.677 Y61.541
G01 X-0.667 Y61.457
G01 X-0.615 Y61.115
G01 X-0.598 Y61.032
G01 X-0.515 Y60.696
G01 X-0.490 Y60.616
G01 X-0.377 Y60.288
G01 X-0.345 Y60.211
G01 X-0.202 Y59.895
G01 X-0.163 Y59.821
G01 X0.009 Y59.520
G01 X0.054 Y59.449
G01 X0.252 Y59.165
G01 X0.304 Y59.099
G01 X0.527 Y58.834
G01 X0.585 Y58.773
G01 X0.832 Y58.529
G01 X0.895 Y58.474
G01 X1.163 Y58.254
G01 X1.231 Y58.204
G01 X1.517 Y58.010
G01 X1.589 Y57.967
G01 X1.893 Y57.800
G01 X1.969 Y57.763
G01 X2.286 Y57.624
G01 X2.365 Y57.595
G01 X2.694 Y57.486
G01 X2.775 Y57.464
G01 X3.112 Y57.385
G01 X3.195 Y57.371
G01 X3.281 Y57.359
G01 X3.300 Y57.331
G01 Y51.225
G00 Z-1.750
G01 Y45.825
G01 Z-2.500 F200
G01 Y39.750 F500
G01 X3.303 Y39.680
G03 X4.020 Y39.050 I0.6970 J0.0702
G01 X8.425
G01 Y26.950
G01 X4.000
G03 X3.302 Y26.300 I0.0000 J-0.7000
G01 X3.300 Y26.230
G01 Y20.165
G00 Z-1.750
G01 Y14.765
G00 Z-2.000
G01 Z-3.000 F200
G01 Y8.660 F500
G01 X3.288 Y8.641
G01 X3.117 Y8.616
G01 X3.030 Y8.597
G01 X2.669 Y8.507
G01 X2.584 Y8.480
G01 X2.233 Y8.355
G01 X2.152 Y8.320
G01 X1.815 Y8.160
G01 X1.737 Y8.118
G01 X1.418 Y7.926
G01 X1.345 Y7.876
G01 X1.045 Y7.654
G01 X0.978 Y7.597
G01 X0.701 Y7.347
G01 X0.639 Y7.284
G01 X0.389 Y7.008
G01 X0.334 Y6.938
G01 X0.112 Y6.639
G01 X0.063 Y6.565
G01 X-0.128 Y6.245
G01 X-0.169 Y6.167
G01 X-0.328 Y5.830
G01 X-0.361 Y5.748
G01 X-0.487 Y5.397
G01 X-0.512 Y5.312
G01 X-0.602 Y4.950
G01 X-0.618 Y4.863
G01 X-0.673 Y4.495
G01 X-0.681 Y4.406
G01 X-0.699 Y4.034
G01 X-0.698 Y3.946
G01 X-0.680 Y3.574
G01 X-0.670 Y3.485
G01 X-0.616 Y3.117
G01 X-0.597 Y3.030
G01 X-0.507 Y2.669
G01 X-0.480 Y2.584
G01 X-0.355 Y2.233
G01 X-0.320 Y2.152
G01 X-0.160 Y1.815
G01 X-0.118 Y1.737
G01 X0.074 Y1.418
G01 X0.124 Y1.345
G01 X0.346 Y1.045
G01 X0.403 Y0.978
G01 X0.653 Y0.701
G01 X0.716 Y0.639
G01 X0.992 Y0.389
G01 X1.062 Y0.334
G01 X1.361 Y0.112
G01 X1.435 Y0.063
G01 X1.755 Y-0.128
G01 X1.833 Y-0.169
G01 X2.170 Y-0.328
G01 X2.252 Y-0.361
G01 X2.603 Y-0.487
G01 X2.688 Y-0.512
G01 X3.050 Y-0.602
G01 X3.137 Y-0.618
G01 X3.505 Y-0.673
G01 X3.594 Y-0.681
G01 X3.966 Y-0.699
G01 X4.054 Y-0.698
G01 X4.426 Y-0.680
G01 X4.515 Y-0.670
G01 X4.883 Y-0.616
G01 X4.970 Y-0.597
G01 X5.331 Y-0.507
G01 X5.416 Y-0.480
G01 X5.767 Y-0.355
G01 X5.848 Y-0.320
G01 X6.185 Y-0.160
G01 X6.263 Y-0.118
G01 X6.582 Y0.074
G01 X6.655 Y0.124
G01 X6.955 Y0.346
G01 X7.022 Y0.403
G01 X7.299 Y0.653
G01 X7.361 Y0.716
G01 X7.611 Y0.992
G01 X7.666 Y1.062
G01 X7.888 Y1.361
G01 X7.937 Y1.435
G01 X8.128 Y1.755
G01 X8.169 Y1.833
G01 X8.328 Y2.170
G01 X8.361 Y2.252
G01 X8.487 Y2.603
G01 X8.512 Y2.688
G01 X8.602 Y3.050
G01 X8.618 Y3.137
G01 X8.641 Y3.288
G01 X8.666 Y3.300
G01 X26.144
G00 Z-1.750
G01 X31.544
G00 Z-2.000
G01 Z-3.000 F200
G01 X82.735 F500
G00 Z-1.750
G01 X88.135
G00 Z-2.000
G01 Z-3.000 F200
G01 X102.340 F500
G01 X102.359 Y3.288
G01 X102.384 Y3.117
G01 X102.403 Y3.030
G01 X102.493 Y2.669
G01 X102.520 Y2.584
G01 X102.645 Y2.233
G01 X102.680 Y2.152
G01 X102.840 Y1.815
G01 X102.882 Y1.737
G01 X103.074 Y1.418
G01 X103.124 Y1.345
G01 X103.346 Y1.045
G01 X103.403 Y0.978
G01 X103.653 Y0.701
G01 X103.716 Y0.639
G01 X103.992 Y0.389
G01 X104.062 Y0.334
G01 X104.361 Y0.112
G01 X104.435 Y0.063
G01 X104.755 Y-0.128
G01 X104.833 Y-0.169
G01 X105.170 Y-0.328
G01 X105.252 Y-0.361
G01 X105.603 Y-0.487
G01 X105.688 Y-0.512
G01 X106.050 Y-0.602
G01 X106.137 Y-0.618
G01 X106.505 Y-0.673
G01 X106.594 Y-0.681
G01 X106.966 Y-0.699
G01 X107.054 Y-0.698
G01 X107.426 Y-0.680
G01 X107.515 Y-0.670
G01 X107.883 Y-0.616
G01 X107.970 Y-0.597
G01 X108.331 Y-0.507
G01 X108.416 Y-0.480
G01 X108.767 Y-0.355
G01 X108.848 Y-0.320
G01 X109.185 Y-0.160
G01 X109.263 Y-0.118
G01 X109.582 Y0.074
G01 X109.655 Y0.124
G01 X109.955 Y0.346
G01 X110.022 Y0.403
G01 X110.299 Y0.653
G01 X110.361 Y0.716
G01 X110.611 Y0.992
G01 X110.666 Y1.062
G01 X110.888 Y1.361
G01 X110.937 Y1.435
G01 X111.128 Y1.755
G01 X111.169 Y1.833
G01 X111.328 Y2.170
G01 X111.361 Y2.252
G01 X111.487 Y2.603
G01 X111.512 Y2.688
G01 X111.602 Y3.050
G01 X111.618 Y3.137
G01 X111.673 Y3.505
G01 X111.681 Y3.594
G01 X111.699 Y3.966
G01 X111.698 Y4.054
G01 X111.680 Y4.426
G01 X111.670 Y4.515
G01 X111.616 Y4.883
G01 X111.597 Y4.970
G01 X111.507 Y5.331
G01 X111.480 Y5.416
G01 X111.355 Y5.767
G01 X111.320 Y5.848
G01 X111.160 Y6.185
G01 X111.118 Y6.263
G01 X110.926 Y6.582
G01 X110.876 Y6.655
G01 X110.654 Y6.955
G01 X110.597 Y7.022
G01 X110.347 Y7.299
G01 X110.284 Y7.361
G01 X110.008 Y7.611
G01 X109.938 Y7.666
G01 X109.639 Y7.888
G01 X109.565 Y7.937
G01 X109.245 Y8.128
G01 X109.167 Y8.169
G01 X108.830 Y8.328
G01 X108.748 Y8.361
G01 X108.397 Y8.487
G01 X108.312 Y8.512
G01 X107.950 Y8.602
G01 X107.863 Y8.618
G01 X107.712 Y8.641
G01 X107.700 Y8.666
G01 Y30.300
G00 Z-1.750
G01 Y35.700
G00 Z-2.000
G01 Z-3.000 F200
G01 Y57.340 F500
G01 X107.712 Y57.359
G01 X107.883 Y57.384
G01 X107.970 Y57.403
G01 X108.331 Y57.493
G01 X108.416 Y57.520
G01 X108.767 Y57.645
G01 X108.848 Y57.680
G01 X109.185 Y57.840
G01 X109.263 Y57.882
G01 X109.582 Y58.074
G01 X109.655 Y58.124
G01 X109.955 Y58.346
G01 X110.022 Y58.403
G01 X110.299 Y58.653
G01 X110.361 Y58.716
G01 X110.611 Y58.992
G01 X110.666 Y59.062
G01 X110.888 Y59.361
G01 X110.937 Y59.435
G01 X111.128 Y59.755
G01 X111.169 Y59.833
G01 X111.328 Y60.170
G01 X111.361 Y60.252
G01 X111.487 Y60.603
G01 X111.512 Y60.688
G01 X111.602 Y61.050
G01 X111.618 Y61.137
G01 X111.673 Y61.505
G01 X111.681 Y61.594
G01 X111.699 Y61.966
G01 X111.698 Y62.054
G01 X111.680 Y62.426
G01 X111.670 Y62.515
G01 X111.616 Y62.883
G01 X111.597 Y62.970
G01 X111.507 Y63.331
G01 X111.480 Y63.416
G01 X111.355 Y63.767
G01 X111.320 Y63.848
G01 X111.160 Y64.185
G01 X111.118 Y64.263
G01 X110.926 Y64.582
G01 X110.876 Y64.655
G01 X110.654 Y64.955
G01 X110.597 Y65.022
G01 X110.347 Y65.299
G01 X110.284 Y65.361
G01 X110.008 Y65.611
G01 X109.938 Y65.666
G01 X109.639 Y65.888
G01 X109.565 Y65.937
G01 X109.245 Y66.128
G01 X109.167 Y66.169
G01 X108.830 Y66.328
G01 X108.748 Y66.361
G01 X108.397 Y66.487
G01 X108.312 Y66.512
G01 X107.950 Y66.602
G01 X107.863 Y66.618
G01 X107.495 Y66.673
G01 X107.406 Y66.681
G01 X107.034 Y66.699
G01 X106.946 Y66.698
G01 X106.574 Y66.680
G01 X106.485 Y66.670
G01 X106.117 Y66.616
G01 X106.030 Y66.597
G01 X105.669 Y66.507
G01 X105.584 Y66.480
G01 X105.233 Y66.355
G01 X105.152 Y66.320
G01 X104.815 Y66.160
G01 X104.737 Y66.118
G01 X104.418 Y65.926
G01 X104.345 Y65.876
G01 X104.045 Y65.654
G01 X103.978 Y65.597
G01 X103.701 Y65.347
G01 X103.639 Y65.284
G01 X103.389 Y65.008
G01 X103.334 Y64.938
G01 X103.112 Y64.639
G01 X103.063 Y64.565
G01 X102.872 Y64.245
G01 X102.831 Y64.167
G01 X102.672 Y63.830
G01 X102.639 Y63.748
G01 X102.513 Y63.397
G01 X102.488 Y63.312
G01 X102.398 Y62.950
G01 X102.382 Y62.863
G01 X102.359 Y62.712
G01 X102.334 Y62.700
G01 X89.796
G00 Z-1.750
G01 X84.396
G00 Z-2.000
G01 Z-3.000 F200
G01 X31.655 F500
G00 Z-1.750
G01 X26.255
G00 Z-2.000
G01 Z-3.000 F200
G01 X8.540 F500
G01 X8.140 Y64.181
G03 X8.057 Y64.373 I-0.6761 J-0.1812
G01 X7.867 Y64.670
G01 X7.820 Y64.736
G01 X7.620 Y64.997
G01 X7.567 Y65.059
G01 X7.345 Y65.301
G01 X7.287 Y65.358
G01 X7.044 Y65.580
G01 X6.981 Y65.632
G01 X6.720 Y65.832
G01 X6.654 Y65.878
G01 X6.376 Y66.054
G01 X6.305 Y66.094
G01 X6.014 Y66.246
G01 X5.940 Y66.280
G01 X5.636 Y66.405
G01 X5.560 Y66.432
G01 X5.246 Y66.531
G01 X5.167 Y66.551
G01 X4.846 Y66.623
G01 X4.766 Y66.636
G01 X4.440 Y66.679
G01 X4.359 Y66.685
G01 X4.031 Y66.699
G01 X3.951
G01 X3.644 Y66.686
G01 X3.568 Y66.679
G01 X3.263 Y66.641
G01 X3.187 Y66.628
G01 X2.886 Y66.566
G01 X2.811 Y66.546
G01 X2.517 Y66.459
G01 X2.444 Y66.434
G01 X2.157 Y66.323
G01 X2.087 Y66.292
G01 X1.810 Y66.158
G01 X1.742 Y66.121
G01 X1.477 Y65.965
G01 X1.413 Y65.923
G01 X1.162 Y65.746
G01 X1.101 Y65.698
G01 X0.865 Y65.501
G01 X0.809 Y65.449
G01 X0.590 Y65.233
G01 X0.537 Y65.176
G01 X0.337 Y64.944
G01 X0.289 Y64.883
G01 X0.108 Y64.635
G01 X0.066 Y64.570
G01 X-0.094 Y64.308
G01 X-0.131 Y64.240
G01 X-0.269 Y63.966
G01 X-0.300 Y63.895
G01 X-0.415 Y63.610
G01 X-0.440 Y63.537
G01 X-0.532 Y63.244
G01 X-0.552 Y63.166
G01 X-0.626 Y62.827
G01 X-0.639 Y62.744
G01 X-0.682 Y62.401
G01 X-0.688 Y62.317
G01 X-0.699 Y61.971
G01 X-0.697 Y61.886
G01 X-0.677 Y61.541
G01 X-0.667 Y61.457
G01 X-0.615 Y61.115
G01 X-0.598 Y61.032
G01 X-0.515 Y60.696
G01 X-0.490 Y60.616
G01 X-0.377 Y60.288
G01 X-0.345 Y60.211
G01 X-0.202 Y59.895
G01 X-0.163 Y59.821
G01 X0.009 Y59.520
G01 X0.054 Y59.449
G01 X0.252 Y59.165
G01 X0.304 Y59.099
G01 X0.527 Y58.834
G01 X0.585 Y58.773
G01 X0.832 Y58.529
G01 X0.895 Y58.474
G01 X1.163 Y58.254
G01 X1.231 Y58.204
G01 X1.517 Y58.010
G01 X1.589 Y57.967
G01 X1.893 Y57.800
G01 X1.969 Y57.763
G01 X2.286 Y57.624
G01 X2.365 Y57.595
G01 X2.694 Y57.486
G01 X2.775 Y57.464
G01 X3.112 Y57.385
G01 X3.195 Y57.371
G01 X3.281 Y57.359
G01 X3.300 Y57.331
G01 Y51.225
G00 Z-1.750
G01 Y45.825
G00 Z-2.000
G01 Z-3.000 F200
G01 Y39.750 F500
G01 X3.303 Y39.680
G03 X4.020 Y39.050 I0.6970 J0.0702
G01 X8.425
G01 Y26.950
G01 X4.000
G03 X3.302 Y26.300 I0.0000 J-0.7000
G01 X3.300 Y26.230
G01 Y20.165
G00 Z-1.750
G01 Y14.765
G00 Z-2.500
G01 Z-3.500 F200
G01 Y8.660 F500
G01 X3.288 Y8.641
G01 X3.117 Y8.616
G01 X3.030 Y8.597
G01 X2.669 Y8.507
G01 X2.584 Y8.480
G01 X2.233 Y8.355
G01 X2.152 Y8.320
G01 X1.815 Y8.160
G01 X1.737 Y8.118
G01 X1.418 Y7.926
G01 X1.345 Y7.876
G01 X1.045 Y7.654
G01 X0.978 Y7.597
G01 X0.701 Y7.347
G01 X0.639 Y7.284
G01 X0.389 Y7.008
G01 X0.334 Y6.938
G01 X0.112 Y6.639
G01 X0.063 Y6.565
G01 X-0.128 Y6.245
G01 X-0.169 Y6.167
G01 X-0.328 Y5.830
G01 X-0.361 Y5.748
G01 X-0.487 Y5.397
G01 X-0.512 Y5.312
G01 X-0.602 Y4.950
G01 X-0.618 Y4.863
G01 X-0.673 Y4.495
G01 X-0.681 Y4.406
G01 X-0.699 Y4.034
G01 X-0.698 Y3.946
G01 X-0.680 Y3.574
G01 X-0.670 Y3.485
G01 X-0.616 Y3.117
G01 X-0.597 Y3.030
G01 X-0.507 Y2.669
G01 X-0.480 Y2.584
G01 X-0.355 Y2.233
G01 X-0.320 Y2.152
G01 X-0.160 Y1.815
G01 X-0.118 Y1.737
G01 X0.074 Y1.418
G01 X0.124 Y1.345
G01 X0.346 Y1.045
G01 X0.403 Y0.978
G01 X0.653 Y0.701
G01 X0.716 Y0.639
G01 X0.992 Y0.389
G01 X1.062 Y0.334
G01 X1.361 Y0.112
G01 X1.435 Y0.063
G01 X1.755 Y-0.128
G01 X1.833 Y-0.169
G01 X2.170 Y-0.328
G01 X2.252 Y-0.361
G01 X2.603 Y-0.487
G01 X2.688 Y-0.512
G01 X3.050 Y-0.602
G01 X3.137 Y-0.618
G01 X3.505 Y-0.673
G01 X3.594 Y-0.681
G01 X3.966 Y-0.699
G01 X4.054 Y-0.698
G01 X4.426 Y-0.680
G01 X4.515 Y-0.670
G01 X4.883 Y-0.616
G01 X4.970 Y-0.597
G01 X5.331 Y-0.507
G01 X5.416 Y-0.480
G01 X5.767 Y-0.355
G01 X5.848 Y-0.320
G01 X6.185 Y-0.160
G01 X6.263 Y-0.118
G01 X6.582 Y0.074
G01 X6.655 Y0.124
G01 X6.955 Y0.346
G01 X7.022 Y0.403
G01 X7.299 Y0.653
G01 X7.361 Y0.716
G01 X7.611 Y0.992
G01 X7.666 Y1.062
G01 X7.888 Y1.361
G01 X7.937 Y1.435
G01 X8.128 Y1.755
G01 X8.169 Y1.833
G01 X8.328 Y2.170
G01 X8.361 Y2.252
G01 X8.487 Y2.603
G01 X8.512 Y2.688
G01 X8.602 Y3.050
G01 X8.618 Y3.137
G01 X8.641 Y3.288
G01 X8.666 Y3.300
G01 X26.144
G00 Z-1.750
G01 X31.544
G00 Z-2.500
G01 Z-3.500 F200
G01 X82.735 F500
G00 Z-1.750
G01 X88.135
G00 Z-2.500
G01 Z-3.500 F200
G01 X102.340 F500
G01 X102.359 Y3.288
G01 X102.384 Y3.117
G01 X102.403 Y3.030
G01 X102.493 Y2.669
G01 X102.520 Y2.584
G01 X102.645 Y2.233
G01 X102.680 Y2.152
G01 X102.840 Y1.815
G01 X102.882 Y1.737
G01 X103.074 Y1.418
G01 X103.124 Y1.345
G01 X103.346 Y1.045
G01 X103.403 Y0.978
G01 X103.653 Y0.701
G01 X103.716 Y0.639
G01 X103.992 Y0.389
G01 X104.062 Y0.334
G01 X104.361 Y0.112
G01 X104.435 Y0.063
G01 X104.755 Y-0.128
G01 X104.833 Y-0.169
G01 X105.170 Y-0.328
G01 X105.252 Y-0.361
G01 X105.603 Y-0.487
G01 X105.688 Y-0.512
G01 X106.050 Y-0.602
G01 X106.137 Y-0.618
G01 X106.505 Y-0.673
G01 X106.594 Y-0.681
G01 X106.966 Y-0.699
G01 X107.054 Y-0.698
G01 X107.426 Y-0.680
G01 X107.515 Y-0.670
G01 X107.883 Y-0.616
G01 X107.970 Y-0.597
G01 X108.331 Y-0.507
G01 X108.416 Y-0.480
G01 X108.767 Y-0.355
G01 X108.848 Y-0.320
G01 X109.185 Y-0.160
G01 X109.263 Y-0.118
G01 X109.582 Y0.074
G01 X109.655 Y0.124
G01 X109.955 Y0.346
G01 X110.022 Y0.403
G01 X110.299 Y0.653
G01 X110.361 Y0.716
G01 X110.611 Y0.992
G01 X110.666 Y1.062
G01 X110.888 Y1.361
G01 X110.937 Y1.435
G01 X111.128 Y1.755
G01 X111.169 Y1.833
G01 X111.328 Y2.170
G01 X111.361 Y2.252
G01 X111.487 Y2.603
G01 X111.512 Y2.688
G01 X111.602 Y3.050
G01 X111.618 Y3.137
G01 X111.673 Y3.505
G01 X111.681 Y3.594
G01 X111.699 Y3.966
G01 X111.698 Y4.054
G01 X111.680 Y4.426
G01 X111.670 Y4.515
G01 X111.616 Y4.883
G01 X111.597 Y4.970
G01 X111.507 Y5.331
G01 X111.480 Y5.416
G01 X111.355 Y5.767
G01 X111.320 Y5.848
G01 X111.160 Y6.185
G01 X111.118 Y6.263
G01 X110.926 Y6.582
G01 X110.876 Y6.655
G01 X110.654 Y6.955
G01 X110.597 Y7.022
G01 X110.347 Y7.299
G01 X110.284 Y7.361
G01 X110.008 Y7.611
G01 X109.938 Y7.666
G01 X109.639 Y7.888
G01 X109.565 Y7.937
G01 X109.245 Y8.128
G01 X109.167 Y8.169
G01 X108.830 Y8.328
G01 X108.748 Y8.361
G01 X108.397 Y8.487
G01 X108.312 Y8.512
G01 X107.950 Y8.602
G01 X107.863 Y8.618
G01 X107.712 Y8.641
G01 X107.700 Y8.666
G01 Y30.300
G00 Z-1.750
G01 Y35.700
G00 Z-2.500
G01 Z-3.500 F200
G01 Y57.340 F500
G01 X107.712 Y57.359
G01 X107.883 Y57.384
G01 X107.970 Y57.403
G01 X108.331 Y57.493
G01 X108.416 Y57.520
G01 X108.767 Y57.645
G01 X108.848 Y57.680
G01 X109.185 Y57.840
G01 X109.263 Y57.882
G01 X109.582 Y58.074
G01 X109.655 Y58.124
G01 X109.955 Y58.346
G01 X110.022 Y58.403
G01 X110.299 Y58.653
G01 X110.361 Y58.716
G01 X110.611 Y58.992
G01 X110.666 Y59.062
G01 X110.888 Y59.361
G01 X110.937 Y59.435
G01 X111.128 Y59.755
G01 X111.169 Y59.833
G01 X111.328 Y60.170
G01 X111.361 Y60.252
G01 X111.487 Y60.603
G01 X111.512 Y60.688
G01 X111.602 Y61.050
G01 X111.618 Y61.137
G01 X111.673 Y61.505
G01 X111.681 Y61.594
G01 X111.699 Y61.966
G01 X111.698 Y62.054
G01 X111.680 Y62.426
G01 X111.670 Y62.515
G01 X111.616 Y62.883
G01 X111.597 Y62.970
G01 X111.507 Y63.331
G01 X111.480 Y63.416
G01 X111.355 Y63.767
G01 X111.320 Y63.848
G01 X111.160 Y64.185
G01 X111.118 Y64.263
G01 X110.926 Y64.582
G01 X110.876 Y64.655
G01 X110.654 Y64.955
G01 X110.597 Y65.022
G01 X110.347 Y65.299
G01 X110.284 Y65.361
G01 X110.008 Y65.611
G01 X109.938 Y65.666
G01 X109.639 Y65.888
G01 X109.565 Y65.937
G01 X109.245 Y66.128
G01 X109.167 Y66.169
G01 X108.830 Y66.328
G01 X108.748 Y66.361
G01 X108.397 Y66.487
G01 X108.312 Y66.512
G01 X107.950 Y66.602
G01 X107.863 Y66.618
G01 X107.495 Y66.673
G01 X107.406 Y66.681
G01 X107.034 Y66.699
G01 X106.946 Y66.698
G01 X106.574 Y66.680
G01 X106.485 Y66.670
G01 X106.117 Y66.616
G01 X106.030 Y66.597
G01 X105.669 Y66.507
G01 X105.584 Y66.480
G01 X105.233 Y66.355
G01 X105.152 Y66.320
G01 X104.815 Y66.160
G01 X104.737 Y66.118
G01 X104.418 Y65.926
G01 X104.345 Y65.876
G01 X104.045 Y65.654
G01 X103.978 Y65.597
G01 X103.701 Y65.347
G01 X103.639 Y65.284
G01 X103.389 Y65.008
G01 X103.334 Y64.938
G01 X103.112 Y64.639
G01 X103.063 Y64.565
G01 X102.872 Y64.245
G01 X102.831 Y64.167
G01 X102.672 Y63.830
G01 X102.639 Y63.748
G01 X102.513 Y63.397
G01 X102.488 Y63.312
G01 X102.398 Y62.950
G01 X102.382 Y62.863
G01 X102.359 Y62.712
G01 X102.334 Y62.700
G01 X89.796
G00 Z-1.750
G01 X84.396
G00 Z-2.500
G01 Z-3.500 F200
G01 X31.655 F500
G00 Z-1.750
G01 X26.255
G00 Z-2.500
G01 Z-3.500 F200
G01 X8.540 F500
G01 X8.140 Y64.181
G03 X8.057 Y64.373 I-0.6761 J-0.1812
G01 X7.867 Y64.670
G01 X7.820 Y64.736
G01 X7.620 Y64.997
G01 X7.567 Y65.059
G01 X7.345 Y65.301
G01 X7.287 Y65.358
G01 X7.044 Y65.580
G01 X6.981 Y65.632
G01 X6.720 Y65.832
G01 X6.654 Y65.878
G01 X6.376 Y66.054
G01 X6.305 Y66.094
G01 X6.014 Y66.246
G01 X5.940 Y66.280
G01 X5.636 Y66.405
G01 X5.560 Y66.432
G01 X5.246 Y66.531
G01 X5.167 Y66.551
G01 X4.846 Y66.623
G01 X4.766 Y66.636
G01 X4.440 Y66.679
G01 X4.359 Y66.685
G01 X4.031 Y66.699
G01 X3.951
G01 X3.644 Y66.686
G01 X3.568 Y66.679
G01 X3.263 Y66.641
G01 X3.187 Y66.628
G01 X2.886 Y66.566
G01 X2.811 Y66.546
G01 X2.517 Y66.459
G01 X2.444 Y66.434
G01 X2.157 Y66.323
G01 X2.087 Y66.292
G01 X1.810 Y66.158
G01 X1.742 Y66.121
G01 X1.477 Y65.965
G01 X1.413 Y65.923
G01 X1.162 Y65.746
G01 X1.101 Y65.698
G01 X0.865 Y65.501
G01 X0.809 Y65.449
G01 X0.590 Y65.233
G01 X0.537 Y65.176
G01 X0.337 Y64.944
G01 X0.289 Y64.883
G01 X0.108 Y64.635
G01 X0.066 Y64.570
G01 X-0.094 Y64.308
G01 X-0.131 Y64.240
G01 X-0.269 Y63.966
G01 X-0.300 Y63.895
G01 X-0.415 Y63.610
G01 X-0.440 Y63.537
G01 X-0.532 Y63.244
G01 X-0.552 Y63.166
G01 X-0.626 Y62.827
G01 X-0.639 Y62.744
G01 X-0.682 Y62.401
G01 X-0.688 Y62.317
G01 X-0.699 Y61.971
G01 X-0.697 Y61.886
G01 X-0.677 Y61.541
G01 X-0.667 Y61.457
G01 X-0.615 Y61.115
G01 X-0.598 Y61.032
G01 X-0.515 Y60.696
G01 X-0.490 Y60.616
G01 X-0.377 Y60.288
G01 X-0.345 Y60.211
G01 X-0.202 Y59.895
G01 X-0.163 Y59.821
G01 X0.009 Y59.520
G01 X0.054 Y59.449
G01 X0.252 Y59.165
G01 X0.304 Y59.099
G01 X0.527 Y58.834
G01 X0.585 Y58.773
G01 X0.832 Y58.529
G01 X0.895 Y58.474
G01 X1.163 Y58.254
G01 X1.231 Y58.204
G01 X1.517 Y58.010
G01 X1.589 Y57.967
G01 X1.893 Y57.800
G01 X1.969 Y57.763
G01 X2.286 Y57.624
G01 X2.365 Y57.595
G01 X2.694 Y57.486
G01 X2.775 Y57.464
G01 X3.112 Y57.385
G01 X3.195 Y57.371
G01 X3.281 Y57.359
G01 X3.300 Y57.331
G01 Y51.225
G00 Z-1.750
G01 Y45.825
G00 Z-2.500
G01 Z-3.500 F200
G01 Y39.750 F500
G01 X3.303 Y39.680
G03 X4.020 Y39.050 I0.6970 J0.0702
G01 X8.425
G01 Y26.950
G01 X4.000
G03 X3.302 Y26.300 I0.0000 J-0.7000
G01 X3.300 Y26.230
G01 Y20.165
G00 Z-1.750
G01 Y14.765
G00 Z-3.000
G01 Z-3.750 F200
G01 Y8.660 F500
G01 X3.288 Y8.641
G01 X3.117 Y8.616
G01 X3.030 Y8.597
G01 X2.669 Y8.507
G01 X2.584 Y8.480
G01 X2.233 Y8.355
G01 X2.152 Y8.320
G01 X1.815 Y8.160
G01 X1.737 Y8.118
G01 X1.418 Y7.926
G01 X1.345 Y7.876
G01 X1.045 Y7.654
G01 X0.978 Y7.597
G01 X0.701 Y7.347
G01 X0.639 Y7.284
G01 X0.389 Y7.008
G01 X0.334 Y6.938
G01 X0.112 Y6.639
G01 X0.063 Y6.565
G01 X-0.128 Y6.245
G01 X-0.169 Y6.167
G01 X-0.328 Y5.830
G01 X-0.361 Y5.748
G01 X-0.487 Y5.397
G01 X-0.512 Y5.312
G01 X-0.602 Y4.950
G01 X-0.618 Y4.863
G01 X-0.673 Y4.495
G01 X-0.681 Y4.406
G01 X-0.699 Y4.034
G01 X-0.698 Y3.946
G01 X-0.680 Y3.574
G01 X-0.670 Y3.485
G01 X-0.616 Y3.117
G01 X-0.597 Y3.030
G01 X-0.507 Y2.669
G01 X-0.480 Y2.584
G01 X-0.355 Y2.233
G01 X-0.320 Y2.152
G01 X-0.160 Y1.815
G01 X-0.118 Y1.737
G01 X0.074 Y1.418
G01 X0.124 Y1.345
G01 X0.346 Y1.045
G01 X0.403 Y0.978
G01 X0.653 Y0.701
G01 X0.716 Y0.639
G01 X0.992 Y0.389
G01 X1.062 Y0.334
G01 X1.361 Y0.112
G01 X1.435 Y0.063
G01 X1.755 Y-0.128
G01 X1.833 Y-0.169
G01 X2.170 Y-0.328
G01 X2.252 Y-0.361
G01 X2.603 Y-0.487
G01 X2.688 Y-0.512
G01 X3.050 Y-0.602
G01 X3.137 Y-0.618
G01 X3.505 Y-0.673
G01 X3.594 Y-0.681
G01 X3.966 Y-0.699
G01 X4.054 Y-0.698
G01 X4.426 Y-0.680
G01 X4.515 Y-0.670
G01 X4.883 Y-0.616
G01 X4.970 Y-0.597
G01 X5.331 Y-0.507
G01 X5.416 Y-0.480
G01 X5.767 Y-0.355
G01 X5.848 Y-0.320
G01 X6.185 Y-0.160
G01 X6.263 Y-0.118
G01 X6.582 Y0.074
G01 X6.655 Y0.124
G01 X6.955 Y0.346
G01 X7.022 Y0.403
G01 X7.299 Y0.653
G01 X7.361 Y0.716
G01 X7.611 Y0.992
G01 X7.666 Y1.062
G01 X7.888 Y1.361
G01 X7.937 Y1.435
G01 X8.128 Y1.755
G01 X8.169 Y1.833
G01 X8.328 Y2.170
G01 X8.361 Y2.252
G01 X8.487 Y2.603
G01 X8.512 Y2.688
G01 X8.602 Y3.050
G01 X8.618 Y3.137
G01 X8.641 Y3.288
G01 X8.666 Y3.300
G01 X26.144
G00 Z-1.750
G01 X31.544
G00 Z-3.000
G01 Z-3.750 F200
G01 X82.735 F500
G00 Z-1.750
G01 X88.135
G00 Z-3.000
G01 Z-3.750 F200
G01 X102.340 F500
G01 X102.359 Y3.288
G01 X102.384 Y3.117
G01 X102.403 Y3.030
G01 X102.493 Y2.669
G01 X102.520 Y2.584
G01 X102.645 Y2.233
G01 X102.680 Y2.152
G01 X102.840 Y1.815
G01 X102.882 Y1.737
G01 X103.074 Y1.418
G01 X103.124 Y1.345
G01 X103.346 Y1.045
G01 X103.403 Y0.978
G01 X103.653 Y0.701
G01 X103.716 Y0.639
G01 X103.992 Y0.389
G01 X104.062 Y0.334
G01 X104.361 Y0.112
G01 X104.435 Y0.063
G01 X104.755 Y-0.128
G01 X104.833 Y-0.169
G01 X105.170 Y-0.328
G01 X105.252 Y-0.361
G01 X105.603 Y-0.487
G01 X105.688 Y-0.512
G01 X106.050 Y-0.602
G01 X106.137 Y-0.618
G01 X106.505 Y-0.673
G01 X106.594 Y-0.681
G01 X106.966 Y-0.699
G01 X107.054 Y-0.698
G01 X107.426 Y-0.680
G01 X107.515 Y-0.670
G01 X107.883 Y-0.616
G01 X107.970 Y-0.597
G01 X108.331 Y-0.507
G01 X108.416 Y-0.480
G01 X108.767 Y-0.355
G01 X108.848 Y-0.320
G01 X109.185 Y-0.160
G01 X109.263 Y-0.118
G01 X109.582 Y0.074
G01 X109.655 Y0.124
G01 X109.955 Y0.346
G01 X110.022 Y0.403
G01 X110.299 Y0.653
G01 X110.361 Y0.716
G01 X110.611 Y0.992
G01 X110.666 Y1.062
G01 X110.888 Y1.361
G01 X110.937 Y1.435
G01 X111.128 Y1.755
G01 X111.169 Y1.833
G01 X111.328 Y2.170
G01 X111.361 Y2.252
G01 X111.487 Y2.603
G01 X111.512 Y2.688
G01 X111.602 Y3.050
G01 X111.618 Y3.137
G01 X111.673 Y3.505
G01 X111.681 Y3.594
G01 X111.699 Y3.966
G01 X111.698 Y4.054
G01 X111.680 Y4.426
G01 X111.670 Y4.515
G01 X111.616 Y4.883
G01 X111.597 Y4.970
G01 X111.507 Y5.331
G01 X111.480 Y5.416
G01 X111.355 Y5.767
G01 X111.320 Y5.848
G01 X111.160 Y6.185
G01 X111.118 Y6.263
G01 X110.926 Y6.582
G01 X110.876 Y6.655
G01 X110.654 Y6.955
G01 X110.597 Y7.022
G01 X110.347 Y7.299
G01 X110.284 Y7.361
G01 X110.008 Y7.611
G01 X109.938 Y7.666
G01 X109.639 Y7.888
G01 X109.565 Y7.937
G01 X109.245 Y8.128
G01 X109.167 Y8.169
G01 X108.830 Y8.328
G01 X108.748 Y8.361
G01 X108.397 Y8.487
G01 X108.312 Y8.512
G01 X107.950 Y8.602
G01 X107.863 Y8.618
G01 X107.712 Y8.641
G01 X107.700 Y8.666
G01 Y30.300
G00 Z-1.750
G01 Y35.700
G00 Z-3.000
G01 Z-3.750 F200
G01 Y57.340 F500
G01 X107.712 Y57.359
G01 X107.883 Y57.384
G01 X107.970 Y57.403
G01 X108.331 Y57.493
G01 X108.416 Y57.520
G01 X108.767 Y57.645
G01 X108.848 Y57.680
G01 X109.185 Y57.840
G01 X109.263 Y57.882
G01 X109.582 Y58.074
G01 X109.655 Y58.124
G01 X109.955 Y58.346
G01 X110.022 Y58.403
G01 X110.299 Y58.653
G01 X110.361 Y58.716
G01 X110.611 Y58.992
G01 X110.666 Y59.062
G01 X110.888 Y59.361
G01 X110.937 Y59.435
G01 X111.128 Y59.755
G01 X111.169 Y59.833
G01 X111.328 Y60.170
G01 X111.361 Y60.252
G01 X111.487 Y60.603
G01 X111.512 Y60.688
