(Project Case-layer5)
(Created by Estlcam version 11 build 11.109)
(Machining time about 00:13:49 hours)

(Required tools:)
(End 1.500mm)
G21
G90
G94
M03 S24000.0
G00 Z20.000


(No. 1 Helical drill: Helical drill 1)
G00 X4.630 Y62.000
G00 Z0.500
G02 X3.685 Y61.454 Z0.333 I-0.6300 J0.0000 F200 S24000.0
G02 Y62.546 Z0.167 I0.3150 J0.5456
G02 X4.630 Y62.000 Z0.000 I0.3150 J-0.5456
G02 X3.685 Y61.454 I-0.6300 J0.0000
G02 Y62.546 I0.3150 J0.5456
G02 X4.630 Y62.000 I0.3150 J-0.5456
G02 X3.685 Y61.454 Z-0.167 I-0.6300 J0.0000
G02 Y62.546 Z-0.333 I0.3150 J0.5456
G02 X4.630 Y62.000 Z-0.500 I0.3150 J-0.5456
G02 X3.685 Y61.454 I-0.6300 J0.0000
G02 Y62.546 I0.3150 J0.5456
G02 X4.630 Y62.000 I0.3150 J-0.5456
G02 X4.614 Y61.746 I-0.6355 J-0.0887 F500
G02 X4.495 Y61.505 I-0.6540 J0.1748
G02 X4.281 Y61.321 I-0.5625 J0.4369
G02 X4.000 Y61.230 I-0.3661 J0.6517
G02 X3.692 Y61.256 I-0.0888 J0.7776
G02 X3.406 Y61.406 I0.2291 J0.7851
G02 X3.192 Y61.665 I0.5371 J0.6627
G02 X3.090 Y62.000 I0.7825 J0.4203
G02 X3.127 Y62.362 I0.9191 J0.0888
G02 X3.307 Y62.693 I0.9157 J-0.2831
G02 X3.612 Y62.938 I0.7626 J-0.6370
G02 X4.000 Y63.050 I0.4743 J-0.9129
G02 X4.402 Y62.970 I0.0000 J-1.0500
G02 X4.742 Y62.742 I-0.4018 J-0.9701
G02 X4.970 Y62.402 I-0.7425 J-0.7425
G02 X5.050 Y62.000 I-0.9701 J-0.4018
G02 X3.475 Y61.091 I-1.0500 J0.0000
G02 Y62.909 I0.5250 J0.9093
G02 X5.050 Y62.000 I0.5250 J-0.9093
G02 X3.370 I-0.8400 J0.0000
G02 X4.630 I0.6300 J0.0000
G02 X3.685 Y61.454 Z-0.667 I-0.6300 J0.0000 F200
G02 Y62.546 Z-0.833 I0.3150 J0.5456
G02 X4.630 Y62.000 Z-1.000 I0.3150 J-0.5456
G02 X3.685 Y61.454 I-0.6300 J0.0000
G02 Y62.546 I0.3150 J0.5456
G02 X4.630 Y62.000 I0.3150 J-0.5456
G02 X4.614 Y61.746 I-0.6355 J-0.0887 F500
G02 X4.495 Y61.505 I-0.6540 J0.1748
G02 X4.281 Y61.321 I-0.5625 J0.4369
G02 X4.000 Y61.230 I-0.3661 J0.6517
G02 X3.692 Y61.256 I-0.0888 J0.7776
G02 X3.406 Y61.406 I0.2291 J0.7851
G02 X3.192 Y61.665 I0.5371 J0.6627
G02 X3.090 Y62.000 I0.7825 J0.4203
G02 X3.127 Y62.362 I0.9191 J0.0888
G02 X3.307 Y62.693 I0.9157 J-0.2831
G02 X3.612 Y62.938 I0.7626 J-0.6370
G02 X4.000 Y63.050 I0.4743 J-0.9129
G02 X4.402 Y62.970 I0.0000 J-1.0500
G02 X4.742 Y62.742 I-0.4018 J-0.9701
G02 X4.970 Y62.402 I-0.7425 J-0.7425
G02 X5.050 Y62.000 I-0.9701 J-0.4018
G02 X3.475 Y61.091 I-1.0500 J0.0000
G02 Y62.909 I0.5250 J0.9093
G02 X5.050 Y62.000 I0.5250 J-0.9093
G02 X3.370 I-0.8400 J0.0000
G02 X4.630 I0.6300 J0.0000
G02 X3.685 Y61.454 Z-1.167 I-0.6300 J0.0000 F200
G02 Y62.546 Z-1.333 I0.3150 J0.5456
G02 X4.630 Y62.000 Z-1.500 I0.3150 J-0.5456
G02 X3.685 Y61.454 I-0.6300 J0.0000
G02 Y62.546 I0.3150 J0.5456
G02 X4.630 Y62.000 I0.3150 J-0.5456
G02 X4.614 Y61.746 I-0.6355 J-0.0887 F500
G02 X4.495 Y61.505 I-0.6540 J0.1748
G02 X4.281 Y61.321 I-0.5625 J0.4369
G02 X4.000 Y61.230 I-0.3661 J0.6517
G02 X3.692 Y61.256 I-0.0888 J0.7776
G02 X3.406 Y61.406 I0.2291 J0.7851
G02 X3.192 Y61.665 I0.5371 J0.6627
G02 X3.090 Y62.000 I0.7825 J0.4203
G02 X3.127 Y62.362 I0.9191 J0.0888
G02 X3.307 Y62.693 I0.9157 J-0.2831
G02 X3.612 Y62.938 I0.7626 J-0.6370
G02 X4.000 Y63.050 I0.4743 J-0.9129
G02 X4.402 Y62.970 I0.0000 J-1.0500
G02 X4.742 Y62.742 I-0.4018 J-0.9701
G02 X4.970 Y62.402 I-0.7425 J-0.7425
G02 X5.050 Y62.000 I-0.9701 J-0.4018
G02 X3.475 Y61.091 I-1.0500 J0.0000
G02 Y62.909 I0.5250 J0.9093
G02 X5.050 Y62.000 I0.5250 J-0.9093
G02 X3.370 I-0.8400 J0.0000
G02 X4.630 I0.6300 J0.0000
G02 X3.685 Y61.454 Z-1.667 I-0.6300 J0.0000 F200
G02 Y62.546 Z-1.833 I0.3150 J0.5456
G02 X4.630 Y62.000 Z-2.000 I0.3150 J-0.5456
G02 X3.685 Y61.454 I-0.6300 J0.0000
G02 Y62.546 I0.3150 J0.5456
G02 X4.630 Y62.000 I0.3150 J-0.5456
G02 X4.614 Y61.746 I-0.6355 J-0.0887 F500
G02 X4.495 Y61.505 I-0.6540 J0.1748
G02 X4.281 Y61.321 I-0.5625 J0.4369
G02 X4.000 Y61.230 I-0.3661 J0.6517
G02 X3.692 Y61.256 I-0.0888 J0.7776
G02 X3.406 Y61.406 I0.2291 J0.7851
G02 X3.192 Y61.665 I0.5371 J0.6627
G02 X3.090 Y62.000 I0.7825 J0.4203
G02 X3.127 Y62.362 I0.9191 J0.0888
G02 X3.307 Y62.693 I0.9157 J-0.2831
G02 X3.612 Y62.938 I0.7626 J-0.6370
G02 X4.000 Y63.050 I0.4743 J-0.9129
G02 X4.402 Y62.970 I0.0000 J-1.0500
G02 X4.742 Y62.742 I-0.4018 J-0.9701
G02 X4.970 Y62.402 I-0.7425 J-0.7425
G02 X5.050 Y62.000 I-0.9701 J-0.4018
G02 X3.475 Y61.091 I-1.0500 J0.0000
G02 Y62.909 I0.5250 J0.9093
G02 X5.050 Y62.000 I0.5250 J-0.9093
G02 X3.370 I-0.8400 J0.0000
G02 X4.630 I0.6300 J0.0000
G02 X3.685 Y61.454 Z-2.167 I-0.6300 J0.0000 F200
G02 Y62.546 Z-2.333 I0.3150 J0.5456
G02 X4.630 Y62.000 Z-2.500 I0.3150 J-0.5456
G02 X3.685 Y61.454 I-0.6300 J0.0000
G02 Y62.546 I0.3150 J0.5456
G02 X4.630 Y62.000 I0.3150 J-0.5456
G02 X4.614 Y61.746 I-0.6355 J-0.0887 F500
G02 X4.495 Y61.505 I-0.6540 J0.1748
G02 X4.281 Y61.321 I-0.5625 J0.4369
G02 X4.000 Y61.230 I-0.3661 J0.6517
G02 X3.692 Y61.256 I-0.0888 J0.7776
G02 X3.406 Y61.406 I0.2291 J0.7851
G02 X3.192 Y61.665 I0.5371 J0.6627
G02 X3.090 Y62.000 I0.7825 J0.4203
G02 X3.127 Y62.362 I0.9191 J0.0888
G02 X3.307 Y62.693 I0.9157 J-0.2831
G02 X3.612 Y62.938 I0.7626 J-0.6370
G02 X4.000 Y63.050 I0.4743 J-0.9129
G02 X4.402 Y62.970 I0.0000 J-1.0500
G02 X4.742 Y62.742 I-0.4018 J-0.9701
G02 X4.970 Y62.402 I-0.7425 J-0.7425
G02 X5.050 Y62.000 I-0.9701 J-0.4018
G02 X3.475 Y61.091 I-1.0500 J0.0000
G02 Y62.909 I0.5250 J0.9093
G02 X5.050 Y62.000 I0.5250 J-0.9093
G02 X3.370 I-0.8400 J0.0000
G02 X4.630 I0.6300 J0.0000
G02 X3.685 Y61.454 Z-2.667 I-0.6300 J0.0000 F200
G02 Y62.546 Z-2.833 I0.3150 J0.5456
G02 X4.630 Y62.000 Z-3.000 I0.3150 J-0.5456
G02 X3.685 Y61.454 I-0.6300 J0.0000
G02 Y62.546 I0.3150 J0.5456
G02 X4.630 Y62.000 I0.3150 J-0.5456
G02 X4.614 Y61.746 I-0.6355 J-0.0887 F500
G02 X4.495 Y61.505 I-0.6540 J0.1748
G02 X4.281 Y61.321 I-0.5625 J0.4369
G02 X4.000 Y61.230 I-0.3661 J0.6517
G02 X3.692 Y61.256 I-0.0888 J0.7776
G02 X3.406 Y61.406 I0.2291 J0.7851
G02 X3.192 Y61.665 I0.5371 J0.6627
G02 X3.090 Y62.000 I0.7825 J0.4203
G02 X3.127 Y62.362 I0.9191 J0.0888
G02 X3.307 Y62.693 I0.9157 J-0.2831
G02 X3.612 Y62.938 I0.7626 J-0.6370
G02 X4.000 Y63.050 I0.4743 J-0.9129
G02 X4.402 Y62.970 I0.0000 J-1.0500
G02 X4.742 Y62.742 I-0.4018 J-0.9701
G02 X4.970 Y62.402 I-0.7425 J-0.7425
G02 X5.050 Y62.000 I-0.9701 J-0.4018
G02 X3.475 Y61.091 I-1.0500 J0.0000
G02 Y62.909 I0.5250 J0.9093
G02 X5.050 Y62.000 I0.5250 J-0.9093
G02 X3.370 I-0.8400 J0.0000
G02 X4.630 I0.6300 J0.0000
G02 X3.685 Y61.454 Z-3.167 I-0.6300 J0.0000 F200
G02 Y62.546 Z-3.333 I0.3150 J0.5456
G02 X4.630 Y62.000 Z-3.500 I0.3150 J-0.5456
G02 X3.685 Y61.454 I-0.6300 J0.0000
G02 Y62.546 I0.3150 J0.5456
G02 X4.630 Y62.000 I0.3150 J-0.5456
G02 X4.614 Y61.746 I-0.6355 J-0.0887 F500
G02 X4.495 Y61.505 I-0.6540 J0.1748
G02 X4.281 Y61.321 I-0.5625 J0.4369
G02 X4.000 Y61.230 I-0.3661 J0.6517
G02 X3.692 Y61.256 I-0.0888 J0.7776
G02 X3.406 Y61.406 I0.2291 J0.7851
G02 X3.192 Y61.665 I0.5371 J0.6627
G02 X3.090 Y62.000 I0.7825 J0.4203
G02 X3.127 Y62.362 I0.9191 J0.0888
G02 X3.307 Y62.693 I0.9157 J-0.2831
G02 X3.612 Y62.938 I0.7626 J-0.6370
G02 X4.000 Y63.050 I0.4743 J-0.9129
G02 X4.402 Y62.970 I0.0000 J-1.0500
G02 X4.742 Y62.742 I-0.4018 J-0.9701
G02 X4.970 Y62.402 I-0.7425 J-0.7425
G02 X5.050 Y62.000 I-0.9701 J-0.4018
G02 X3.475 Y61.091 I-1.0500 J0.0000
G02 Y62.909 I0.5250 J0.9093
G02 X5.050 Y62.000 I0.5250 J-0.9093
G02 X3.370 I-0.8400 J0.0000
G02 X4.630 I0.6300 J0.0000
G02 X3.685 Y61.454 Z-3.583 I-0.6300 J0.0000 F200
G02 Y62.546 Z-3.667 I0.3150 J0.5456
G02 X4.630 Y62.000 Z-3.750 I0.3150 J-0.5456
G02 X3.685 Y61.454 I-0.6300 J0.0000
G02 Y62.546 I0.3150 J0.5456
G02 X4.630 Y62.000 I0.3150 J-0.5456
G02 X4.614 Y61.746 I-0.6355 J-0.0887 F500
G02 X4.495 Y61.505 I-0.6540 J0.1748
G02 X4.281 Y61.321 I-0.5625 J0.4369
G02 X4.000 Y61.230 I-0.3661 J0.6517
G02 X3.692 Y61.256 I-0.0888 J0.7776
G02 X3.406 Y61.406 I0.2291 J0.7851
G02 X3.192 Y61.665 I0.5371 J0.6627
G02 X3.090 Y62.000 I0.7825 J0.4203
G02 X3.127 Y62.362 I0.9191 J0.0888
G02 X3.307 Y62.693 I0.9157 J-0.2831
G02 X3.612 Y62.938 I0.7626 J-0.6370
G02 X4.000 Y63.050 I0.4743 J-0.9129
G02 X4.402 Y62.970 I0.0000 J-1.0500
G02 X4.742 Y62.742 I-0.4018 J-0.9701
G02 X4.970 Y62.402 I-0.7425 J-0.7425
G02 X5.050 Y62.000 I-0.9701 J-0.4018
G02 X3.475 Y61.091 I-1.0500 J0.0000
G02 Y62.909 I0.5250 J0.9093
G02 X5.050 Y62.000 I0.5250 J-0.9093
G02 X4.350 Y61.300 Z-3.250 I-0.7000 J0.0000 F200
G00 Z20.000


(No. 2 Helical drill: Helical drill 2)
G00 X107.630 Y62.000 Z20.000
G00 Z0.500
G02 X106.685 Y61.454 Z0.333 I-0.6300 J0.0000 F200
G02 Y62.546 Z0.167 I0.3150 J0.5456
G02 X107.630 Y62.000 Z0.000 I0.3150 J-0.5456
G02 X106.685 Y61.454 I-0.6300 J0.0000
G02 Y62.546 I0.3150 J0.5456
G02 X107.630 Y62.000 I0.3150 J-0.5456
G02 X106.685 Y61.454 Z-0.167 I-0.6300 J0.0000
G02 Y62.546 Z-0.333 I0.3150 J0.5456
G02 X107.630 Y62.000 Z-0.500 I0.3150 J-0.5456
G02 X106.685 Y61.454 I-0.6300 J0.0000
G02 Y62.546 I0.3150 J0.5456
G02 X107.630 Y62.000 I0.3150 J-0.5456
G02 X107.614 Y61.746 I-0.6355 J-0.0887 F500
G02 X107.495 Y61.505 I-0.6540 J0.1748
G02 X107.281 Y61.321 I-0.5625 J0.4369
G02 X107.000 Y61.230 I-0.3661 J0.6517
G02 X106.692 Y61.256 I-0.0888 J0.7776
G02 X106.406 Y61.406 I0.2291 J0.7851
G02 X106.192 Y61.665 I0.5371 J0.6627
G02 X106.090 Y62.000 I0.7825 J0.4203
G02 X106.127 Y62.362 I0.9191 J0.0888
G02 X106.307 Y62.693 I0.9157 J-0.2831
G02 X106.612 Y62.938 I0.7626 J-0.6370
G02 X107.000 Y63.050 I0.4743 J-0.9129
G02 X107.402 Y62.970 I0.0000 J-1.0500
G02 X107.742 Y62.742 I-0.4018 J-0.9701
G02 X107.970 Y62.402 I-0.7425 J-0.7425
G02 X108.050 Y62.000 I-0.9701 J-0.4018
G02 X106.475 Y61.091 I-1.0500 J0.0000
G02 Y62.909 I0.5250 J0.9093
G02 X108.050 Y62.000 I0.5250 J-0.9093
G02 X106.370 I-0.8400 J0.0000
G02 X107.630 I0.6300 J0.0000
G02 X106.685 Y61.454 Z-0.667 I-0.6300 J0.0000 F200
G02 Y62.546 Z-0.833 I0.3150 J0.5456
G02 X107.630 Y62.000 Z-1.000 I0.3150 J-0.5456
G02 X106.685 Y61.454 I-0.6300 J0.0000
G02 Y62.546 I0.3150 J0.5456
G02 X107.630 Y62.000 I0.3150 J-0.5456
G02 X107.614 Y61.746 I-0.6355 J-0.0887 F500
G02 X107.495 Y61.505 I-0.6540 J0.1748
G02 X107.281 Y61.321 I-0.5625 J0.4369
G02 X107.000 Y61.230 I-0.3661 J0.6517
G02 X106.692 Y61.256 I-0.0888 J0.7776
G02 X106.406 Y61.406 I0.2291 J0.7851
G02 X106.192 Y61.665 I0.5371 J0.6627
G02 X106.090 Y62.000 I0.7825 J0.4203
G02 X106.127 Y62.362 I0.9191 J0.0888
G02 X106.307 Y62.693 I0.9157 J-0.2831
G02 X106.612 Y62.938 I0.7626 J-0.6370
G02 X107.000 Y63.050 I0.4743 J-0.9129
G02 X107.402 Y62.970 I0.0000 J-1.0500
G02 X107.742 Y62.742 I-0.4018 J-0.9701
G02 X107.970 Y62.402 I-0.7425 J-0.7425
G02 X108.050 Y62.000 I-0.9701 J-0.4018
G02 X106.475 Y61.091 I-1.0500 J0.0000
G02 Y62.909 I0.5250 J0.9093
G02 X108.050 Y62.000 I0.5250 J-0.9093
G02 X106.370 I-0.8400 J0.0000
G02 X107.630 I0.6300 J0.0000
G02 X106.685 Y61.454 Z-1.167 I-0.6300 J0.0000 F200
G02 Y62.546 Z-1.333 I0.3150 J0.5456
G02 X107.630 Y62.000 Z-1.500 I0.3150 J-0.5456
G02 X106.685 Y61.454 I-0.6300 J0.0000
G02 Y62.546 I0.3150 J0.5456
G02 X107.630 Y62.000 I0.3150 J-0.5456
G02 X107.614 Y61.746 I-0.6355 J-0.0887 F500
G02 X107.495 Y61.505 I-0.6540 J0.1748
G02 X107.281 Y61.321 I-0.5625 J0.4369
G02 X107.000 Y61.230 I-0.3661 J0.6517
G02 X106.692 Y61.256 I-0.0888 J0.7776
G02 X106.406 Y61.406 I0.2291 J0.7851
G02 X106.192 Y61.665 I0.5371 J0.6627
G02 X106.090 Y62.000 I0.7825 J0.4203
G02 X106.127 Y62.362 I0.9191 J0.0888
G02 X106.307 Y62.693 I0.9157 J-0.2831
G02 X106.612 Y62.938 I0.7626 J-0.6370
G02 X107.000 Y63.050 I0.4743 J-0.9129
G02 X107.402 Y62.970 I0.0000 J-1.0500
G02 X107.742 Y62.742 I-0.4018 J-0.9701
G02 X107.970 Y62.402 I-0.7425 J-0.7425
G02 X108.050 Y62.000 I-0.9701 J-0.4018
G02 X106.475 Y61.091 I-1.0500 J0.0000
G02 Y62.909 I0.5250 J0.9093
G02 X108.050 Y62.000 I0.5250 J-0.9093
G02 X106.370 I-0.8400 J0.0000
G02 X107.630 I0.6300 J0.0000
G02 X106.685 Y61.454 Z-1.667 I-0.6300 J0.0000 F200
G02 Y62.546 Z-1.833 I0.3150 J0.5456
G02 X107.630 Y62.000 Z-2.000 I0.3150 J-0.5456
G02 X106.685 Y61.454 I-0.6300 J0.0000
G02 Y62.546 I0.3150 J0.5456
G02 X107.630 Y62.000 I0.3150 J-0.5456
G02 X107.614 Y61.746 I-0.6355 J-0.0887 F500
G02 X107.495 Y61.505 I-0.6540 J0.1748
G02 X107.281 Y61.321 I-0.5625 J0.4369
G02 X107.000 Y61.230 I-0.3661 J0.6517
G02 X106.692 Y61.256 I-0.0888 J0.7776
G02 X106.406 Y61.406 I0.2291 J0.7851
G02 X106.192 Y61.665 I0.5371 J0.6627
G02 X106.090 Y62.000 I0.7825 J0.4203
G02 X106.127 Y62.362 I0.9191 J0.0888
G02 X106.307 Y62.693 I0.9157 J-0.2831
G02 X106.612 Y62.938 I0.7626 J-0.6370
G02 X107.000 Y63.050 I0.4743 J-0.9129
G02 X107.402 Y62.970 I0.0000 J-1.0500
G02 X107.742 Y62.742 I-0.4018 J-0.9701
G02 X107.970 Y62.402 I-0.7425 J-0.7425
G02 X108.050 Y62.000 I-0.9701 J-0.4018
G02 X106.475 Y61.091 I-1.0500 J0.0000
G02 Y62.909 I0.5250 J0.9093
G02 X108.050 Y62.000 I0.5250 J-0.9093
G02 X106.370 I-0.8400 J0.0000
G02 X107.630 I0.6300 J0.0000
G02 X106.685 Y61.454 Z-2.167 I-0.6300 J0.0000 F200
G02 Y62.546 Z-2.333 I0.3150 J0.5456
G02 X107.630 Y62.000 Z-2.500 I0.3150 J-0.5456
G02 X106.685 Y61.454 I-0.6300 J0.0000
G02 Y62.546 I0.3150 J0.5456
G02 X107.630 Y62.000 I0.3150 J-0.5456
G02 X107.614 Y61.746 I-0.6355 J-0.0887 F500
G02 X107.495 Y61.505 I-0.6540 J0.1748
G02 X107.281 Y61.321 I-0.5625 J0.4369
G02 X107.000 Y61.230 I-0.3661 J0.6517
G02 X106.692 Y61.256 I-0.0888 J0.7776
G02 X106.406 Y61.406 I0.2291 J0.7851
G02 X106.192 Y61.665 I0.5371 J0.6627
G02 X106.090 Y62.000 I0.7825 J0.4203
G02 X106.127 Y62.362 I0.9191 J0.0888
G02 X106.307 Y62.693 I0.9157 J-0.2831
G02 X106.612 Y62.938 I0.7626 J-0.6370
G02 X107.000 Y63.050 I0.4743 J-0.9129
G02 X107.402 Y62.970 I0.0000 J-1.0500
G02 X107.742 Y62.742 I-0.4018 J-0.9701
G02 X107.970 Y62.402 I-0.7425 J-0.7425
G02 X108.050 Y62.000 I-0.9701 J-0.4018
G02 X106.475 Y61.091 I-1.0500 J0.0000
G02 Y62.909 I0.5250 J0.9093
G02 X108.050 Y62.000 I0.5250 J-0.9093
G02 X106.370 I-0.8400 J0.0000
G02 X107.630 I0.6300 J0.0000
G02 X106.685 Y61.454 Z-2.667 I-0.6300 J0.0000 F200
G02 Y62.546 Z-2.833 I0.3150 J0.5456
G02 X107.630 Y62.000 Z-3.000 I0.3150 J-0.5456
G02 X106.685 Y61.454 I-0.6300 J0.0000
G02 Y62.546 I0.3150 J0.5456
G02 X107.630 Y62.000 I0.3150 J-0.5456
G02 X107.614 Y61.746 I-0.6355 J-0.0887 F500
G02 X107.495 Y61.505 I-0.6540 J0.1748
G02 X107.281 Y61.321 I-0.5625 J0.4369
G02 X107.000 Y61.230 I-0.3661 J0.6517
G02 X106.692 Y61.256 I-0.0888 J0.7776
G02 X106.406 Y61.406 I0.2291 J0.7851
G02 X106.192 Y61.665 I0.5371 J0.6627
G02 X106.090 Y62.000 I0.7825 J0.4203
G02 X106.127 Y62.362 I0.9191 J0.0888
G02 X106.307 Y62.693 I0.9157 J-0.2831
G02 X106.612 Y62.938 I0.7626 J-0.6370
G02 X107.000 Y63.050 I0.4743 J-0.9129
G02 X107.402 Y62.970 I0.0000 J-1.0500
G02 X107.742 Y62.742 I-0.4018 J-0.9701
G02 X107.970 Y62.402 I-0.7425 J-0.7425
G02 X108.050 Y62.000 I-0.9701 J-0.4018
G02 X106.475 Y61.091 I-1.0500 J0.0000
G02 Y62.909 I0.5250 J0.9093
G02 X108.050 Y62.000 I0.5250 J-0.9093
G02 X106.370 I-0.8400 J0.0000
G02 X107.630 I0.6300 J0.0000
G02 X106.685 Y61.454 Z-3.167 I-0.6300 J0.0000 F200
G02 Y62.546 Z-3.333 I0.3150 J0.5456
G02 X107.630 Y62.000 Z-3.500 I0.3150 J-0.5456
G02 X106.685 Y61.454 I-0.6300 J0.0000
G02 Y62.546 I0.3150 J0.5456
G02 X107.630 Y62.000 I0.3150 J-0.5456
G02 X107.614 Y61.746 I-0.6355 J-0.0887 F500
G02 X107.495 Y61.505 I-0.6540 J0.1748
G02 X107.281 Y61.321 I-0.5625 J0.4369
G02 X107.000 Y61.230 I-0.3661 J0.6517
G02 X106.692 Y61.256 I-0.0888 J0.7776
G02 X106.406 Y61.406 I0.2291 J0.7851
G02 X106.192 Y61.665 I0.5371 J0.6627
G02 X106.090 Y62.000 I0.7825 J0.4203
G02 X106.127 Y62.362 I0.9191 J0.0888
G02 X106.307 Y62.693 I0.9157 J-0.2831
G02 X106.612 Y62.938 I0.7626 J-0.6370
G02 X107.000 Y63.050 I0.4743 J-0.9129
G02 X107.402 Y62.970 I0.0000 J-1.0500
G02 X107.742 Y62.742 I-0.4018 J-0.9701
G02 X107.970 Y62.402 I-0.7425 J-0.7425
G02 X108.050 Y62.000 I-0.9701 J-0.4018
G02 X106.475 Y61.091 I-1.0500 J0.0000
G02 Y62.909 I0.5250 J0.9093
G02 X108.050 Y62.000 I0.5250 J-0.9093
G02 X106.370 I-0.8400 J0.0000
G02 X107.630 I0.6300 J0.0000
G02 X106.685 Y61.454 Z-3.583 I-0.6300 J0.0000 F200
G02 Y62.546 Z-3.667 I0.3150 J0.5456
G02 X107.630 Y62.000 Z-3.750 I0.3150 J-0.5456
G02 X106.685 Y61.454 I-0.6300 J0.0000
G02 Y62.546 I0.3150 J0.5456
G02 X107.630 Y62.000 I0.3150 J-0.5456
G02 X107.614 Y61.746 I-0.6355 J-0.0887 F500
G02 X107.495 Y61.505 I-0.6540 J0.1748
G02 X107.281 Y61.321 I-0.5625 J0.4369
G02 X107.000 Y61.230 I-0.3661 J0.6517
G02 X106.692 Y61.256 I-0.0888 J0.7776
G02 X106.406 Y61.406 I0.2291 J0.7851
G02 X106.192 Y61.665 I0.5371 J0.6627
G02 X106.090 Y62.000 I0.7825 J0.4203
G02 X106.127 Y62.362 I0.9191 J0.0888
G02 X106.307 Y62.693 I0.9157 J-0.2831
G02 X106.612 Y62.938 I0.7626 J-0.6370
G02 X107.000 Y63.050 I0.4743 J-0.9129
G02 X107.402 Y62.970 I0.0000 J-1.0500
G02 X107.742 Y62.742 I-0.4018 J-0.9701
G02 X107.970 Y62.402 I-0.7425 J-0.7425
G02 X108.050 Y62.000 I-0.9701 J-0.4018
G02 X106.475 Y61.091 I-1.0500 J0.0000
G02 Y62.909 I0.5250 J0.9093
G02 X108.050 Y62.000 I0.5250 J-0.9093
G02 X107.350 Y61.300 Z-3.250 I-0.7000 J0.0000 F200
G00 Z20.000


(No. 3 Helical drill: Helical drill 3)
G00 X107.630 Y4.000 Z20.000
G00 Z0.500
G02 X106.685 Y3.454 Z0.333 I-0.6300 J0.0000 F200
G02 Y4.546 Z0.167 I0.3150 J0.5456
G02 X107.630 Y4.000 Z0.000 I0.3150 J-0.5456
G02 X106.685 Y3.454 I-0.6300 J0.0000
G02 Y4.546 I0.3150 J0.5456
G02 X107.630 Y4.000 I0.3150 J-0.5456
G02 X106.685 Y3.454 Z-0.167 I-0.6300 J0.0000
G02 Y4.546 Z-0.333 I0.3150 J0.5456
G02 X107.630 Y4.000 Z-0.500 I0.3150 J-0.5456
G02 X106.685 Y3.454 I-0.6300 J0.0000
G02 Y4.546 I0.3150 J0.5456
G02 X107.630 Y4.000 I0.3150 J-0.5456
G02 X107.614 Y3.746 I-0.6355 J-0.0887 F500
G02 X107.495 Y3.505 I-0.6540 J0.1748
G02 X107.281 Y3.321 I-0.5625 J0.4369
G02 X107.000 Y3.230 I-0.3661 J0.6517
G02 X106.692 Y3.256 I-0.0888 J0.7776
G02 X106.406 Y3.406 I0.2291 J0.7851
G02 X106.192 Y3.665 I0.5371 J0.6627
G02 X106.090 Y4.000 I0.7825 J0.4203
G02 X106.127 Y4.362 I0.9191 J0.0888
G02 X106.307 Y4.693 I0.9157 J-0.2831
G02 X106.612 Y4.938 I0.7626 J-0.6370
G02 X107.000 Y5.050 I0.4743 J-0.9129
G02 X107.402 Y4.970 I0.0000 J-1.0500
G02 X107.742 Y4.742 I-0.4018 J-0.9701
G02 X107.970 Y4.402 I-0.7425 J-0.7425
G02 X108.050 Y4.000 I-0.9701 J-0.4018
G02 X106.475 Y3.091 I-1.0500 J0.0000
G02 Y4.909 I0.5250 J0.9093
G02 X108.050 Y4.000 I0.5250 J-0.9093
G02 X106.370 I-0.8400 J0.0000
G02 X107.630 I0.6300 J0.0000
G02 X106.685 Y3.454 Z-0.667 I-0.6300 J0.0000 F200
G02 Y4.546 Z-0.833 I0.3150 J0.5456
G02 X107.630 Y4.000 Z-1.000 I0.3150 J-0.5456
G02 X106.685 Y3.454 I-0.6300 J0.0000
G02 Y4.546 I0.3150 J0.5456
G02 X107.630 Y4.000 I0.3150 J-0.5456
G02 X107.614 Y3.746 I-0.6355 J-0.0887 F500
G02 X107.495 Y3.505 I-0.6540 J0.1748
G02 X107.281 Y3.321 I-0.5625 J0.4369
G02 X107.000 Y3.230 I-0.3661 J0.6517
G02 X106.692 Y3.256 I-0.0888 J0.7776
G02 X106.406 Y3.406 I0.2291 J0.7851
G02 X106.192 Y3.665 I0.5371 J0.6627
G02 X106.090 Y4.000 I0.7825 J0.4203
G02 X106.127 Y4.362 I0.9191 J0.0888
G02 X106.307 Y4.693 I0.9157 J-0.2831
G02 X106.612 Y4.938 I0.7626 J-0.6370
G02 X107.000 Y5.050 I0.4743 J-0.9129
G02 X107.402 Y4.970 I0.0000 J-1.0500
G02 X107.742 Y4.742 I-0.4018 J-0.9701
G02 X107.970 Y4.402 I-0.7425 J-0.7425
G02 X108.050 Y4.000 I-0.9701 J-0.4018
G02 X106.475 Y3.091 I-1.0500 J0.0000
G02 Y4.909 I0.5250 J0.9093
G02 X108.050 Y4.000 I0.5250 J-0.9093
G02 X106.370 I-0.8400 J0.0000
G02 X107.630 I0.6300 J0.0000
G02 X106.685 Y3.454 Z-1.167 I-0.6300 J0.0000 F200
G02 Y4.546 Z-1.333 I0.3150 J0.5456
G02 X107.630 Y4.000 Z-1.500 I0.3150 J-0.5456
G02 X106.685 Y3.454 I-0.6300 J0.0000
G02 Y4.546 I0.3150 J0.5456
G02 X107.630 Y4.000 I0.3150 J-0.5456
G02 X107.614 Y3.746 I-0.6355 J-0.0887 F500
G02 X107.495 Y3.505 I-0.6540 J0.1748
G02 X107.281 Y3.321 I-0.5625 J0.4369
G02 X107.000 Y3.230 I-0.3661 J0.6517
G02 X106.692 Y3.256 I-0.0888 J0.7776
G02 X106.406 Y3.406 I0.2291 J0.7851
G02 X106.192 Y3.665 I0.5371 J0.6627
G02 X106.090 Y4.000 I0.7825 J0.4203
G02 X106.127 Y4.362 I0.9191 J0.0888
G02 X106.307 Y4.693 I0.9157 J-0.2831
G02 X106.612 Y4.938 I0.7626 J-0.6370
G02 X107.000 Y5.050 I0.4743 J-0.9129
G02 X107.402 Y4.970 I0.0000 J-1.0500
G02 X107.742 Y4.742 I-0.4018 J-0.9701
G02 X107.970 Y4.402 I-0.7425 J-0.7425
G02 X108.050 Y4.000 I-0.9701 J-0.4018
G02 X106.475 Y3.091 I-1.0500 J0.0000
G02 Y4.909 I0.5250 J0.9093
G02 X108.050 Y4.000 I0.5250 J-0.9093
G02 X106.370 I-0.8400 J0.0000
G02 X107.630 I0.6300 J0.0000
G02 X106.685 Y3.454 Z-1.667 I-0.6300 J0.0000 F200
G02 Y4.546 Z-1.833 I0.3150 J0.5456
G02 X107.630 Y4.000 Z-2.000 I0.3150 J-0.5456
G02 X106.685 Y3.454 I-0.6300 J0.0000
G02 Y4.546 I0.3150 J0.5456
G02 X107.630 Y4.000 I0.3150 J-0.5456
G02 X107.614 Y3.746 I-0.6355 J-0.0887 F500
G02 X107.495 Y3.505 I-0.6540 J0.1748
G02 X107.281 Y3.321 I-0.5625 J0.4369
G02 X107.000 Y3.230 I-0.3661 J0.6517
G02 X106.692 Y3.256 I-0.0888 J0.7776
G02 X106.406 Y3.406 I0.2291 J0.7851
G02 X106.192 Y3.665 I0.5371 J0.6627
G02 X106.090 Y4.000 I0.7825 J0.4203
G02 X106.127 Y4.362 I0.9191 J0.0888
G02 X106.307 Y4.693 I0.9157 J-0.2831
G02 X106.612 Y4.938 I0.7626 J-0.6370
G02 X107.000 Y5.050 I0.4743 J-0.9129
G02 X107.402 Y4.970 I0.0000 J-1.0500
G02 X107.742 Y4.742 I-0.4018 J-0.9701
G02 X107.970 Y4.402 I-0.7425 J-0.7425
G02 X108.050 Y4.000 I-0.9701 J-0.4018
G02 X106.475 Y3.091 I-1.0500 J0.0000
G02 Y4.909 I0.5250 J0.9093
G02 X108.050 Y4.000 I0.5250 J-0.9093
G02 X106.370 I-0.8400 J0.0000
G02 X107.630 I0.6300 J0.0000
G02 X106.685 Y3.454 Z-2.167 I-0.6300 J0.0000 F200
G02 Y4.546 Z-2.333 I0.3150 J0.5456
G02 X107.630 Y4.000 Z-2.500 I0.3150 J-0.5456
G02 X106.685 Y3.454 I-0.6300 J0.0000
G02 Y4.546 I0.3150 J0.5456
G02 X107.630 Y4.000 I0.3150 J-0.5456
G02 X107.614 Y3.746 I-0.6355 J-0.0887 F500
G02 X107.495 Y3.505 I-0.6540 J0.1748
G02 X107.281 Y3.321 I-0.5625 J0.4369
G02 X107.000 Y3.230 I-0.3661 J0.6517
G02 X106.692 Y3.256 I-0.0888 J0.7776
G02 X106.406 Y3.406 I0.2291 J0.7851
G02 X106.192 Y3.665 I0.5371 J0.6627
G02 X106.090 Y4.000 I0.7825 J0.4203
G02 X106.127 Y4.362 I0.9191 J0.0888
G02 X106.307 Y4.693 I0.9157 J-0.2831
G02 X106.612 Y4.938 I0.7626 J-0.6370
G02 X107.000 Y5.050 I0.4743 J-0.9129
G02 X107.402 Y4.970 I0.0000 J-1.0500
G02 X107.742 Y4.742 I-0.4018 J-0.9701
G02 X107.970 Y4.402 I-0.7425 J-0.7425
G02 X108.050 Y4.000 I-0.9701 J-0.4018
G02 X106.475 Y3.091 I-1.0500 J0.0000
G02 Y4.909 I0.5250 J0.9093
G02 X108.050 Y4.000 I0.5250 J-0.9093
G02 X106.370 I-0.8400 J0.0000
G02 X107.630 I0.6300 J0.0000
G02 X106.685 Y3.454 Z-2.667 I-0.6300 J0.0000 F200
G02 Y4.546 Z-2.833 I0.3150 J0.5456
G02 X107.630 Y4.000 Z-3.000 I0.3150 J-0.5456
G02 X106.685 Y3.454 I-0.6300 J0.0000
G02 Y4.546 I0.3150 J0.5456
G02 X107.630 Y4.000 I0.3150 J-0.5456
G02 X107.614 Y3.746 I-0.6355 J-0.0887 F500
G02 X107.495 Y3.505 I-0.6540 J0.1748
G02 X107.281 Y3.321 I-0.5625 J0.4369
G02 X107.000 Y3.230 I-0.3661 J0.6517
G02 X106.692 Y3.256 I-0.0888 J0.7776
G02 X106.406 Y3.406 I0.2291 J0.7851
G02 X106.192 Y3.665 I0.5371 J0.6627
G02 X106.090 Y4.000 I0.7825 J0.4203
G02 X106.127 Y4.362 I0.9191 J0.0888
G02 X106.307 Y4.693 I0.9157 J-0.2831
G02 X106.612 Y4.938 I0.7626 J-0.6370
G02 X107.000 Y5.050 I0.4743 J-0.9129
G02 X107.402 Y4.970 I0.0000 J-1.0500
G02 X107.742 Y4.742 I-0.4018 J-0.9701
G02 X107.970 Y4.402 I-0.7425 J-0.7425
G02 X108.050 Y4.000 I-0.9701 J-0.4018
G02 X106.475 Y3.091 I-1.0500 J0.0000
G02 Y4.909 I0.5250 J0.9093
G02 X108.050 Y4.000 I0.5250 J-0.9093
G02 X106.370 I-0.8400 J0.0000
G02 X107.630 I0.6300 J0.0000
G02 X106.685 Y3.454 Z-3.167 I-0.6300 J0.0000 F200
G02 Y4.546 Z-3.333 I0.3150 J0.5456
G02 X107.630 Y4.000 Z-3.500 I0.3150 J-0.5456
G02 X106.685 Y3.454 I-0.6300 J0.0000
G02 Y4.546 I0.3150 J0.5456
G02 X107.630 Y4.000 I0.3150 J-0.5456
G02 X107.614 Y3.746 I-0.6355 J-0.0887 F500
G02 X107.495 Y3.505 I-0.6540 J0.1748
G02 X107.281 Y3.321 I-0.5625 J0.4369
G02 X107.000 Y3.230 I-0.3661 J0.6517
G02 X106.692 Y3.256 I-0.0888 J0.7776
G02 X106.406 Y3.406 I0.2291 J0.7851
G02 X106.192 Y3.665 I0.5371 J0.6627
G02 X106.090 Y4.000 I0.7825 J0.4203
G02 X106.127 Y4.362 I0.9191 J0.0888
G02 X106.307 Y4.693 I0.9157 J-0.2831
G02 X106.612 Y4.938 I0.7626 J-0.6370
G02 X107.000 Y5.050 I0.4743 J-0.9129
G02 X107.402 Y4.970 I0.0000 J-1.0500
G02 X107.742 Y4.742 I-0.4018 J-0.9701
G02 X107.970 Y4.402 I-0.7425 J-0.7425
G02 X108.050 Y4.000 I-0.9701 J-0.4018
G02 X106.475 Y3.091 I-1.0500 J0.0000
G02 Y4.909 I0.5250 J0.9093
G02 X108.050 Y4.000 I0.5250 J-0.9093
G02 X106.370 I-0.8400 J0.0000
G02 X107.630 I0.6300 J0.0000
G02 X106.685 Y3.454 Z-3.583 I-0.6300 J0.0000 F200
G02 Y4.546 Z-3.667 I0.3150 J0.5456
G02 X107.630 Y4.000 Z-3.750 I0.3150 J-0.5456
G02 X106.685 Y3.454 I-0.6300 J0.0000
G02 Y4.546 I0.3150 J0.5456
G02 X107.630 Y4.000 I0.3150 J-0.5456
G02 X107.614 Y3.746 I-0.6355 J-0.0887 F500
G02 X107.495 Y3.505 I-0.6540 J0.1748
G02 X107.281 Y3.321 I-0.5625 J0.4369
G02 X107.000 Y3.230 I-0.3661 J0.6517
G02 X106.692 Y3.256 I-0.0888 J0.7776
G02 X106.406 Y3.406 I0.2291 J0.7851
G02 X106.192 Y3.665 I0.5371 J0.6627
G02 X106.090 Y4.000 I0.7825 J0.4203
G02 X106.127 Y4.362 I0.9191 J0.0888
G02 X106.307 Y4.693 I0.9157 J-0.2831
G02 X106.612 Y4.938 I0.7626 J-0.6370
G02 X107.000 Y5.050 I0.4743 J-0.9129
G02 X107.402 Y4.970 I0.0000 J-1.0500
G02 X107.742 Y4.742 I-0.4018 J-0.9701
G02 X107.970 Y4.402 I-0.7425 J-0.7425
G02 X108.050 Y4.000 I-0.9701 J-0.4018
G02 X106.475 Y3.091 I-1.0500 J0.0000
G02 Y4.909 I0.5250 J0.9093
G02 X108.050 Y4.000 I0.5250 J-0.9093
G02 X107.350 Y3.300 Z-3.250 I-0.7000 J0.0000 F200
G00 Z20.000


(No. 4 Helical drill: Helical drill 4)
G00 X4.630 Y4.000 Z20.000
G00 Z0.500
G02 X3.685 Y3.454 Z0.333 I-0.6300 J0.0000 F200
G02 Y4.546 Z0.167 I0.3150 J0.5456
G02 X4.630 Y4.000 Z0.000 I0.3150 J-0.5456
G02 X3.685 Y3.454 I-0.6300 J0.0000
G02 Y4.546 I0.3150 J0.5456
G02 X4.630 Y4.000 I0.3150 J-0.5456
G02 X3.685 Y3.454 Z-0.167 I-0.6300 J0.0000
G02 Y4.546 Z-0.333 I0.3150 J0.5456
G02 X4.630 Y4.000 Z-0.500 I0.3150 J-0.5456
G02 X3.685 Y3.454 I-0.6300 J0.0000
G02 Y4.546 I0.3150 J0.5456
G02 X4.630 Y4.000 I0.3150 J-0.5456
G02 X4.614 Y3.746 I-0.6355 J-0.0887 F500
G02 X4.495 Y3.505 I-0.6540 J0.1748
G02 X4.281 Y3.321 I-0.5625 J0.4369
G02 X4.000 Y3.230 I-0.3661 J0.6517
G02 X3.692 Y3.256 I-0.0888 J0.7776
G02 X3.406 Y3.406 I0.2291 J0.7851
G02 X3.192 Y3.665 I0.5371 J0.6627
G02 X3.090 Y4.000 I0.7825 J0.4203
G02 X3.127 Y4.362 I0.9191 J0.0888
G02 X3.307 Y4.693 I0.9157 J-0.2831
G02 X3.612 Y4.938 I0.7626 J-0.6370
G02 X4.000 Y5.050 I0.4743 J-0.9129
G02 X4.402 Y4.970 I0.0000 J-1.0500
G02 X4.742 Y4.742 I-0.4018 J-0.9701
G02 X4.970 Y4.402 I-0.7425 J-0.7425
G02 X5.050 Y4.000 I-0.9701 J-0.4018
G02 X3.475 Y3.091 I-1.0500 J0.0000
G02 Y4.909 I0.5250 J0.9093
G02 X5.050 Y4.000 I0.5250 J-0.9093
G02 X3.370 I-0.8400 J0.0000
G02 X4.630 I0.6300 J0.0000
G02 X3.685 Y3.454 Z-0.667 I-0.6300 J0.0000 F200
G02 Y4.546 Z-0.833 I0.3150 J0.5456
G02 X4.630 Y4.000 Z-1.000 I0.3150 J-0.5456
G02 X3.685 Y3.454 I-0.6300 J0.0000
G02 Y4.546 I0.3150 J0.5456
G02 X4.630 Y4.000 I0.3150 J-0.5456
G02 X4.614 Y3.746 I-0.6355 J-0.0887 F500
G02 X4.495 Y3.505 I-0.6540 J0.1748
G02 X4.281 Y3.321 I-0.5625 J0.4369
G02 X4.000 Y3.230 I-0.3661 J0.6517
G02 X3.692 Y3.256 I-0.0888 J0.7776
G02 X3.406 Y3.406 I0.2291 J0.7851
G02 X3.192 Y3.665 I0.5371 J0.6627
G02 X3.090 Y4.000 I0.7825 J0.4203
G02 X3.127 Y4.362 I0.9191 J0.0888
G02 X3.307 Y4.693 I0.9157 J-0.2831
G02 X3.612 Y4.938 I0.7626 J-0.6370
G02 X4.000 Y5.050 I0.4743 J-0.9129
G02 X4.402 Y4.970 I0.0000 J-1.0500
G02 X4.742 Y4.742 I-0.4018 J-0.9701
G02 X4.970 Y4.402 I-0.7425 J-0.7425
G02 X5.050 Y4.000 I-0.9701 J-0.4018
G02 X3.475 Y3.091 I-1.0500 J0.0000
G02 Y4.909 I0.5250 J0.9093
G02 X5.050 Y4.000 I0.5250 J-0.9093
G02 X3.370 I-0.8400 J0.0000
G02 X4.630 I0.6300 J0.0000
G02 X3.685 Y3.454 Z-1.167 I-0.6300 J0.0000 F200
G02 Y4.546 Z-1.333 I0.3150 J0.5456
G02 X4.630 Y4.000 Z-1.500 I0.3150 J-0.5456
G02 X3.685 Y3.454 I-0.6300 J0.0000
G02 Y4.546 I0.3150 J0.5456
G02 X4.630 Y4.000 I0.3150 J-0.5456
G02 X4.614 Y3.746 I-0.6355 J-0.0887 F500
G02 X4.495 Y3.505 I-0.6540 J0.1748
G02 X4.281 Y3.321 I-0.5625 J0.4369
G02 X4.000 Y3.230 I-0.3661 J0.6517
G02 X3.692 Y3.256 I-0.0888 J0.7776
G02 X3.406 Y3.406 I0.2291 J0.7851
G02 X3.192 Y3.665 I0.5371 J0.6627
G02 X3.090 Y4.000 I0.7825 J0.4203
G02 X3.127 Y4.362 I0.9191 J0.0888
G02 X3.307 Y4.693 I0.9157 J-0.2831
G02 X3.612 Y4.938 I0.7626 J-0.6370
G02 X4.000 Y5.050 I0.4743 J-0.9129
G02 X4.402 Y4.970 I0.0000 J-1.0500
G02 X4.742 Y4.742 I-0.4018 J-0.9701
G02 X4.970 Y4.402 I-0.7425 J-0.7425
G02 X5.050 Y4.000 I-0.9701 J-0.4018
G02 X3.475 Y3.091 I-1.0500 J0.0000
G02 Y4.909 I0.5250 J0.9093
G02 X5.050 Y4.000 I0.5250 J-0.9093
G02 X3.370 I-0.8400 J0.0000
G02 X4.630 I0.6300 J0.0000
G02 X3.685 Y3.454 Z-1.667 I-0.6300 J0.0000 F200
G02 Y4.546 Z-1.833 I0.3150 J0.5456
G02 X4.630 Y4.000 Z-2.000 I0.3150 J-0.5456
G02 X3.685 Y3.454 I-0.6300 J0.0000
G02 Y4.546 I0.3150 J0.5456
G02 X4.630 Y4.000 I0.3150 J-0.5456
G02 X4.614 Y3.746 I-0.6355 J-0.0887 F500
G02 X4.495 Y3.505 I-0.6540 J0.1748
G02 X4.281 Y3.321 I-0.5625 J0.4369
G02 X4.000 Y3.230 I-0.3661 J0.6517
G02 X3.692 Y3.256 I-0.0888 J0.7776
G02 X3.406 Y3.406 I0.2291 J0.7851
G02 X3.192 Y3.665 I0.5371 J0.6627
G02 X3.090 Y4.000 I0.7825 J0.4203
G02 X3.127 Y4.362 I0.9191 J0.0888
G02 X3.307 Y4.693 I0.9157 J-0.2831
G02 X3.612 Y4.938 I0.7626 J-0.6370
G02 X4.000 Y5.050 I0.4743 J-0.9129
G02 X4.402 Y4.970 I0.0000 J-1.0500
G02 X4.742 Y4.742 I-0.4018 J-0.9701
G02 X4.970 Y4.402 I-0.7425 J-0.7425
G02 X5.050 Y4.000 I-0.9701 J-0.4018
G02 X3.475 Y3.091 I-1.0500 J0.0000
G02 Y4.909 I0.5250 J0.9093
G02 X5.050 Y4.000 I0.5250 J-0.9093
G02 X3.370 I-0.8400 J0.0000
G02 X4.630 I0.6300 J0.0000
G02 X3.685 Y3.454 Z-2.167 I-0.6300 J0.0000 F200
G02 Y4.546 Z-2.333 I0.3150 J0.5456
G02 X4.630 Y4.000 Z-2.500 I0.3150 J-0.5456
G02 X3.685 Y3.454 I-0.6300 J0.0000
G02 Y4.546 I0.3150 J0.5456
G02 X4.630 Y4.000 I0.3150 J-0.5456
G02 X4.614 Y3.746 I-0.6355 J-0.0887 F500
G02 X4.495 Y3.505 I-0.6540 J0.1748
G02 X4.281 Y3.321 I-0.5625 J0.4369
G02 X4.000 Y3.230 I-0.3661 J0.6517
G02 X3.692 Y3.256 I-0.0888 J0.7776
G02 X3.406 Y3.406 I0.2291 J0.7851
G02 X3.192 Y3.665 I0.5371 J0.6627
G02 X3.090 Y4.000 I0.7825 J0.4203
G02 X3.127 Y4.362 I0.9191 J0.0888
G02 X3.307 Y4.693 I0.9157 J-0.2831
G02 X3.612 Y4.938 I0.7626 J-0.6370
G02 X4.000 Y5.050 I0.4743 J-0.9129
G02 X4.402 Y4.970 I0.0000 J-1.0500
G02 X4.742 Y4.742 I-0.4018 J-0.9701
G02 X4.970 Y4.402 I-0.7425 J-0.7425
G02 X5.050 Y4.000 I-0.9701 J-0.4018
G02 X3.475 Y3.091 I-1.0500 J0.0000
G02 Y4.909 I0.5250 J0.9093
G02 X5.050 Y4.000 I0.5250 J-0.9093
G02 X3.370 I-0.8400 J0.0000
G02 X4.630 I0.6300 J0.0000
G02 X3.685 Y3.454 Z-2.667 I-0.6300 J0.0000 F200
G02 Y4.546 Z-2.833 I0.3150 J0.5456
G02 X4.630 Y4.000 Z-3.000 I0.3150 J-0.5456
G02 X3.685 Y3.454 I-0.6300 J0.0000
G02 Y4.546 I0.3150 J0.5456
G02 X4.630 Y4.000 I0.3150 J-0.5456
G02 X4.614 Y3.746 I-0.6355 J-0.0887 F500
G02 X4.495 Y3.505 I-0.6540 J0.1748
G02 X4.281 Y3.321 I-0.5625 J0.4369
G02 X4.000 Y3.230 I-0.3661 J0.6517
G02 X3.692 Y3.256 I-0.0888 J0.7776
G02 X3.406 Y3.406 I0.2291 J0.7851
G02 X3.192 Y3.665 I0.5371 J0.6627
G02 X3.090 Y4.000 I0.7825 J0.4203
G02 X3.127 Y4.362 I0.9191 J0.0888
G02 X3.307 Y4.693 I0.9157 J-0.2831
G02 X3.612 Y4.938 I0.7626 J-0.6370
G02 X4.000 Y5.050 I0.4743 J-0.9129
G02 X4.402 Y4.970 I0.0000 J-1.0500
G02 X4.742 Y4.742 I-0.4018 J-0.9701
G02 X4.970 Y4.402 I-0.7425 J-0.7425
G02 X5.050 Y4.000 I-0.9701 J-0.4018
G02 X3.475 Y3.091 I-1.0500 J0.0000
G02 Y4.909 I0.5250 J0.9093
G02 X5.050 Y4.000 I0.5250 J-0.9093
G02 X3.370 I-0.8400 J0.0000
G02 X4.630 I0.6300 J0.0000
G02 X3.685 Y3.454 Z-3.167 I-0.6300 J0.0000 F200
G02 Y4.546 Z-3.333 I0.3150 J0.5456
G02 X4.630 Y4.000 Z-3.500 I0.3150 J-0.5456
G02 X3.685 Y3.454 I-0.6300 J0.0000
G02 Y4.546 I0.3150 J0.5456
G02 X4.630 Y4.000 I0.3150 J-0.5456
G02 X4.614 Y3.746 I-0.6355 J-0.0887 F500
G02 X4.495 Y3.505 I-0.6540 J0.1748
G02 X4.281 Y3.321 I-0.5625 J0.4369
G02 X4.000 Y3.230 I-0.3661 J0.6517
G02 X3.692 Y3.256 I-0.0888 J0.7776
G02 X3.406 Y3.406 I0.2291 J0.7851
G02 X3.192 Y3.665 I0.5371 J0.6627
G02 X3.090 Y4.000 I0.7825 J0.4203
G02 X3.127 Y4.362 I0.9191 J0.0888
G02 X3.307 Y4.693 I0.9157 J-0.2831
G02 X3.612 Y4.938 I0.7626 J-0.6370
G02 X4.000 Y5.050 I0.4743 J-0.9129
G02 X4.402 Y4.970 I0.0000 J-1.0500
G02 X4.742 Y4.742 I-0.4018 J-0.9701
G02 X4.970 Y4.402 I-0.7425 J-0.7425
G02 X5.050 Y4.000 I-0.9701 J-0.4018
G02 X3.475 Y3.091 I-1.0500 J0.0000
G02 Y4.909 I0.5250 J0.9093
G02 X5.050 Y4.000 I0.5250 J-0.9093
G02 X3.370 I-0.8400 J0.0000
G02 X4.630 I0.6300 J0.0000
G02 X3.685 Y3.454 Z-3.583 I-0.6300 J0.0000 F200
G02 Y4.546 Z-3.667 I0.3150 J0.5456
G02 X4.630 Y4.000 Z-3.750 I0.3150 J-0.5456
G02 X3.685 Y3.454 I-0.6300 J0.0000
G02 Y4.546 I0.3150 J0.5456
G02 X4.630 Y4.000 I0.3150 J-0.5456
G02 X4.614 Y3.746 I-0.6355 J-0.0887 F500
G02 X4.495 Y3.505 I-0.6540 J0.1748
G02 X4.281 Y3.321 I-0.5625 J0.4369
G02 X4.000 Y3.230 I-0.3661 J0.6517
G02 X3.692 Y3.256 I-0.0888 J0.7776
G02 X3.406 Y3.406 I0.2291 J0.7851
G02 X3.192 Y3.665 I0.5371 J0.6627
G02 X3.090 Y4.000 I0.7825 J0.4203
G02 X3.127 Y4.362 I0.9191 J0.0888
G02 X3.307 Y4.693 I0.9157 J-0.2831
G02 X3.612 Y4.938 I0.7626 J-0.6370
G02 X4.000 Y5.050 I0.4743 J-0.9129
G02 X4.402 Y4.970 I0.0000 J-1.0500
G02 X4.742 Y4.742 I-0.4018 J-0.9701
G02 X4.970 Y4.402 I-0.7425 J-0.7425
G02 X5.050 Y4.000 I-0.9701 J-0.4018
G02 X3.475 Y3.091 I-1.0500 J0.0000
G02 Y4.909 I0.5250 J0.9093
G02 X5.050 Y4.000 I0.5250 J-0.9093
G02 X4.350 Y3.300 Z-3.250 I-0.7000 J0.0000 F200
G00 Z20.000


(No. 5 Part: Part 1)
G00 X3.297 Y30.303 Z20.000
G00 Z0.500
G01 Z-0.500 F200
G01 X3.300 Y8.620 F500
G01 X2.873 Y8.558
G03 X2.678 Y8.503 I0.0965 J-0.7160
G01 X1.732 Y8.111
G03 X1.558 Y8.007 I0.2785 J-0.6666
G01 X0.745 Y7.384
G03 X0.604 Y7.239 I0.4416 J-0.5718
G01 X-0.019 Y6.426
G03 X-0.118 Y6.249 I0.5745 J-0.4380
G01 X-0.510 Y5.303
G03 X-0.560 Y5.107 I0.6683 J-0.2744
G01 X-0.694 Y4.091
G01 X-0.700 Y4.022
G01 X-0.698 Y3.952
G01 X-0.691 Y3.889
G01 X-0.558 Y2.873
G03 X-0.503 Y2.678 I0.7160 J0.0965
G01 X-0.111 Y1.732
G03 X-0.007 Y1.558 I0.6666 J0.2785
G01 X0.616 Y0.745
G03 X0.761 Y0.604 I0.5718 J0.4416
G01 X1.574 Y-0.019
G03 X1.751 Y-0.118 I0.4380 J0.5745
G01 X2.697 Y-0.510
G03 X2.893 Y-0.560 I0.2744 J0.6683
G01 X3.909 Y-0.694
G03 X4.111 Y-0.691 I0.0921 J0.7166
G01 X5.127 Y-0.558
G03 X5.322 Y-0.503 I-0.0965 J0.7160
G01 X6.268 Y-0.111
G03 X6.442 Y-0.007 I-0.2785 J0.6666
G01 X7.255 Y0.616
G03 X7.396 Y0.761 I-0.4416 J0.5718
G01 X8.019 Y1.574
G03 X8.118 Y1.751 I-0.5745 J0.4380
G01 X8.510 Y2.697
G03 X8.560 Y2.893 I-0.6683 J0.2744
G01 X8.613 Y3.294
G01 X25.482 Y3.295
G01 X30.882
G01 X82.183 Y3.299
G01 X87.583
G01 X102.380 Y3.300
G01 X102.442 Y2.873
G03 X102.497 Y2.678 I0.7160 J0.0965
G01 X102.889 Y1.732
G03 X102.993 Y1.558 I0.6666 J0.2785
G01 X103.616 Y0.745
G03 X103.761 Y0.604 I0.5718 J0.4416
G01 X104.574 Y-0.019
G03 X104.751 Y-0.118 I0.4380 J0.5745
G01 X105.697 Y-0.510
G03 X105.893 Y-0.560 I0.2744 J0.6683
G01 X106.909 Y-0.694
G03 X107.111 Y-0.691 I0.0921 J0.7166
G01 X108.127 Y-0.558
G03 X108.322 Y-0.503 I-0.0965 J0.7160
G01 X109.268 Y-0.111
G03 X109.442 Y-0.007 I-0.2785 J0.6666
G01 X110.255 Y0.616
G03 X110.396 Y0.761 I-0.4416 J0.5718
G01 X111.019 Y1.574
G03 X111.118 Y1.751 I-0.5745 J0.4380
G01 X111.510 Y2.697
G03 X111.560 Y2.893 I-0.6683 J0.2744
G01 X111.694 Y3.909
G03 X111.691 Y4.111 I-0.7166 J0.0921
G01 X111.558 Y5.127
G03 X111.503 Y5.322 I-0.7160 J-0.0965
G01 X111.111 Y6.268
G03 X111.007 Y6.442 I-0.6666 J-0.2785
G01 X110.384 Y7.255
G03 X110.239 Y7.396 I-0.5718 J-0.4416
G01 X109.426 Y8.019
G03 X109.249 Y8.118 I-0.4380 J-0.5745
G01 X108.303 Y8.510
G03 X108.107 Y8.560 I-0.2744 J-0.6683
G01 X107.706 Y8.613
G01 X107.703 Y30.297
G01 Y35.697
G01 X107.700 Y57.380
G01 X108.127 Y57.442
G03 X108.322 Y57.497 I-0.0965 J0.7160
G01 X109.268 Y57.889
G03 X109.442 Y57.993 I-0.2785 J0.6666
G01 X110.255 Y58.616
G03 X110.396 Y58.761 I-0.4416 J0.5718
G01 X111.019 Y59.574
G03 X111.118 Y59.751 I-0.5745 J0.4380
G01 X111.510 Y60.697
G03 X111.560 Y60.893 I-0.6683 J0.2744
G01 X111.694 Y61.909
G03 X111.691 Y62.111 I-0.7166 J0.0921
G01 X111.558 Y63.127
G03 X111.503 Y63.322 I-0.7160 J-0.0965
G01 X111.111 Y64.268
G03 X111.007 Y64.442 I-0.6666 J-0.2785
G01 X110.384 Y65.255
G03 X110.239 Y65.396 I-0.5718 J-0.4416
G01 X109.426 Y66.019
G03 X109.249 Y66.118 I-0.4380 J-0.5745
G01 X108.303 Y66.510
G03 X108.107 Y66.560 I-0.2744 J-0.6683
G01 X107.091 Y66.694
G03 X106.889 Y66.691 I-0.0921 J-0.7166
G01 X105.873 Y66.558
G03 X105.678 Y66.503 I0.0965 J-0.7160
G01 X104.732 Y66.111
G03 X104.558 Y66.007 I0.2785 J-0.6666
G01 X103.745 Y65.384
G03 X103.604 Y65.239 I0.4416 J-0.5718
G01 X102.981 Y64.426
G03 X102.882 Y64.249 I0.5745 J-0.4380
G01 X102.490 Y63.303
G03 X102.440 Y63.107 I0.6683 J-0.2744
G01 X102.387 Y62.706
G01 X88.469 Y62.705
G01 X83.069
G01 X31.546 Y62.701
G01 X26.146
G01 X8.620 Y62.700
G01 X8.558 Y63.127
G03 X8.503 Y63.322 I-0.7160 J-0.0965
G01 X8.111 Y64.268
G03 X8.007 Y64.442 I-0.6666 J-0.2785
G01 X7.384 Y65.255
G03 X7.239 Y65.396 I-0.5718 J-0.4416
G01 X6.426 Y66.019
G03 X6.249 Y66.118 I-0.4380 J-0.5745
G01 X5.303 Y66.510
G03 X5.107 Y66.560 I-0.2744 J-0.6683
G01 X4.091 Y66.694
G03 X3.889 Y66.691 I-0.0921 J-0.7166
G01 X2.873 Y66.558
G03 X2.678 Y66.503 I0.0965 J-0.7160
G01 X1.732 Y66.111
G03 X1.558 Y66.007 I0.2785 J-0.6666
G01 X0.745 Y65.384
G03 X0.604 Y65.239 I0.4416 J-0.5718
G01 X-0.019 Y64.426
G03 X-0.118 Y64.249 I0.5745 J-0.4380
G01 X-0.510 Y63.303
G03 X-0.560 Y63.107 I0.6683 J-0.2744
G01 X-0.694 Y62.091
G01 X-0.700 Y62.022
G01 X-0.698 Y61.952
G01 X-0.691 Y61.889
G01 X-0.558 Y60.873
G03 X-0.503 Y60.678 I0.7160 J0.0965
G01 X-0.111 Y59.732
G03 X-0.007 Y59.558 I0.6666 J0.2785
G01 X0.616 Y58.745
G03 X0.761 Y58.604 I0.5718 J0.4416
G01 X1.574 Y57.981
G03 X1.751 Y57.882 I0.4380 J0.5745
G01 X2.697 Y57.490
G03 X2.893 Y57.440 I0.2744 J0.6683
G01 X3.294 Y57.387
G01 X3.297 Y35.703
G01 Y30.303
G01 Z-1.000 F200
G01 X3.300 Y8.620 F500
G01 X2.873 Y8.558
G03 X2.678 Y8.503 I0.0965 J-0.7160
G01 X1.732 Y8.111
G03 X1.558 Y8.007 I0.2785 J-0.6666
G01 X0.745 Y7.384
G03 X0.604 Y7.239 I0.4416 J-0.5718
G01 X-0.019 Y6.426
G03 X-0.118 Y6.249 I0.5745 J-0.4380
G01 X-0.510 Y5.303
G03 X-0.560 Y5.107 I0.6683 J-0.2744
G01 X-0.694 Y4.091
G01 X-0.700 Y4.022
G01 X-0.698 Y3.952
G01 X-0.691 Y3.889
G01 X-0.558 Y2.873
G03 X-0.503 Y2.678 I0.7160 J0.0965
G01 X-0.111 Y1.732
G03 X-0.007 Y1.558 I0.6666 J0.2785
G01 X0.616 Y0.745
G03 X0.761 Y0.604 I0.5718 J0.4416
G01 X1.574 Y-0.019
G03 X1.751 Y-0.118 I0.4380 J0.5745
G01 X2.697 Y-0.510
G03 X2.893 Y-0.560 I0.2744 J0.6683
G01 X3.909 Y-0.694
G03 X4.111 Y-0.691 I0.0921 J0.7166
G01 X5.127 Y-0.558
G03 X5.322 Y-0.503 I-0.0965 J0.7160
G01 X6.268 Y-0.111
G03 X6.442 Y-0.007 I-0.2785 J0.6666
G01 X7.255 Y0.616
G03 X7.396 Y0.761 I-0.4416 J0.5718
G01 X8.019 Y1.574
G03 X8.118 Y1.751 I-0.5745 J0.4380
G01 X8.510 Y2.697
G03 X8.560 Y2.893 I-0.6683 J0.2744
G01 X8.613 Y3.294
G01 X25.482 Y3.295
G01 X30.882
G01 X82.183 Y3.299
G01 X87.583
G01 X102.380 Y3.300
G01 X102.442 Y2.873
G03 X102.497 Y2.678 I0.7160 J0.0965
G01 X102.889 Y1.732
G03 X102.993 Y1.558 I0.6666 J0.2785
G01 X103.616 Y0.745
G03 X103.761 Y0.604 I0.5718 J0.4416
G01 X104.574 Y-0.019
G03 X104.751 Y-0.118 I0.4380 J0.5745
G01 X105.697 Y-0.510
G03 X105.893 Y-0.560 I0.2744 J0.6683
G01 X106.909 Y-0.694
G03 X107.111 Y-0.691 I0.0921 J0.7166
G01 X108.127 Y-0.558
G03 X108.322 Y-0.503 I-0.0965 J0.7160
G01 X109.268 Y-0.111
G03 X109.442 Y-0.007 I-0.2785 J0.6666
G01 X110.255 Y0.616
G03 X110.396 Y0.761 I-0.4416 J0.5718
G01 X111.019 Y1.574
G03 X111.118 Y1.751 I-0.5745 J0.4380
G01 X111.510 Y2.697
G03 X111.560 Y2.893 I-0.6683 J0.2744
G01 X111.694 Y3.909
G03 X111.691 Y4.111 I-0.7166 J0.0921
G01 X111.558 Y5.127
G03 X111.503 Y5.322 I-0.7160 J-0.0965
G01 X111.111 Y6.268
G03 X111.007 Y6.442 I-0.6666 J-0.2785
G01 X110.384 Y7.255
G03 X110.239 Y7.396 I-0.5718 J-0.4416
G01 X109.426 Y8.019
G03 X109.249 Y8.118 I-0.4380 J-0.5745
G01 X108.303 Y8.510
G03 X108.107 Y8.560 I-0.2744 J-0.6683
G01 X107.706 Y8.613
G01 X107.703 Y30.297
G01 Y35.697
G01 X107.700 Y57.380
G01 X108.127 Y57.442
G03 X108.322 Y57.497 I-0.0965 J0.7160
G01 X109.268 Y57.889
G03 X109.442 Y57.993 I-0.2785 J0.6666
G01 X110.255 Y58.616
G03 X110.396 Y58.761 I-0.4416 J0.5718
G01 X111.019 Y59.574
G03 X111.118 Y59.751 I-0.5745 J0.4380
G01 X111.510 Y60.697
G03 X111.560 Y60.893 I-0.6683 J0.2744
G01 X111.694 Y61.909
G03 X111.691 Y62.111 I-0.7166 J0.0921
G01 X111.558 Y63.127
G03 X111.503 Y63.322 I-0.7160 J-0.0965
G01 X111.111 Y64.268
G03 X111.007 Y64.442 I-0.6666 J-0.2785
G01 X110.384 Y65.255
G03 X110.239 Y65.396 I-0.5718 J-0.4416
G01 X109.426 Y66.019
G03 X109.249 Y66.118 I-0.4380 J-0.5745
G01 X108.303 Y66.510
G03 X108.107 Y66.560 I-0.2744 J-0.6683
G01 X107.091 Y66.694
G03 X106.889 Y66.691 I-0.0921 J-0.7166
G01 X105.873 Y66.558
G03 X105.678 Y66.503 I0.0965 J-0.7160
G01 X104.732 Y66.111
G03 X104.558 Y66.007 I0.2785 J-0.6666
G01 X103.745 Y65.384
G03 X103.604 Y65.239 I0.4416 J-0.5718
G01 X102.981 Y64.426
G03 X102.882 Y64.249 I0.5745 J-0.4380
G01 X102.490 Y63.303
G03 X102.440 Y63.107 I0.6683 J-0.2744
G01 X102.387 Y62.706
G01 X88.469 Y62.705
G01 X83.069
G01 X31.546 Y62.701
G01 X26.146
G01 X8.620 Y62.700
G01 X8.558 Y63.127
G03 X8.503 Y63.322 I-0.7160 J-0.0965
G01 X8.111 Y64.268
G03 X8.007 Y64.442 I-0.6666 J-0.2785
G01 X7.384 Y65.255
G03 X7.239 Y65.396 I-0.5718 J-0.4416
G01 X6.426 Y66.019
G03 X6.249 Y66.118 I-0.4380 J-0.5745
G01 X5.303 Y66.510
G03 X5.107 Y66.560 I-0.2744 J-0.6683
G01 X4.091 Y66.694
G03 X3.889 Y66.691 I-0.0921 J-0.7166
G01 X2.873 Y66.558
G03 X2.678 Y66.503 I0.0965 J-0.7160
G01 X1.732 Y66.111
G03 X1.558 Y66.007 I0.2785 J-0.6666
G01 X0.745 Y65.384
G03 X0.604 Y65.239 I0.4416 J-0.5718
G01 X-0.019 Y64.426
G03 X-0.118 Y64.249 I0.5745 J-0.4380
G01 X-0.510 Y63.303
G03 X-0.560 Y63.107 I0.6683 J-0.2744
G01 X-0.694 Y62.091
G01 X-0.700 Y62.022
G01 X-0.698 Y61.952
G01 X-0.691 Y61.889
G01 X-0.558 Y60.873
G03 X-0.503 Y60.678 I0.7160 J0.0965
G01 X-0.111 Y59.732
G03 X-0.007 Y59.558 I0.6666 J0.2785
G01 X0.616 Y58.745
G03 X0.761 Y58.604 I0.5718 J0.4416
G01 X1.574 Y57.981
G03 X1.751 Y57.882 I0.4380 J0.5745
G01 X2.697 Y57.490
G03 X2.893 Y57.440 I0.2744 J0.6683
G01 X3.294 Y57.387
G01 X3.297 Y35.703
G01 Y30.303
G01 Z-1.500 F200
G01 X3.300 Y8.620 F500
G01 X2.873 Y8.558
G03 X2.678 Y8.503 I0.0965 J-0.7160
G01 X1.732 Y8.111
G03 X1.558 Y8.007 I0.2785 J-0.6666
G01 X0.745 Y7.384
G03 X0.604 Y7.239 I0.4416 J-0.5718
G01 X-0.019 Y6.426
G03 X-0.118 Y6.249 I0.5745 J-0.4380
G01 X-0.510 Y5.303
G03 X-0.560 Y5.107 I0.6683 J-0.2744
G01 X-0.694 Y4.091
G01 X-0.700 Y4.022
G01 X-0.698 Y3.952
G01 X-0.691 Y3.889
G01 X-0.558 Y2.873
G03 X-0.503 Y2.678 I0.7160 J0.0965
G01 X-0.111 Y1.732
G03 X-0.007 Y1.558 I0.6666 J0.2785
G01 X0.616 Y0.745
G03 X0.761 Y0.604 I0.5718 J0.4416
G01 X1.574 Y-0.019
G03 X1.751 Y-0.118 I0.4380 J0.5745
G01 X2.697 Y-0.510
G03 X2.893 Y-0.560 I0.2744 J0.6683
G01 X3.909 Y-0.694
G03 X4.111 Y-0.691 I0.0921 J0.7166
G01 X5.127 Y-0.558
G03 X5.322 Y-0.503 I-0.0965 J0.7160
G01 X6.268 Y-0.111
G03 X6.442 Y-0.007 I-0.2785 J0.6666
G01 X7.255 Y0.616
G03 X7.396 Y0.761 I-0.4416 J0.5718
G01 X8.019 Y1.574
G03 X8.118 Y1.751 I-0.5745 J0.4380
G01 X8.510 Y2.697
G03 X8.560 Y2.893 I-0.6683 J0.2744
G01 X8.613 Y3.294
G01 X25.482 Y3.295
G01 X30.882
G01 X82.183 Y3.299
G01 X87.583
G01 X102.380 Y3.300
G01 X102.442 Y2.873
G03 X102.497 Y2.678 I0.7160 J0.0965
G01 X102.889 Y1.732
G03 X102.993 Y1.558 I0.6666 J0.2785
G01 X103.616 Y0.745
G03 X103.761 Y0.604 I0.5718 J0.4416
G01 X104.574 Y-0.019
G03 X104.751 Y-0.118 I0.4380 J0.5745
G01 X105.697 Y-0.510
G03 X105.893 Y-0.560 I0.2744 J0.6683
G01 X106.909 Y-0.694
G03 X107.111 Y-0.691 I0.0921 J0.7166
G01 X108.127 Y-0.558
G03 X108.322 Y-0.503 I-0.0965 J0.7160
G01 X109.268 Y-0.111
G03 X109.442 Y-0.007 I-0.2785 J0.6666
G01 X110.255 Y0.616
G03 X110.396 Y0.761 I-0.4416 J0.5718
G01 X111.019 Y1.574
G03 X111.118 Y1.751 I-0.5745 J0.4380
G01 X111.510 Y2.697
G03 X111.560 Y2.893 I-0.6683 J0.2744
G01 X111.694 Y3.909
G03 X111.691 Y4.111 I-0.7166 J0.0921
G01 X111.558 Y5.127
G03 X111.503 Y5.322 I-0.7160 J-0.0965
G01 X111.111 Y6.268
G03 X111.007 Y6.442 I-0.6666 J-0.2785
G01 X110.384 Y7.255
G03 X110.239 Y7.396 I-0.5718 J-0.4416
G01 X109.426 Y8.019
G03 X109.249 Y8.118 I-0.4380 J-0.5745
G01 X108.303 Y8.510
G03 X108.107 Y8.560 I-0.2744 J-0.6683
G01 X107.706 Y8.613
G01 X107.703 Y30.297
G01 Y35.697
G01 X107.700 Y57.380
G01 X108.127 Y57.442
G03 X108.322 Y57.497 I-0.0965 J0.7160
G01 X109.268 Y57.889
G03 X109.442 Y57.993 I-0.2785 J0.6666
G01 X110.255 Y58.616
G03 X110.396 Y58.761 I-0.4416 J0.5718
G01 X111.019 Y59.574
G03 X111.118 Y59.751 I-0.5745 J0.4380
G01 X111.510 Y60.697
G03 X111.560 Y60.893 I-0.6683 J0.2744
G01 X111.694 Y61.909
G03 X111.691 Y62.111 I-0.7166 J0.0921
G01 X111.558 Y63.127
G03 X111.503 Y63.322 I-0.7160 J-0.0965
G01 X111.111 Y64.268
G03 X111.007 Y64.442 I-0.6666 J-0.2785
G01 X110.384 Y65.255
G03 X110.239 Y65.396 I-0.5718 J-0.4416
G01 X109.426 Y66.019
G03 X109.249 Y66.118 I-0.4380 J-0.5745
G01 X108.303 Y66.510
G03 X108.107 Y66.560 I-0.2744 J-0.6683
G01 X107.091 Y66.694
G03 X106.889 Y66.691 I-0.0921 J-0.7166
G01 X105.873 Y66.558
G03 X105.678 Y66.503 I0.0965 J-0.7160
G01 X104.732 Y66.111
G03 X104.558 Y66.007 I0.2785 J-0.6666
G01 X103.745 Y65.384
G03 X103.604 Y65.239 I0.4416 J-0.5718
G01 X102.981 Y64.426
G03 X102.882 Y64.249 I0.5745 J-0.4380
G01 X102.490 Y63.303
G03 X102.440 Y63.107 I0.6683 J-0.2744
G01 X102.387 Y62.706
G01 X88.469 Y62.705
G01 X83.069
G01 X31.546 Y62.701
G01 X26.146
G01 X8.620 Y62.700
G01 X8.558 Y63.127
G03 X8.503 Y63.322 I-0.7160 J-0.0965
G01 X8.111 Y64.268
G03 X8.007 Y64.442 I-0.6666 J-0.2785
G01 X7.384 Y65.255
G03 X7.239 Y65.396 I-0.5718 J-0.4416
G01 X6.426 Y66.019
G03 X6.249 Y66.118 I-0.4380 J-0.5745
G01 X5.303 Y66.510
G03 X5.107 Y66.560 I-0.2744 J-0.6683
G01 X4.091 Y66.694
G03 X3.889 Y66.691 I-0.0921 J-0.7166
G01 X2.873 Y66.558
G03 X2.678 Y66.503 I0.0965 J-0.7160
G01 X1.732 Y66.111
G03 X1.558 Y66.007 I0.2785 J-0.6666
G01 X0.745 Y65.384
G03 X0.604 Y65.239 I0.4416 J-0.5718
G01 X-0.019 Y64.426
G03 X-0.118 Y64.249 I0.5745 J-0.4380
G01 X-0.510 Y63.303
G03 X-0.560 Y63.107 I0.6683 J-0.2744
G01 X-0.694 Y62.091
G01 X-0.700 Y62.022
G01 X-0.698 Y61.952
G01 X-0.691 Y61.889
G01 X-0.558 Y60.873
G03 X-0.503 Y60.678 I0.7160 J0.0965
G01 X-0.111 Y59.732
G03 X-0.007 Y59.558 I0.6666 J0.2785
G01 X0.616 Y58.745
G03 X0.761 Y58.604 I0.5718 J0.4416
G01 X1.574 Y57.981
G03 X1.751 Y57.882 I0.4380 J0.5745
G01 X2.697 Y57.490
G03 X2.893 Y57.440 I0.2744 J0.6683
G01 X3.294 Y57.387
G01 X3.297 Y35.703
G01 Y30.303
G01 Z-2.000 F200
G01 X3.300 Y8.620 F500
G01 X2.873 Y8.558
G03 X2.678 Y8.503 I0.0965 J-0.7160
G01 X1.732 Y8.111
G03 X1.558 Y8.007 I0.2785 J-0.6666
G01 X0.745 Y7.384
G03 X0.604 Y7.239 I0.4416 J-0.5718
G01 X-0.019 Y6.426
G03 X-0.118 Y6.249 I0.5745 J-0.4380
G01 X-0.510 Y5.303
G03 X-0.560 Y5.107 I0.6683 J-0.2744
G01 X-0.694 Y4.091
G01 X-0.700 Y4.022
G01 X-0.698 Y3.952
G01 X-0.691 Y3.889
G01 X-0.558 Y2.873
G03 X-0.503 Y2.678 I0.7160 J0.0965
G01 X-0.111 Y1.732
G03 X-0.007 Y1.558 I0.6666 J0.2785
G01 X0.616 Y0.745
G03 X0.761 Y0.604 I0.5718 J0.4416
G01 X1.574 Y-0.019
G03 X1.751 Y-0.118 I0.4380 J0.5745
G01 X2.697 Y-0.510
G03 X2.893 Y-0.560 I0.2744 J0.6683
G01 X3.909 Y-0.694
G03 X4.111 Y-0.691 I0.0921 J0.7166
G01 X5.127 Y-0.558
G03 X5.322 Y-0.503 I-0.0965 J0.7160
G01 X6.268 Y-0.111
G03 X6.442 Y-0.007 I-0.2785 J0.6666
G01 X7.255 Y0.616
G03 X7.396 Y0.761 I-0.4416 J0.5718
G01 X8.019 Y1.574
G03 X8.118 Y1.751 I-0.5745 J0.4380
G01 X8.510 Y2.697
G03 X8.560 Y2.893 I-0.6683 J0.2744
G01 X8.613 Y3.294
G01 X25.482 Y3.295
G00 Z-1.750
G01 X30.882
G01 Z-2.000 F200
G01 X82.183 Y3.299 F500
G00 Z-1.750
G01 X87.583
G01 Z-2.000 F200
G01 X102.380 Y3.300 F500
G01 X102.442 Y2.873
G03 X102.497 Y2.678 I0.7160 J0.0965
G01 X102.889 Y1.732
G03 X102.993 Y1.558 I0.6666 J0.2785
G01 X103.616 Y0.745
G03 X103.761 Y0.604 I0.5718 J0.4416
G01 X104.574 Y-0.019
G03 X104.751 Y-0.118 I0.4380 J0.5745
G01 X105.697 Y-0.510
G03 X105.893 Y-0.560 I0.2744 J0.6683
G01 X106.909 Y-0.694
G03 X107.111 Y-0.691 I0.0921 J0.7166
G01 X108.127 Y-0.558
G03 X108.322 Y-0.503 I-0.0965 J0.7160
G01 X109.268 Y-0.111
G03 X109.442 Y-0.007 I-0.2785 J0.6666
G01 X110.255 Y0.616
G03 X110.396 Y0.761 I-0.4416 J0.5718
G01 X111.019 Y1.574
G03 X111.118 Y1.751 I-0.5745 J0.4380
G01 X111.510 Y2.697
G03 X111.560 Y2.893 I-0.6683 J0.2744
G01 X111.694 Y3.909
G03 X111.691 Y4.111 I-0.7166 J0.0921
G01 X111.558 Y5.127
G03 X111.503 Y5.322 I-0.7160 J-0.0965
G01 X111.111 Y6.268
G03 X111.007 Y6.442 I-0.6666 J-0.2785
G01 X110.384 Y7.255
G03 X110.239 Y7.396 I-0.5718 J-0.4416
G01 X109.426 Y8.019
G03 X109.249 Y8.118 I-0.4380 J-0.5745
G01 X108.303 Y8.510
G03 X108.107 Y8.560 I-0.2744 J-0.6683
G01 X107.706 Y8.613
G01 X107.703 Y30.297
G00 Z-1.750
G01 Y35.697
G01 Z-2.000 F200
G01 X107.700 Y57.380 F500
G01 X108.127 Y57.442
G03 X108.322 Y57.497 I-0.0965 J0.7160
G01 X109.268 Y57.889
G03 X109.442 Y57.993 I-0.2785 J0.6666
G01 X110.255 Y58.616
G03 X110.396 Y58.761 I-0.4416 J0.5718
G01 X111.019 Y59.574
G03 X111.118 Y59.751 I-0.5745 J0.4380
G01 X111.510 Y60.697
G03 X111.560 Y60.893 I-0.6683 J0.2744
G01 X111.694 Y61.909
G03 X111.691 Y62.111 I-0.7166 J0.0921
G01 X111.558 Y63.127
G03 X111.503 Y63.322 I-0.7160 J-0.0965
G01 X111.111 Y64.268
G03 X111.007 Y64.442 I-0.6666 J-0.2785
G01 X110.384 Y65.255
G03 X110.239 Y65.396 I-0.5718 J-0.4416
G01 X109.426 Y66.019
G03 X109.249 Y66.118 I-0.4380 J-0.5745
G01 X108.303 Y66.510
G03 X108.107 Y66.560 I-0.2744 J-0.6683
G01 X107.091 Y66.694
G03 X106.889 Y66.691 I-0.0921 J-0.7166
G01 X105.873 Y66.558
G03 X105.678 Y66.503 I0.0965 J-0.7160
G01 X104.732 Y66.111
G03 X104.558 Y66.007 I0.2785 J-0.6666
G01 X103.745 Y65.384
G03 X103.604 Y65.239 I0.4416 J-0.5718
G01 X102.981 Y64.426
G03 X102.882 Y64.249 I0.5745 J-0.4380
G01 X102.490 Y63.303
G03 X102.440 Y63.107 I0.6683 J-0.2744
G01 X102.387 Y62.706
G01 X88.469 Y62.705
G00 Z-1.750
G01 X83.069
G01 Z-2.000 F200
G01 X31.546 Y62.701 F500
G00 Z-1.750
G01 X26.146
G01 Z-2.000 F200
G01 X8.620 Y62.700 F500
G01 X8.558 Y63.127
G03 X8.503 Y63.322 I-0.7160 J-0.0965
G01 X8.111 Y64.268
G03 X8.007 Y64.442 I-0.6666 J-0.2785
G01 X7.384 Y65.255
G03 X7.239 Y65.396 I-0.5718 J-0.4416
G01 X6.426 Y66.019
G03 X6.249 Y66.118 I-0.4380 J-0.5745
G01 X5.303 Y66.510
G03 X5.107 Y66.560 I-0.2744 J-0.6683
G01 X4.091 Y66.694
G03 X3.889 Y66.691 I-0.0921 J-0.7166
G01 X2.873 Y66.558
G03 X2.678 Y66.503 I0.0965 J-0.7160
G01 X1.732 Y66.111
G03 X1.558 Y66.007 I0.2785 J-0.6666
G01 X0.745 Y65.384
G03 X0.604 Y65.239 I0.4416 J-0.5718
G01 X-0.019 Y64.426
G03 X-0.118 Y64.249 I0.5745 J-0.4380
G01 X-0.510 Y63.303
G03 X-0.560 Y63.107 I0.6683 J-0.2744
G01 X-0.694 Y62.091
G01 X-0.700 Y62.022
G01 X-0.698 Y61.952
G01 X-0.691 Y61.889
G01 X-0.558 Y60.873
G03 X-0.503 Y60.678 I0.7160 J0.0965
G01 X-0.111 Y59.732
G03 X-0.007 Y59.558 I0.6666 J0.2785
G01 X0.616 Y58.745
G03 X0.761 Y58.604 I0.5718 J0.4416
G01 X1.574 Y57.981
G03 X1.751 Y57.882 I0.4380 J0.5745
G01 X2.697 Y57.490
G03 X2.893 Y57.440 I0.2744 J0.6683
G01 X3.294 Y57.387
G01 X3.297 Y35.703
G00 Z-1.750
G01 Y30.303
G01 Z-2.500 F200
G01 X3.300 Y8.620 F500
G01 X2.873 Y8.558
G03 X2.678 Y8.503 I0.0965 J-0.7160
G01 X1.732 Y8.111
G03 X1.558 Y8.007 I0.2785 J-0.6666
G01 X0.745 Y7.384
G03 X0.604 Y7.239 I0.4416 J-0.5718
G01 X-0.019 Y6.426
G03 X-0.118 Y6.249 I0.5745 J-0.4380
G01 X-0.510 Y5.303
G03 X-0.560 Y5.107 I0.6683 J-0.2744
G01 X-0.694 Y4.091
G01 X-0.700 Y4.022
G01 X-0.698 Y3.952
G01 X-0.691 Y3.889
G01 X-0.558 Y2.873
G03 X-0.503 Y2.678 I0.7160 J0.0965
G01 X-0.111 Y1.732
G03 X-0.007 Y1.558 I0.6666 J0.2785
G01 X0.616 Y0.745
G03 X0.761 Y0.604 I0.5718 J0.4416
G01 X1.574 Y-0.019
G03 X1.751 Y-0.118 I0.4380 J0.5745
G01 X2.697 Y-0.510
G03 X2.893 Y-0.560 I0.2744 J0.6683
G01 X3.909 Y-0.694
G03 X4.111 Y-0.691 I0.0921 J0.7166
G01 X5.127 Y-0.558
G03 X5.322 Y-0.503 I-0.0965 J0.7160
G01 X6.268 Y-0.111
G03 X6.442 Y-0.007 I-0.2785 J0.6666
G01 X7.255 Y0.616
G03 X7.396 Y0.761 I-0.4416 J0.5718
G01 X8.019 Y1.574
G03 X8.118 Y1.751 I-0.5745 J0.4380
G01 X8.510 Y2.697
G03 X8.560 Y2.893 I-0.6683 J0.2744
G01 X8.613 Y3.294
G01 X25.482 Y3.295
G00 Z-1.750
G01 X30.882
G01 Z-2.500 F200
G01 X82.183 Y3.299 F500
G00 Z-1.750
G01 X87.583
G01 Z-2.500 F200
G01 X102.380 Y3.300 F500
G01 X102.442 Y2.873
G03 X102.497 Y2.678 I0.7160 J0.0965
G01 X102.889 Y1.732
G03 X102.993 Y1.558 I0.6666 J0.2785
G01 X103.616 Y0.745
G03 X103.761 Y0.604 I0.5718 J0.4416
G01 X104.574 Y-0.019
G03 X104.751 Y-0.118 I0.4380 J0.5745
G01 X105.697 Y-0.510
G03 X105.893 Y-0.560 I0.2744 J0.6683
G01 X106.909 Y-0.694
G03 X107.111 Y-0.691 I0.0921 J0.7166
G01 X108.127 Y-0.558
G03 X108.322 Y-0.503 I-0.0965 J0.7160
G01 X109.268 Y-0.111
G03 X109.442 Y-0.007 I-0.2785 J0.6666
G01 X110.255 Y0.616
G03 X110.396 Y0.761 I-0.4416 J0.5718
G01 X111.019 Y1.574
G03 X111.118 Y1.751 I-0.5745 J0.4380
G01 X111.510 Y2.697
G03 X111.560 Y2.893 I-0.6683 J0.2744
G01 X111.694 Y3.909
G03 X111.691 Y4.111 I-0.7166 J0.0921
G01 X111.558 Y5.127
G03 X111.503 Y5.322 I-0.7160 J-0.0965
G01 X111.111 Y6.268
G03 X111.007 Y6.442 I-0.6666 J-0.2785
G01 X110.384 Y7.255
G03 X110.239 Y7.396 I-0.5718 J-0.4416
G01 X109.426 Y8.019
G03 X109.249 Y8.118 I-0.4380 J-0.5745
G01 X108.303 Y8.510
G03 X108.107 Y8.560 I-0.2744 J-0.6683
G01 X107.706 Y8.613
G01 X107.703 Y30.297
G00 Z-1.750
G01 Y35.697
G01 Z-2.500 F200
G01 X107.700 Y57.380 F500
G01 X108.127 Y57.442
G03 X108.322 Y57.497 I-0.0965 J0.7160
G01 X109.268 Y57.889
G03 X109.442 Y57.993 I-0.2785 J0.6666
G01 X110.255 Y58.616
G03 X110.396 Y58.761 I-0.4416 J0.5718
G01 X111.019 Y59.574
G03 X111.118 Y59.751 I-0.5745 J0.4380
G01 X111.510 Y60.697
G03 X111.560 Y60.893 I-0.6683 J0.2744
G01 X111.694 Y61.909
G03 X111.691 Y62.111 I-0.7166 J0.0921
G01 X111.558 Y63.127
G03 X111.503 Y63.322 I-0.7160 J-0.0965
G01 X111.111 Y64.268
G03 X111.007 Y64.442 I-0.6666 J-0.2785
G01 X110.384 Y65.255
G03 X110.239 Y65.396 I-0.5718 J-0.4416
G01 X109.426 Y66.019
G03 X109.249 Y66.118 I-0.4380 J-0.5745
G01 X108.303 Y66.510
G03 X108.107 Y66.560 I-0.2744 J-0.6683
G01 X107.091 Y66.694
G03 X106.889 Y66.691 I-0.0921 J-0.7166
G01 X105.873 Y66.558
G03 X105.678 Y66.503 I0.0965 J-0.7160
G01 X104.732 Y66.111
G03 X104.558 Y66.007 I0.2785 J-0.6666
G01 X103.745 Y65.384
G03 X103.604 Y65.239 I0.4416 J-0.5718
G01 X102.981 Y64.426
G03 X102.882 Y64.249 I0.5745 J-0.4380
G01 X102.490 Y63.303
G03 X102.440 Y63.107 I0.6683 J-0.2744
G01 X102.387 Y62.706
G01 X88.469 Y62.705
G00 Z-1.750
G01 X83.069
G01 Z-2.500 F200
G01 X31.546 Y62.701 F500
G00 Z-1.750
G01 X26.146
G01 Z-2.500 F200
G01 X8.620 Y62.700 F500
G01 X8.558 Y63.127
G03 X8.503 Y63.322 I-0.7160 J-0.0965
G01 X8.111 Y64.268
G03 X8.007 Y64.442 I-0.6666 J-0.2785
G01 X7.384 Y65.255
G03 X7.239 Y65.396 I-0.5718 J-0.4416
G01 X6.426 Y66.019
G03 X6.249 Y66.118 I-0.4380 J-0.5745
G01 X5.303 Y66.510
G03 X5.107 Y66.560 I-0.2744 J-0.6683
G01 X4.091 Y66.694
G03 X3.889 Y66.691 I-0.0921 J-0.7166
G01 X2.873 Y66.558
G03 X2.678 Y66.503 I0.0965 J-0.7160
G01 X1.732 Y66.111
G03 X1.558 Y66.007 I0.2785 J-0.6666
G01 X0.745 Y65.384
G03 X0.604 Y65.239 I0.4416 J-0.5718
G01 X-0.019 Y64.426
G03 X-0.118 Y64.249 I0.5745 J-0.4380
G01 X-0.510 Y63.303
G03 X-0.560 Y63.107 I0.6683 J-0.2744
G01 X-0.694 Y62.091
G01 X-0.700 Y62.022
G01 X-0.698 Y61.952
G01 X-0.691 Y61.889
G01 X-0.558 Y60.873
G03 X-0.503 Y60.678 I0.7160 J0.0965
G01 X-0.111 Y59.732
G03 X-0.007 Y59.558 I0.6666 J0.2785
G01 X0.616 Y58.745
G03 X0.761 Y58.604 I0.5718 J0.4416
G01 X1.574 Y57.981
G03 X1.751 Y57.882 I0.4380 J0.5745
G01 X2.697 Y57.490
G03 X2.893 Y57.440 I0.2744 J0.6683
G01 X3.294 Y57.387
G01 X3.297 Y35.703
G00 Z-1.750
G01 Y30.303
G00 Z-2.000
G01 Z-3.000 F200
G01 X3.300 Y8.620 F500
G01 X2.873 Y8.558
G03 X2.678 Y8.503 I0.0965 J-0.7160
G01 X1.732 Y8.111
G03 X1.558 Y8.007 I0.2785 J-0.6666
G01 X0.745 Y7.384
G03 X0.604 Y7.239 I0.4416 J-0.5718
G01 X-0.019 Y6.426
G03 X-0.118 Y6.249 I0.5745 J-0.4380
G01 X-0.510 Y5.303
G03 X-0.560 Y5.107 I0.6683 J-0.2744
G01 X-0.694 Y4.091
G01 X-0.700 Y4.022
G01 X-0.698 Y3.952
G01 X-0.691 Y3.889
G01 X-0.558 Y2.873
G03 X-0.503 Y2.678 I0.7160 J0.0965
G01 X-0.111 Y1.732
G03 X-0.007 Y1.558 I0.6666 J0.2785
G01 X0.616 Y0.745
G03 X0.761 Y0.604 I0.5718 J0.4416
G01 X1.574 Y-0.019
G03 X1.751 Y-0.118 I0.4380 J0.5745
G01 X2.697 Y-0.510
G03 X2.893 Y-0.560 I0.2744 J0.6683
G01 X3.909 Y-0.694
G03 X4.111 Y-0.691 I0.0921 J0.7166
G01 X5.127 Y-0.558
G03 X5.322 Y-0.503 I-0.0965 J0.7160
G01 X6.268 Y-0.111
G03 X6.442 Y-0.007 I-0.2785 J0.6666
G01 X7.255 Y0.616
G03 X7.396 Y0.761 I-0.4416 J0.5718
G01 X8.019 Y1.574
G03 X8.118 Y1.751 I-0.5745 J0.4380
G01 X8.510 Y2.697
G03 X8.560 Y2.893 I-0.6683 J0.2744
G01 X8.613 Y3.294
G01 X25.482 Y3.295
G00 Z-1.750
G01 X30.882
G00 Z-2.000
G01 Z-3.000 F200
G01 X82.183 Y3.299 F500
G00 Z-1.750
G01 X87.583
G00 Z-2.000
G01 Z-3.000 F200
G01 X102.380 Y3.300 F500
G01 X102.442 Y2.873
G03 X102.497 Y2.678 I0.7160 J0.0965
G01 X102.889 Y1.732
G03 X102.993 Y1.558 I0.6666 J0.2785
G01 X103.616 Y0.745
G03 X103.761 Y0.604 I0.5718 J0.4416
G01 X104.574 Y-0.019
G03 X104.751 Y-0.118 I0.4380 J0.5745
G01 X105.697 Y-0.510
G03 X105.893 Y-0.560 I0.2744 J0.6683
G01 X106.909 Y-0.694
G03 X107.111 Y-0.691 I0.0921 J0.7166
G01 X108.127 Y-0.558
G03 X108.322 Y-0.503 I-0.0965 J0.7160
G01 X109.268 Y-0.111
G03 X109.442 Y-0.007 I-0.2785 J0.6666
G01 X110.255 Y0.616
G03 X110.396 Y0.761 I-0.4416 J0.5718
G01 X111.019 Y1.574
G03 X111.118 Y1.751 I-0.5745 J0.4380
G01 X111.510 Y2.697
G03 X111.560 Y2.893 I-0.6683 J0.2744
G01 X111.694 Y3.909
G03 X111.691 Y4.111 I-0.7166 J0.0921
G01 X111.558 Y5.127
G03 X111.503 Y5.322 I-0.7160 J-0.0965
G01 X111.111 Y6.268
G03 X111.007 Y6.442 I-0.6666 J-0.2785
G01 X110.384 Y7.255
G03 X110.239 Y7.396 I-0.5718 J-0.4416
G01 X109.426 Y8.019
G03 X109.249 Y8.118 I-0.4380 J-0.5745
G01 X108.303 Y8.510
G03 X108.107 Y8.560 I-0.2744 J-0.6683
G01 X107.706 Y8.613
G01 X107.703 Y30.297
G00 Z-1.750
G01 Y35.697
G00 Z-2.000
G01 Z-3.000 F200
G01 X107.700 Y57.380 F500
G01 X108.127 Y57.442
G03 X108.322 Y57.497 I-0.0965 J0.7160
G01 X109.268 Y57.889
G03 X109.442 Y57.993 I-0.2785 J0.6666
G01 X110.255 Y58.616
G03 X110.396 Y58.761 I-0.4416 J0.5718
G01 X111.019 Y59.574
G03 X111.118 Y59.751 I-0.5745 J0.4380
G01 X111.510 Y60.697
G03 X111.560 Y60.893 I-0.6683 J0.2744
G01 X111.694 Y61.909
G03 X111.691 Y62.111 I-0.7166 J0.0921
G01 X111.558 Y63.127
G03 X111.503 Y63.322 I-0.7160 J-0.0965
G01 X111.111 Y64.268
G03 X111.007 Y64.442 I-0.6666 J-0.2785
G01 X110.384 Y65.255
G03 X110.239 Y65.396 I-0.5718 J-0.4416
G01 X109.426 Y66.019
G03 X109.249 Y66.118 I-0.4380 J-0.5745
G01 X108.303 Y66.510
G03 X108.107 Y66.560 I-0.2744 J-0.6683
G01 X107.091 Y66.694
G03 X106.889 Y66.691 I-0.0921 J-0.7166
G01 X105.873 Y66.558
G03 X105.678 Y66.503 I0.0965 J-0.7160
G01 X104.732 Y66.111
G03 X104.558 Y66.007 I0.2785 J-0.6666
G01 X103.745 Y65.384
G03 X103.604 Y65.239 I0.4416 J-0.5718
G01 X102.981 Y64.426
G03 X102.882 Y64.249 I0.5745 J-0.4380
G01 X102.490 Y63.303
G03 X102.440 Y63.107 I0.6683 J-0.2744
G01 X102.387 Y62.706
G01 X88.469 Y62.705
G00 Z-1.750
G01 X83.069
G00 Z-2.000
G01 Z-3.000 F200
G01 X31.546 Y62.701 F500
G00 Z-1.750
G01 X26.146
G00 Z-2.000
G01 Z-3.000 F200
G01 X8.620 Y62.700 F500
G01 X8.558 Y63.127
G03 X8.503 Y63.322 I-0.7160 J-0.0965
G01 X8.111 Y64.268
G03 X8.007 Y64.442 I-0.6666 J-0.2785
G01 X7.384 Y65.255
G03 X7.239 Y65.396 I-0.5718 J-0.4416
G01 X6.426 Y66.019
G03 X6.249 Y66.118 I-0.4380 J-0.5745
G01 X5.303 Y66.510
G03 X5.107 Y66.560 I-0.2744 J-0.6683
G01 X4.091 Y66.694
G03 X3.889 Y66.691 I-0.0921 J-0.7166
G01 X2.873 Y66.558
G03 X2.678 Y66.503 I0.0965 J-0.7160
G01 X1.732 Y66.111
G03 X1.558 Y66.007 I0.2785 J-0.6666
G01 X0.745 Y65.384
G03 X0.604 Y65.239 I0.4416 J-0.5718
G01 X-0.019 Y64.426
G03 X-0.118 Y64.249 I0.5745 J-0.4380
G01 X-0.510 Y63.303
G03 X-0.560 Y63.107 I0.6683 J-0.2744
G01 X-0.694 Y62.091
G01 X-0.700 Y62.022
G01 X-0.698 Y61.952
G01 X-0.691 Y61.889
G01 X-0.558 Y60.873
G03 X-0.503 Y60.678 I0.7160 J0.0965
G01 X-0.111 Y59.732
G03 X-0.007 Y59.558 I0.6666 J0.2785
G01 X0.616 Y58.745
G03 X0.761 Y58.604 I0.5718 J0.4416
G01 X1.574 Y57.981
G03 X1.751 Y57.882 I0.4380 J0.5745
G01 X2.697 Y57.490
G03 X2.893 Y57.440 I0.2744 J0.6683
G01 X3.294 Y57.387
G01 X3.297 Y35.703
G00 Z-1.750
G01 Y30.303
G00 Z-2.500
G01 Z-3.500 F200
G01 X3.300 Y8.620 F500
G01 X2.873 Y8.558
G03 X2.678 Y8.503 I0.0965 J-0.7160
G01 X1.732 Y8.111
G03 X1.558 Y8.007 I0.2785 J-0.6666
G01 X0.745 Y7.384
G03 X0.604 Y7.239 I0.4416 J-0.5718
G01 X-0.019 Y6.426
G03 X-0.118 Y6.249 I0.5745 J-0.4380
G01 X-0.510 Y5.303
G03 X-0.560 Y5.107 I0.6683 J-0.2744
G01 X-0.694 Y4.091
G01 X-0.700 Y4.022
G01 X-0.698 Y3.952
G01 X-0.691 Y3.889
G01 X-0.558 Y2.873
G03 X-0.503 Y2.678 I0.7160 J0.0965
G01 X-0.111 Y1.732
G03 X-0.007 Y1.558 I0.6666 J0.2785
G01 X0.616 Y0.745
G03 X0.761 Y0.604 I0.5718 J0.4416
G01 X1.574 Y-0.019
G03 X1.751 Y-0.118 I0.4380 J0.5745
G01 X2.697 Y-0.510
G03 X2.893 Y-0.560 I0.2744 J0.6683
G01 X3.909 Y-0.694
G03 X4.111 Y-0.691 I0.0921 J0.7166
G01 X5.127 Y-0.558
G03 X5.322 Y-0.503 I-0.0965 J0.7160
G01 X6.268 Y-0.111
G03 X6.442 Y-0.007 I-0.2785 J0.6666
G01 X7.255 Y0.616
G03 X7.396 Y0.761 I-0.4416 J0.5718
G01 X8.019 Y1.574
G03 X8.118 Y1.751 I-0.5745 J0.4380
G01 X8.510 Y2.697
G03 X8.560 Y2.893 I-0.6683 J0.2744
G01 X8.613 Y3.294
G01 X25.482 Y3.295
G00 Z-1.750
G01 X30.882
G00 Z-2.500
G01 Z-3.500 F200
G01 X82.183 Y3.299 F500
G00 Z-1.750
G01 X87.583
G00 Z-2.500
G01 Z-3.500 F200
G01 X102.380 Y3.300 F500
G01 X102.442 Y2.873
G03 X102.497 Y2.678 I0.7160 J0.0965
G01 X102.889 Y1.732
G03 X102.993 Y1.558 I0.6666 J0.2785
G01 X103.616 Y0.745
G03 X103.761 Y0.604 I0.5718 J0.4416
G01 X104.574 Y-0.019
G03 X104.751 Y-0.118 I0.4380 J0.5745
G01 X105.697 Y-0.510
G03 X105.893 Y-0.560 I0.2744 J0.6683
G01 X106.909 Y-0.694
G03 X107.111 Y-0.691 I0.0921 J0.7166
G01 X108.127 Y-0.558
G03 X108.322 Y-0.503 I-0.0965 J0.7160
G01 X109.268 Y-0.111
G03 X109.442 Y-0.007 I-0.2785 J0.6666
G01 X110.255 Y0.616
G03 X110.396 Y0.761 I-0.4416 J0.5718
G01 X111.019 Y1.574
G03 X111.118 Y1.751 I-0.5745 J0.4380
G01 X111.510 Y2.697
G03 X111.560 Y2.893 I-0.6683 J0.2744
G01 X111.694 Y3.909
G03 X111.691 Y4.111 I-0.7166 J0.0921
G01 X111.558 Y5.127
G03 X111.503 Y5.322 I-0.7160 J-0.0965
G01 X111.111 Y6.268
G03 X111.007 Y6.442 I-0.6666 J-0.2785
G01 X110.384 Y7.255
G03 X110.239 Y7.396 I-0.5718 J-0.4416
G01 X109.426 Y8.019
G03 X109.249 Y8.118 I-0.4380 J-0.5745
G01 X108.303 Y8.510
G03 X108.107 Y8.560 I-0.2744 J-0.6683
G01 X107.706 Y8.613
G01 X107.703 Y30.297
G00 Z-1.750
G01 Y35.697
G00 Z-2.500
G01 Z-3.500 F200
G01 X107.700 Y57.380 F500
G01 X108.127 Y57.442
G03 X108.322 Y57.497 I-0.0965 J0.7160
G01 X109.268 Y57.889
G03 X109.442 Y57.993 I-0.2785 J0.6666
G01 X110.255 Y58.616
G03 X110.396 Y58.761 I-0.4416 J0.5718
G01 X111.019 Y59.574
G03 X111.118 Y59.751 I-0.5745 J0.4380
G01 X111.510 Y60.697
G03 X111.560 Y60.893 I-0.6683 J0.2744
G01 X111.694 Y61.909
G03 X111.691 Y62.111 I-0.7166 J0.0921
G01 X111.558 Y63.127
G03 X111.503 Y63.322 I-0.7160 J-0.0965
G01 X111.111 Y64.268
G03 X111.007 Y64.442 I-0.6666 J-0.2785
G01 X110.384 Y65.255
G03 X110.239 Y65.396 I-0.5718 J-0.4416
G01 X109.426 Y66.019
G03 X109.249 Y66.118 I-0.4380 J-0.5745
G01 X108.303 Y66.510
G03 X108.107 Y66.560 I-0.2744 J-0.6683
G01 X107.091 Y66.694
G03 X106.889 Y66.691 I-0.0921 J-0.7166
G01 X105.873 Y66.558
G03 X105.678 Y66.503 I0.0965 J-0.7160
G01 X104.732 Y66.111
G03 X104.558 Y66.007 I0.2785 J-0.6666
G01 X103.745 Y65.384
G03 X103.604 Y65.239 I0.4416 J-0.5718
G01 X102.981 Y64.426
G03 X102.882 Y64.249 I0.5745 J-0.4380
G01 X102.490 Y63.303
G03 X102.440 Y63.107 I0.6683 J-0.2744
G01 X102.387 Y62.706
G01 X88.469 Y62.705
G00 Z-1.750
G01 X83.069
G00 Z-2.500
G01 Z-3.500 F200
G01 X31.546 Y62.701 F500
G00 Z-1.750
G01 X26.146
G00 Z-2.500
G01 Z-3.500 F200
G01 X8.620 Y62.700 F500
G01 X8.558 Y63.127
G03 X8.503 Y63.322 I-0.7160 J-0.0965
G01 X8.111 Y64.268
G03 X8.007 Y64.442 I-0.6666 J-0.2785
G01 X7.384 Y65.255
G03 X7.239 Y65.396 I-0.5718 J-0.4416
G01 X6.426 Y66.019
G03 X6.249 Y66.118 I-0.4380 J-0.5745
G01 X5.303 Y66.510
G03 X5.107 Y66.560 I-0.2744 J-0.6683
G01 X4.091 Y66.694
G03 X3.889 Y66.691 I-0.0921 J-0.7166
G01 X2.873 Y66.558
G03 X2.678 Y66.503 I0.0965 J-0.7160
G01 X1.732 Y66.111
G03 X1.558 Y66.007 I0.2785 J-0.6666
G01 X0.745 Y65.384
G03 X0.604 Y65.239 I0.4416 J-0.5718
G01 X-0.019 Y64.426
G03 X-0.118 Y64.249 I0.5745 J-0.4380
G01 X-0.510 Y63.303
G03 X-0.560 Y63.107 I0.6683 J-0.2744
G01 X-0.694 Y62.091
G01 X-0.700 Y62.022
G01 X-0.698 Y61.952
G01 X-0.691 Y61.889
G01 X-0.558 Y60.873
G03 X-0.503 Y60.678 I0.7160 J0.0965
G01 X-0.111 Y59.732
G03 X-0.007 Y59.558 I0.6666 J0.2785
G01 X0.616 Y58.745
G03 X0.761 Y58.604 I0.5718 J0.4416
G01 X1.574 Y57.981
G03 X1.751 Y57.882 I0.4380 J0.5745
G01 X2.697 Y57.490
G03 X2.893 Y57.440 I0.2744 J0.6683
G01 X3.294 Y57.387
G01 X3.297 Y35.703
G00 Z-1.750
G01 Y30.303
G00 Z-3.000
G01 Z-3.750 F200
G01 X3.300 Y8.620 F500
G01 X2.873 Y8.558
G03 X2.678 Y8.503 I0.0965 J-0.7160
G01 X1.732 Y8.111
G03 X1.558 Y8.007 I0.2785 J-0.6666
G01 X0.745 Y7.384
G03 X0.604 Y7.239 I0.4416 J-0.5718
G01 X-0.019 Y6.426
G03 X-0.118 Y6.249 I0.5745 J-0.4380
G01 X-0.510 Y5.303
G03 X-0.560 Y5.107 I0.6683 J-0.2744
G01 X-0.694 Y4.091
G01 X-0.700 Y4.022
G01 X-0.698 Y3.952
G01 X-0.691 Y3.889
G01 X-0.558 Y2.873
G03 X-0.503 Y2.678 I0.7160 J0.0965
G01 X-0.111 Y1.732
G03 X-0.007 Y1.558 I0.6666 J0.2785
G01 X0.616 Y0.745
G03 X0.761 Y0.604 I0.5718 J0.4416
G01 X1.574 Y-0.019
G03 X1.751 Y-0.118 I0.4380 J0.5745
G01 X2.697 Y-0.510
G03 X2.893 Y-0.560 I0.2744 J0.6683
G01 X3.909 Y-0.694
G03 X4.111 Y-0.691 I0.0921 J0.7166
G01 X5.127 Y-0.558
G03 X5.322 Y-0.503 I-0.0965 J0.7160
G01 X6.268 Y-0.111
G03 X6.442 Y-0.007 I-0.2785 J0.6666
G01 X7.255 Y0.616
G03 X7.396 Y0.761 I-0.4416 J0.5718
G01 X8.019 Y1.574
G03 X8.118 Y1.751 I-0.5745 J0.4380
G01 X8.510 Y2.697
G03 X8.560 Y2.893 I-0.6683 J0.2744
G01 X8.613 Y3.294
G01 X25.482 Y3.295
G00 Z-1.750
G01 X30.882
G00 Z-3.000
G01 Z-3.750 F200
G01 X82.183 Y3.299 F500
G00 Z-1.750
G01 X87.583
G00 Z-3.000
G01 Z-3.750 F200
G01 X102.380 Y3.300 F500
G01 X102.442 Y2.873
G03 X102.497 Y2.678 I0.7160 J0.0965
G01 X102.889 Y1.732
G03 X102.993 Y1.558 I0.6666 J0.2785
G01 X103.616 Y0.745
G03 X103.761 Y0.604 I0.5718 J0.4416
G01 X104.574 Y-0.019
G03 X104.751 Y-0.118 I0.4380 J0.5745
G01 X105.697 Y-0.510
G03 X105.893 Y-0.560 I0.2744 J0.6683
G01 X106.909 Y-0.694
G03 X107.111 Y-0.691 I0.0921 J0.7166
G01 X108.127 Y-0.558
G03 X108.322 Y-0.503 I-0.0965 J0.7160
G01 X109.268 Y-0.111
G03 X109.442 Y-0.007 I-0.2785 J0.6666
G01 X110.255 Y0.616
G03 X110.396 Y0.761 I-0.4416 J0.5718
G01 X111.019 Y1.574
G03 X111.118 Y1.751 I-0.5745 J0.4380
G01 X111.510 Y2.697
G03 X111.560 Y2.893 I-0.6683 J0.2744
G01 X111.694 Y3.909
G03 X111.691 Y4.111 I-0.7166 J0.0921
G01 X111.558 Y5.127
G03 X111.503 Y5.322 I-0.7160 J-0.0965
G01 X111.111 Y6.268
G03 X111.007 Y6.442 I-0.6666 J-0.2785
G01 X110.384 Y7.255
G03 X110.239 Y7.396 I-0.5718 J-0.4416
G01 X109.426 Y8.019
G03 X109.249 Y8.118 I-0.4380 J-0.5745
G01 X108.303 Y8.510
G03 X108.107 Y8.560 I-0.2744 J-0.6683
G01 X107.706 Y8.613
G01 X107.703 Y30.297
G00 Z-1.750
G01 Y35.697
G00 Z-3.000
G01 Z-3.750 F200
G01 X107.700 Y57.380 F500
G01 X108.127 Y57.442
G03 X108.322 Y57.497 I-0.0965 J0.7160
G01 X109.268 Y57.889
G03 X109.442 Y57.993 I-0.2785 J0.6666
G01 X110.255 Y58.616
G03 X110.396 Y58.761 I-0.4416 J0.5718
G01 X111.019 Y59.574
G03 X111.118 Y59.751 I-0.5745 J0.4380
G01 X111.510 Y60.697
G03 X111.560 Y60.893 I-0.6683 J0.2744
G01 X111.694 Y61.909
G03 X111.691 Y62.111 I-0.7166 J0.0921
G01 X111.558 Y63.127
G03 X111.503 Y63.322 I-0.7160 J-0.0965
G01 X111.111 Y64.268
G03 X111.007 Y64.442 I-0.6666 J-0.2785
G01 X110.384 Y65.255
G03 X110.239 Y65.396 I-0.5718 J-0.4416
G01 X109.426 Y66.019
G03 X109.249 Y66.118 I-0.4380 J-0.5745
G01 X108.303 Y66.510
G03 X108.107 Y66.560 I-0.2744 J-0.6683
G01 X107.091 Y66.694
G03 X106.889 Y66.691 I-0.0921 J-0.7166
G01 X105.873 Y66.558
G03 X105.678 Y66.503 I0.0965 J-0.7160
G01 X104.732 Y66.111
G03 X104.558 Y66.007 I0.2785 J-0.6666
G01 X103.745 Y65.384
G03 X103.604 Y65.239 I0.4416 J-0.5718
G01 X102.981 Y64.426
G03 X102.882 Y64.249 I0.5745 J-0.4380
G01 X102.490 Y63.303
G03 X102.440 Y63.107 I0.6683 J-0.2744
G01 X102.387 Y62.706
G01 X88.469 Y62.705
G00 Z-1.750
G01 X83.069
G00 Z-3.000
G01 Z-3.750 F200
G01 X31.546 Y62.701 F500
G00 Z-1.750
G01 X26.146
G00 Z-3.000
G01 Z-3.750 F200
G01 X8.620 Y62.700 F500
G01 X8.558 Y63.127
G03 X8.503 Y63.322 I-0.7160 J-0.0965
G01 X8.111 Y64.268
G03 X8.007 Y64.442 I-0.6666 J-0.2785
G01 X7.384 Y65.255
G03 X7.239 Y65.396 I-0.5718 J-0.4416
G01 X6.426 Y66.019
G03 X6.249 Y66.118 I-0.4380 J-0.5745
G01 X5.303 Y66.510
G03 X5.107 Y66.560 I-0.2744 J-0.6683
G01 X4.091 Y66.694
G03 X3.889 Y66.691 I-0.0921 J-0.7166
G01 X2.873 Y66.558
G03 X2.678 Y66.503 I0.0965 J-0.7160
G01 X1.732 Y66.111
G03 X1.558 Y66.007 I0.2785 J-0.6666
G01 X0.745 Y65.384
G03 X0.604 Y65.239 I0.4416 J-0.5718
G01 X-0.019 Y64.426
G03 X-0.118 Y64.249 I0.5745 J-0.4380
G01 X-0.510 Y63.303
G03 X-0.560 Y63.107 I0.6683 J-0.2744
G01 X-0.694 Y62.091
G01 X-0.700 Y62.022
G01 X-0.698 Y61.952
G01 X-0.691 Y61.889
G01 X-0.558 Y60.873
G03 X-0.503 Y60.678 I0.7160 J0.0965
G01 X-0.111 Y59.732
G03 X-0.007 Y59.558 I0.6666 J0.2785
G01 X0.616 Y58.745
G03 X0.761 Y58.604 I0.5718 J0.4416
G01 X1.574 Y57.981
G03 X1.751 Y57.882 I0.4380 J0.5745
G01 X2.697 Y57.490
G03 X2.893 Y57.440 I0.2744 J0.6683
G01 X3.294 Y57.387
G01 X3.297 Y35.703
G00 Z-1.750
G01 Y30.303
G00 Z20.000
G00 X0.000 Y0.000

M05
M30
